ayah05/MobileRobot/prediction_data/predictions.csv
timestamp,actual_x,actual_y,actual_qx,actual_qy,actual_qz,actual_qw,predicted_x,predicted_y,predicted_qx,predicted_qy,predicted_qz,predicted_qw
18.6,-0.001,-0.0,-0.0,-0.0,0.0,1.0,-0.118,0.175,-0.0,-0.0,-0.123,0.39
18.85,-0.001,-0.0,-0.0,-0.0,0.0,1.0,-0.118,0.175,-0.0,-0.0,-0.123,0.39
19.35,-0.001,-0.0,-0.0,-0.0,0.0,1.0,-0.118,0.175,-0.0,-0.0,-0.123,0.39
19.6,-0.001,-0.0,-0.0,-0.0,0.0,1.0,-0.118,0.175,-0.0,-0.0,-0.123,0.39
19.85,-0.001,-0.0,-0.0,-0.0,0.0,1.0,-0.118,0.175,-0.0,-0.0,-0.123,0.39
20.1,-0.001,-0.0,-0.0,-0.0,0.0,1.0,-0.118,0.175,-0.0,-0.0,-0.123,0.39
20.35,-0.001,-0.0,-0.0,-0.0,0.0,1.0,-0.118,0.175,-0.0,-0.0,-0.123,0.39
20.6,-0.001,-0.0,-0.0,-0.0,0.0,1.0,-0.118,0.175,-0.0,-0.0,-0.123,0.39
20.85,-0.001,-0.0,-0.0,-0.0,0.0,1.0,-0.118,0.175,-0.0,-0.0,-0.123,0.39
21.1,-0.001,-0.0,-0.0,-0.0,0.0,1.0,-0.118,0.175,-0.0,-0.0,-0.123,0.39
21.35,-0.001,-0.0,-0.0,-0.0,0.0,1.0,-0.118,0.175,-0.0,-0.0,-0.123,0.39
22.1,-0.001,-0.0,-0.0,-0.0,0.0,1.0,-0.118,0.175,-0.0,-0.0,-0.123,0.39
22.35,-0.001,-0.0,-0.0,-0.0,0.0,1.0,-0.118,0.175,-0.0,-0.0,-0.123,0.39
22.6,-0.001,-0.0,-0.0,-0.0,0.0,1.0,-0.118,0.175,-0.0,-0.0,-0.123,0.39
23.1,-0.002,-0.0,-0.0,-0.0,0.0,1.0,-0.118,0.175,-0.0,-0.0,-0.123,0.39
23.85,-0.002,-0.0,-0.0,-0.0,0.0,1.0,-0.118,0.175,-0.0,-0.0,-0.123,0.39
24.35,-0.002,-0.0,-0.0,-0.0,0.0,1.0,-0.118,0.175,-0.0,-0.0,-0.123,0.39
24.6,-0.002,-0.0,-0.0,-0.0,0.0,1.0,-0.118,0.175,-0.0,-0.0,-0.123,0.39
24.85,-0.002,-0.0,-0.0,-0.0,0.0,1.0,-0.118,0.175,-0.0,-0.0,-0.123,0.39
25.6,-0.002,-0.0,-0.0,-0.0,0.0,1.0,-0.118,0.175,-0.0,-0.0,-0.123,0.39
32.95,-0.002,-0.0,-0.0,-0.0,0.0,1.0,-0.118,0.175,-0.0,-0.0,-0.123,0.39
33.2,-0.002,-0.0,-0.0,-0.0,0.0,1.0,-0.119,0.175,-0.0,-0.0,-0.123,0.39
34.45,-0.002,-0.0,-0.0,-0.0,0.0,1.0,-0.119,0.175,-0.0,-0.0,-0.123,0.39
34.95,-0.002,-0.0,-0.0,-0.0,0.0,1.0,-0.119,0.175,-0.0,-0.0,-0.123,0.39
35.2,-0.002,-0.0,-0.0,-0.0,0.0,1.0,-0.119,0.175,-0.0,-0.0,-0.123,0.39
35.7,-0.002,-0.0,-0.0,-0.0,0.0,1.0,-0.119,0.175,-0.0,-0.0,-0.123,0.39
36.2,-0.002,-0.0,-0.0,-0.0,0.0,1.0,-0.119,0.175,-0.0,-0.0,-0.123,0.39
36.7,-0.002,-0.0,-0.0,-0.0,0.0,1.0,-0.119,0.175,-0.0,-0.0,-0.123,0.39
37.2,-0.002,-0.0,-0.0,-0.0,0.0,1.0,-0.119,0.175,-0.0,-0.0,-0.123,0.39
37.7,-0.003,-0.0,-0.0,-0.0,0.0,1.0,-0.119,0.175,-0.0,-0.0,-0.123,0.39
37.95,-0.003,-0.0,-0.0,-0.0,0.0,1.0,-0.119,0.175,-0.0,-0.0,-0.123,0.39
38.2,-0.003,-0.0,-0.0,-0.0,0.0,1.0,-0.119,0.175,-0.0,-0.0,-0.123,0.39
38.7,-0.003,-0.0,-0.0,-0.0,0.0,1.0,-0.119,0.175,-0.0,-0.0,-0.123,0.39
39.2,-0.003,-0.0,-0.0,-0.0,0.0,1.0,-0.119,0.175,-0.0,-0.0,-0.123,0.39
39.45,-0.003,-0.0,-0.0,-0.0,0.0,1.0,-0.119,0.175,-0.0,-0.0,-0.123,0.39
39.95,-0.003,-0.0,-0.0,-0.0,0.0,1.0,-0.119,0.175,-0.0,-0.0,-0.123,0.39
40.95,-0.003,-0.0,-0.0,-0.0,0.0,1.0,-0.119,0.175,-0.0,-0.0,-0.123,0.39
41.7,0.042,-0.001,-0.0,-0.0,-0.026,1.0,-0.1,0.168,-0.0,-0.0,-0.123,0.391
41.95,0.204,-0.025,-0.0,0.0,-0.127,0.992,-0.022,0.131,-0.0,-0.0,-0.122,0.395
43.2,0.904,-0.688,-0.0,-0.0,-0.576,0.817,0.324,-0.095,-0.0,0.0,-0.119,0.414
43.45,0.951,-0.882,-0.0,-0.0,-0.659,0.752,0.607,-0.531,-0.0,0.0,-0.132,0.318
43.7,0.957,-1.081,-0.0,-0.0,-0.739,0.674,0.618,-0.934,-0.0,0.0,-0.152,0.238
44.2,0.845,-1.448,-0.0,-0.0,-0.855,0.518,0.488,-1.303,-0.0,0.0,-0.163,0.19
44.45,0.738,-1.617,-0.0,-0.0,-0.893,0.45,0.341,-1.602,-0.0,0.0,-0.169,0.17
44.7,0.611,-1.77,-0.0,-0.0,-0.916,0.401,0.171,-1.863,-0.0,0.0,-0.172,0.166
45.45,0.19,-2.177,-0.0,-0.0,-0.931,0.364,-0.2,-2.22,-0.0,0.0,-0.169,0.182
47.2,-0.792,-3.124,-0.0,-0.0,-0.924,0.382,-1.014,-2.849,-0.0,0.0,-0.155,0.218
47.45,-0.928,-3.259,-0.0,-0.0,-0.925,0.38,-1.269,-3.327,-0.0,0.0,-0.156,0.246
47.7,-1.07,-3.4,-0.0,-0.0,-0.925,0.379,-1.283,-3.668,0.0,0.0,-0.166,0.262
48.45,-1.488,-3.809,-0.0,-0.0,-0.924,0.383,-1.589,-4.051,0.0,0.0,-0.164,0.285
48.7,-1.629,-3.952,-0.0,-0.0,-0.922,0.386,-1.746,-4.332,0.0,0.0,-0.164,0.303
49.7,-2.193,-4.52,-0.0,-0.0,-0.924,0.381,-2.297,-4.765,0.0,0.0,-0.143,0.335
49.95,-2.335,-4.661,-0.0,-0.0,-0.924,0.382,-2.57,-5.063,0.0,0.0,-0.134,0.366
50.7,-2.752,-5.089,-0.0,-0.0,-0.921,0.389,-3.029,-5.429,0.0,0.0,-0.11,0.416
50.95,-2.892,-5.233,-0.0,-0.0,-0.922,0.387,-3.265,-5.674,0.0,0.0,-0.099,0.454
64.15,-8.959,-9.031,-0.0,0.0,-0.71,-0.704,-6.387,-7.375,0.0,0.0,0.183,0.626
64.4,-8.959,-9.031,-0.0,0.0,-0.71,-0.704,-8.21,-8.169,0.0,0.0,0.358,0.727
65.15,-8.959,-9.031,-0.0,0.0,-0.71,-0.704,-8.609,-8.383,0.0,0.0,0.389,0.721
66.15,-8.959,-9.031,-0.0,0.0,-0.711,-0.703,-8.695,-8.42,0.0,0.0,0.397,0.718
66.4,-8.959,-9.031,-0.0,0.0,-0.711,-0.703,-8.692,-8.408,0.0,0.0,0.397,0.717
66.65,-8.959,-9.031,-0.0,0.0,-0.711,-0.703,-8.66,-8.383,0.0,0.0,0.395,0.717
66.9,-8.959,-9.031,-0.0,0.0,-0.711,-0.703,-8.61,-8.348,0.0,0.0,0.391,0.719
67.15,-8.959,-9.031,-0.0,0.0,-0.711,-0.703,-8.555,-8.311,0.0,0.0,0.387,0.72
67.4,-8.959,-9.031,-0.0,0.0,-0.711,-0.703,-8.5,-8.276,0.0,0.0,0.383,0.722
67.9,-8.959,-9.031,-0.0,0.0,-0.712,-0.702,-8.461,-8.251,0.0,0.0,0.38,0.723
68.15,-8.959,-9.031,-0.0,0.0,-0.712,-0.702,-8.461,-8.251,0.0,0.0,0.38,0.723
68.4,-8.959,-9.032,-0.0,0.0,-0.712,-0.702,-8.461,-8.251,0.0,0.0,0.38,0.723
68.65,-8.959,-9.032,-0.0,0.0,-0.712,-0.702,-8.461,-8.251,0.0,0.0,0.38,0.723
68.9,-8.959,-9.032,-0.0,0.0,-0.712,-0.702,-8.461,-8.25,0.0,0.0,0.38,0.723
69.9,-8.959,-9.032,-0.0,0.0,-0.713,-0.701,-8.46,-8.25,0.0,0.0,0.38,0.723
70.65,-8.959,-9.032,-0.0,0.0,-0.714,-0.7,-8.46,-8.25,0.0,0.0,0.38,0.724
70.9,-8.959,-9.032,-0.0,0.0,-0.714,-0.7,-8.46,-8.25,0.0,0.0,0.38,0.724
71.15,-8.959,-9.032,-0.0,0.0,-0.714,-0.7,-8.459,-8.25,0.0,0.0,0.38,0.724
71.9,-8.959,-9.032,-0.0,0.0,-0.715,-0.699,-8.459,-8.25,0.0,0.0,0.38,0.724
72.65,-8.959,-9.032,-0.0,0.0,-0.716,-0.698,-8.459,-8.249,0.0,0.0,0.38,0.724
73.15,-8.959,-9.032,-0.0,0.0,-0.716,-0.698,-8.458,-8.249,0.0,0.0,0.38,0.724
73.4,-8.959,-9.032,-0.0,0.0,-0.716,-0.698,-8.458,-8.249,0.0,0.0,0.38,0.724
73.65,-8.959,-9.032,-0.0,0.0,-0.717,-0.697,-8.458,-8.249,0.0,0.0,0.38,0.724
73.9,-8.959,-9.032,-0.0,0.0,-0.717,-0.697,-8.457,-8.248,0.0,0.0,0.38,0.724
74.15,-8.959,-9.032,-0.0,0.0,-0.717,-0.697,-8.457,-8.248,0.0,0.0,0.38,0.724
74.65,-8.959,-9.032,-0.0,0.0,-0.718,-0.696,-8.457,-8.248,0.0,0.0,0.38,0.724
74.9,-8.959,-9.032,-0.0,0.0,-0.718,-0.696,-8.457,-8.248,0.0,0.0,0.38,0.724
75.65,-8.959,-9.032,-0.0,0.0,-0.719,-0.695,-8.456,-8.248,0.0,0.0,0.38,0.724
76.15,-8.959,-9.032,-0.0,0.0,-0.719,-0.695,-8.456,-8.247,0.0,0.0,0.38,0.724
76.4,-8.959,-9.032,-0.0,0.0,-0.72,-0.694,-8.455,-8.247,0.0,0.0,0.38,0.724
76.65,-8.959,-9.032,-0.0,0.0,-0.72,-0.694,-8.455,-8.247,0.0,0.0,0.38,0.724
77.4,-8.959,-9.033,-0.0,0.0,-0.721,-0.693,-8.455,-8.247,0.0,0.0,0.38,0.724
77.65,-8.959,-9.033,-0.0,0.0,-0.721,-0.693,-8.454,-8.246,0.0,0.0,0.38,0.724
77.9,-8.959,-9.033,-0.0,0.0,-0.722,-0.692,-8.454,-8.246,0.0,0.0,0.38,0.724
79.15,-8.959,-9.033,-0.0,0.0,-0.723,-0.69,-8.453,-8.246,0.0,0.0,0.38,0.724
79.4,-8.959,-9.033,-0.0,0.0,-0.724,-0.69,-8.453,-8.245,0.0,0.0,0.38,0.724
79.9,-8.959,-9.033,-0.0,0.0,-0.724,-0.689,-8.452,-8.245,0.0,0.0,0.38,0.724
80.65,-8.959,-9.033,-0.0,0.0,-0.726,-0.688,-8.452,-8.245,0.0,0.0,0.38,0.724
80.9,-8.959,-9.033,-0.0,0.0,-0.726,-0.688,-8.451,-8.244,0.0,0.0,0.38,0.724
81.15,-8.959,-9.033,-0.0,0.0,-0.726,-0.687,-8.45,-8.244,0.0,0.0,0.38,0.724
81.65,-8.959,-9.033,-0.0,0.0,-0.727,-0.687,-8.45,-8.244,0.0,0.0,0.38,0.724
82.15,-8.959,-9.033,-0.0,0.0,-0.728,-0.686,-8.449,-8.243,0.0,0.0,0.38,0.724
82.4,-8.959,-9.033,-0.0,0.0,-0.728,-0.685,-8.449,-8.243,0.0,0.0,0.38,0.724
82.65,-8.959,-9.033,-0.0,-0.0,-0.729,-0.685,-8.449,-8.243,0.0,0.0,0.38,0.724
83.65,-8.959,-9.033,-0.0,-0.0,-0.73,-0.683,-8.448,-8.242,0.0,0.0,0.38,0.724
83.9,-8.959,-9.033,-0.0,-0.0,-0.731,-0.683,-8.447,-8.242,0.0,0.0,0.38,0.724
85.4,-8.959,-9.034,-0.0,-0.0,-0.733,-0.68,-8.447,-8.242,0.0,0.0,0.379,0.724
85.9,-8.959,-9.034,-0.0,-0.0,-0.734,-0.679,-8.446,-8.241,0.0,0.0,0.379,0.724
86.15,-8.959,-9.034,-0.0,-0.0,-0.734,-0.679,-8.445,-8.24,0.0,0.0,0.379,0.724
86.4,-8.959,-9.034,-0.0,-0.0,-0.735,-0.678,-8.444,-8.24,0.0,0.0,0.379,0.724
87.15,-8.959,-9.034,-0.0,0.0,-0.736,-0.677,-8.443,-8.24,0.0,0.0,0.379,0.724
87.65,-8.959,-9.034,-0.0,0.0,-0.737,-0.676,-8.443,-8.239,0.0,0.0,0.379,0.724
88.15,-8.959,-9.034,-0.0,0.0,-0.738,-0.675,-8.442,-8.239,0.0,0.0,0.379,0.724
88.4,-8.959,-9.034,-0.0,0.0,-0.738,-0.675,-8.441,-8.238,0.0,0.0,0.379,0.724
88.9,-8.959,-9.034,-0.0,0.0,-0.739,-0.674,-8.441,-8.238,0.0,0.0,0.379,0.724
89.15,-8.959,-9.034,-0.0,0.0,-0.739,-0.673,-8.44,-8.238,0.0,0.0,0.379,0.724
89.65,-8.959,-9.034,-0.0,0.0,-0.74,-0.673,-8.44,-8.237,0.0,0.0,0.379,0.724
90.15,-8.959,-9.034,-0.0,0.0,-0.741,-0.672,-8.439,-8.237,0.0,0.0,0.379,0.724
90.4,-8.959,-9.034,-0.0,0.0,-0.741,-0.671,-8.439,-8.237,0.0,0.0,0.379,0.724
90.9,-8.959,-9.034,-0.0,0.0,-0.742,-0.67,-8.438,-8.236,0.0,0.0,0.379,0.724
91.15,-8.959,-9.034,-0.0,0.0,-0.742,-0.67,-8.438,-8.236,0.0,0.0,0.379,0.724
91.4,-8.959,-9.034,-0.0,0.0,-0.743,-0.669,-8.437,-8.236,0.0,0.0,0.379,0.724
91.9,-8.959,-9.034,-0.0,0.0,-0.744,-0.668,-8.437,-8.235,0.0,0.0,0.379,0.724
92.15,-8.959,-9.034,-0.0,0.0,-0.744,-0.668,-8.436,-8.235,0.0,0.0,0.379,0.724
92.65,-8.959,-9.034,-0.0,0.0,-0.745,-0.667,-8.436,-8.235,0.0,0.0,0.379,0.724
92.9,-8.959,-9.034,-0.0,0.0,-0.745,-0.667,-8.435,-8.234,0.0,0.0,0.379,0.724
94.15,-8.959,-9.034,-0.0,0.0,-0.747,-0.664,-8.435,-8.234,0.0,0.0,0.379,0.724
94.4,-8.959,-9.034,-0.0,0.0,-0.748,-0.664,-8.434,-8.234,0.0,0.0,0.379,0.724
94.65,-8.959,-9.034,-0.0,0.0,-0.748,-0.664,-8.433,-8.233,0.0,0.0,0.379,0.724
95.15,-8.959,-9.034,-0.0,0.0,-0.749,-0.663,-8.433,-8.233,0.0,0.0,0.378,0.724
95.4,-8.959,-9.034,-0.0,0.0,-0.749,-0.662,-8.432,-8.232,0.0,0.0,0.378,0.724
95.65,-8.959,-9.034,-0.0,0.0,-0.75,-0.662,-8.432,-8.232,0.0,0.0,0.378,0.725
95.9,-8.959,-9.034,-0.0,0.0,-0.75,-0.661,-8.431,-8.232,0.0,0.0,0.378,0.725
96.4,-8.959,-9.034,-0.0,0.0,-0.751,-0.66,-8.431,-8.232,0.0,0.0,0.378,0.725
97.15,-8.959,-9.034,-0.0,0.0,-0.752,-0.659,-8.431,-8.231,0.0,0.0,0.378,0.725
97.4,-8.959,-9.034,-0.0,0.0,-0.752,-0.659,-8.43,-8.231,0.0,0.0,0.378,0.725
97.9,-8.959,-9.034,-0.0,0.0,-0.753,-0.658,-8.429,-8.231,0.0,0.0,0.378,0.725
99.15,-8.967,-8.908,0.0,0.0,-0.699,-0.715,-8.431,-8.231,0.0,0.0,0.378,0.724
99.4,-8.944,-8.74,0.0,0.0,-0.609,-0.793,-8.437,-8.235,0.0,0.0,0.379,0.724
100.4,-8.45,-8.165,-0.0,0.0,-0.235,-0.972,-8.302,-8.135,0.0,0.0,0.37,0.724
101.15,-7.894,-7.974,-0.0,0.0,-0.136,-0.991,-8.021,-7.976,0.0,0.0,0.345,0.722
101.4,-7.705,-7.92,-0.0,0.0,-0.149,-0.989,-7.723,-7.839,0.0,0.0,0.316,0.718
101.65,-7.515,-7.857,-0.0,0.0,-0.166,-0.986,-7.42,-7.728,0.0,0.0,0.284,0.723
102.15,-7.141,-7.719,-0.0,0.0,-0.193,-0.981,-7.017,-7.604,0.0,0.0,0.242,0.718
128.05,8.882,-0.007,-0.0,0.0,-0.005,-1.0,5.34,-0.852,-0.0,0.0,-0.229,0.435
128.55,8.882,-0.007,-0.0,0.0,-0.005,-1.0,9.186,-0.302,-0.0,0.0,-0.168,0.623
129.8,8.882,-0.007,0.0,0.0,-0.005,-1.0,8.93,-0.135,-0.0,0.0,-0.156,0.636
130.3,8.882,-0.007,-0.0,0.0,-0.005,-1.0,8.549,-0.177,-0.0,0.0,-0.16,0.606
130.55,8.882,-0.007,-0.0,0.0,-0.005,-1.0,8.386,-0.136,-0.0,0.0,-0.157,0.586
131.05,8.882,-0.007,-0.0,0.0,-0.006,-1.0,8.293,-0.084,-0.0,0.0,-0.152,0.569
131.3,8.882,-0.007,-0.0,0.0,-0.006,-1.0,8.206,-0.034,-0.0,0.0,-0.148,0.553
132.05,8.882,-0.007,-0.0,0.0,-0.006,-1.0,8.126,0.011,-0.0,0.0,-0.144,0.537
132.3,8.882,-0.007,-0.0,0.0,-0.006,-1.0,8.065,0.047,-0.0,0.0,-0.141,0.525
133.05,8.881,-0.007,-0.0,0.0,-0.006,-1.0,8.046,0.053,-0.0,0.0,-0.141,0.52
133.55,8.881,-0.007,-0.0,0.0,-0.006,-1.0,8.046,0.053,-0.0,0.0,-0.141,0.52
134.05,8.881,-0.007,-0.0,0.0,-0.007,-1.0,8.046,0.053,-0.0,0.0,-0.141,0.52
134.3,8.881,-0.007,-0.0,0.0,-0.007,-1.0,8.046,0.053,-0.0,0.0,-0.141,0.52
134.8,8.881,-0.007,-0.0,0.0,-0.007,-1.0,8.046,0.053,-0.0,0.0,-0.141,0.52
135.05,8.881,-0.007,-0.0,0.0,-0.007,-1.0,8.046,0.054,-0.0,0.0,-0.141,0.52
135.8,8.881,-0.007,-0.0,0.0,-0.007,-1.0,8.046,0.054,-0.0,0.0,-0.141,0.52
136.8,8.881,-0.007,0.0,0.0,-0.008,-1.0,8.046,0.054,-0.0,0.0,-0.141,0.52
137.3,8.881,-0.007,0.0,0.0,-0.008,-1.0,8.046,0.054,-0.0,0.0,-0.141,0.52
137.8,8.881,-0.007,0.0,0.0,-0.008,-1.0,8.046,0.054,-0.0,0.0,-0.141,0.52
138.05,8.881,-0.007,0.0,0.0,-0.008,-1.0,8.046,0.054,-0.0,0.0,-0.141,0.52
138.3,8.881,-0.007,0.0,0.0,-0.008,-1.0,8.046,0.054,-0.0,0.0,-0.141,0.52
138.55,8.881,-0.007,0.0,0.0,-0.008,-1.0,8.046,0.054,-0.0,0.0,-0.141,0.52
139.3,8.881,-0.007,0.0,0.0,-0.008,-1.0,8.046,0.054,-0.0,0.0,-0.141,0.52
139.55,8.881,-0.007,0.0,0.0,-0.008,-1.0,8.046,0.054,-0.0,0.0,-0.141,0.52
139.8,8.881,-0.007,0.0,0.0,-0.008,-1.0,8.046,0.054,-0.0,0.0,-0.141,0.52
140.05,8.881,-0.007,0.0,0.0,-0.008,-1.0,8.046,0.054,-0.0,0.0,-0.141,0.52
140.55,8.881,-0.007,0.0,0.0,-0.008,-1.0,8.046,0.054,-0.0,0.0,-0.141,0.52
141.05,8.881,-0.007,0.0,0.0,-0.008,-1.0,8.046,0.054,-0.0,0.0,-0.141,0.52
141.55,8.881,-0.007,0.0,0.0,-0.008,-1.0,8.046,0.054,-0.0,0.0,-0.141,0.52
141.8,8.881,-0.007,0.0,0.0,-0.008,-1.0,8.046,0.054,-0.0,0.0,-0.141,0.52
142.05,8.881,-0.007,0.0,0.0,-0.008,-1.0,8.046,0.054,-0.0,0.0,-0.141,0.52
143.05,8.881,-0.007,0.0,0.0,-0.008,-1.0,8.046,0.054,-0.0,0.0,-0.141,0.52
143.3,8.881,-0.007,0.0,0.0,-0.008,-1.0,8.046,0.054,-0.0,0.0,-0.141,0.52
143.8,8.881,-0.007,0.0,0.0,-0.009,-1.0,8.046,0.054,-0.0,0.0,-0.141,0.52
144.05,8.88,-0.007,0.0,0.0,-0.009,-1.0,8.046,0.054,-0.0,0.0,-0.141,0.52
144.3,8.88,-0.007,0.0,0.0,-0.009,-1.0,8.046,0.054,-0.0,0.0,-0.141,0.52
144.55,8.88,-0.007,0.0,0.0,-0.009,-1.0,8.046,0.054,-0.0,0.0,-0.141,0.52
145.05,8.88,-0.007,0.0,0.0,-0.009,-1.0,8.046,0.054,-0.0,0.0,-0.141,0.52
145.3,8.88,-0.007,0.0,0.0,-0.009,-1.0,8.046,0.054,-0.0,0.0,-0.141,0.52
145.55,8.88,-0.007,0.0,0.0,-0.009,-1.0,8.046,0.054,-0.0,0.0,-0.141,0.52
145.8,8.88,-0.007,0.0,0.0,-0.009,-1.0,8.046,0.054,-0.0,0.0,-0.141,0.52
146.05,8.88,-0.007,0.0,0.0,-0.009,-1.0,8.046,0.054,-0.0,0.0,-0.141,0.52
146.55,8.88,-0.007,0.0,0.0,-0.009,-1.0,8.046,0.054,-0.0,0.0,-0.141,0.52
147.3,8.88,-0.007,0.0,0.0,-0.009,-1.0,8.046,0.054,-0.0,0.0,-0.141,0.52
147.8,8.88,-0.007,0.0,0.0,-0.009,-1.0,8.046,0.055,-0.0,0.0,-0.141,0.52
148.55,8.88,-0.007,0.0,0.0,-0.009,-1.0,8.046,0.055,-0.0,0.0,-0.141,0.52
148.8,8.88,-0.007,0.0,0.0,-0.009,-1.0,8.046,0.055,-0.0,0.0,-0.141,0.52
149.05,8.88,-0.007,0.0,0.0,-0.009,-1.0,8.046,0.055,-0.0,0.0,-0.141,0.52
150.3,8.88,-0.007,0.0,0.0,-0.009,-1.0,8.046,0.055,-0.0,0.0,-0.141,0.52
150.55,8.88,-0.007,0.0,0.0,-0.009,-1.0,8.046,0.055,-0.0,0.0,-0.141,0.52
150.8,8.88,-0.007,0.0,0.0,-0.009,-1.0,8.046,0.055,-0.0,0.0,-0.141,0.52
151.05,8.88,-0.007,0.0,0.0,-0.009,-1.0,8.046,0.055,-0.0,0.0,-0.141,0.52
151.3,8.88,-0.007,0.0,0.0,-0.009,-1.0,8.046,0.055,-0.0,0.0,-0.141,0.52
151.55,8.88,-0.007,0.0,0.0,-0.009,-1.0,8.046,0.055,-0.0,0.0,-0.141,0.52
151.8,8.88,-0.007,0.0,0.0,-0.009,-1.0,8.046,0.055,-0.0,0.0,-0.141,0.52
152.05,8.88,-0.007,0.0,0.0,-0.009,-1.0,8.046,0.055,-0.0,0.0,-0.141,0.52
152.55,8.88,-0.007,0.0,0.0,-0.009,-1.0,8.046,0.055,-0.0,0.0,-0.141,0.52
153.05,8.88,-0.007,0.0,0.0,-0.01,-1.0,8.046,0.055,-0.0,0.0,-0.141,0.52
153.55,8.88,-0.007,0.0,0.0,-0.01,-1.0,8.045,0.055,-0.0,0.0,-0.141,0.52
154.05,8.88,-0.007,0.0,0.0,-0.01,-1.0,8.045,0.055,-0.0,0.0,-0.141,0.52
154.8,8.88,-0.007,0.0,0.0,-0.01,-1.0,8.045,0.055,-0.0,0.0,-0.141,0.52
155.8,8.88,-0.007,0.0,0.0,-0.01,-1.0,8.045,0.055,-0.0,0.0,-0.141,0.52
156.05,8.88,-0.007,0.0,0.0,-0.01,-1.0,8.045,0.055,-0.0,0.0,-0.141,0.52
156.55,8.88,-0.007,0.0,0.0,-0.01,-1.0,8.045,0.055,-0.0,0.0,-0.141,0.52
156.8,8.88,-0.007,0.0,0.0,-0.01,-1.0,8.045,0.055,-0.0,0.0,-0.141,0.52
157.05,8.88,-0.007,0.0,0.0,-0.01,-1.0,8.045,0.055,-0.0,0.0,-0.141,0.52
157.3,8.88,-0.007,0.0,0.0,-0.01,-1.0,8.045,0.055,-0.0,0.0,-0.141,0.52
157.55,8.88,-0.007,0.0,0.0,-0.01,-1.0,8.045,0.055,-0.0,0.0,-0.141,0.52
158.05,8.88,-0.007,0.0,0.0,-0.01,-1.0,8.045,0.055,-0.0,0.0,-0.141,0.52
158.3,8.88,-0.007,0.0,0.0,-0.01,-1.0,8.045,0.055,-0.0,0.0,-0.141,0.52
158.55,8.879,-0.007,0.0,0.0,-0.01,-1.0,8.045,0.055,-0.0,0.0,-0.141,0.52
158.8,8.879,-0.007,0.0,0.0,-0.01,-1.0,8.045,0.055,-0.0,0.0,-0.141,0.52
159.3,8.879,-0.007,0.0,0.0,-0.01,-1.0,8.045,0.055,-0.0,0.0,-0.141,0.52
159.8,8.879,-0.007,0.0,0.0,-0.01,-1.0,8.045,0.055,-0.0,0.0,-0.141,0.52
160.05,8.879,-0.007,0.0,0.0,-0.01,-1.0,8.045,0.055,-0.0,0.0,-0.141,0.52
160.55,8.879,-0.007,0.0,0.0,-0.01,-1.0,8.045,0.055,-0.0,0.0,-0.141,0.52
160.8,8.879,-0.007,0.0,0.0,-0.01,-1.0,8.045,0.055,-0.0,0.0,-0.141,0.52
161.05,8.879,-0.007,0.0,0.0,-0.01,-1.0,8.045,0.055,-0.0,0.0,-0.141,0.52
161.3,8.879,-0.007,0.0,0.0,-0.01,-1.0,8.045,0.055,-0.0,0.0,-0.141,0.52
162.05,8.879,-0.007,0.0,0.0,-0.01,-1.0,8.045,0.055,-0.0,0.0,-0.141,0.52
162.3,8.879,-0.007,0.0,0.0,-0.01,-1.0,8.045,0.055,-0.0,0.0,-0.141,0.52
162.8,8.879,-0.007,0.0,0.0,-0.01,-1.0,8.045,0.055,-0.0,0.0,-0.141,0.52
163.05,8.879,-0.007,0.0,0.0,-0.01,-1.0,8.045,0.055,-0.0,0.0,-0.141,0.52
163.55,8.879,-0.007,0.0,0.0,-0.01,-1.0,8.045,0.055,-0.0,0.0,-0.141,0.52
163.8,8.879,-0.007,0.0,0.0,-0.01,-1.0,8.045,0.055,-0.0,0.0,-0.141,0.52
164.05,8.879,-0.007,0.0,0.0,-0.01,-1.0,8.045,0.055,-0.0,0.0,-0.141,0.52
164.3,8.879,-0.007,0.0,0.0,-0.01,-1.0,8.045,0.055,-0.0,0.0,-0.141,0.52
164.55,8.879,-0.007,0.0,0.0,-0.01,-1.0,8.045,0.055,-0.0,0.0,-0.141,0.52
165.05,8.879,-0.007,0.0,0.0,-0.01,-1.0,8.045,0.055,-0.0,0.0,-0.141,0.52
165.3,8.879,-0.007,0.0,0.0,-0.01,-1.0,8.045,0.055,-0.0,0.0,-0.141,0.52
166.05,8.879,-0.007,0.0,0.0,-0.01,-1.0,8.045,0.055,-0.0,0.0,-0.141,0.52
166.3,8.879,-0.007,0.0,0.0,-0.01,-1.0,8.045,0.055,-0.0,0.0,-0.141,0.52
166.55,8.879,-0.007,0.0,0.0,-0.011,-1.0,8.045,0.055,-0.0,0.0,-0.141,0.52
167.05,8.879,-0.007,0.0,0.0,-0.011,-1.0,8.045,0.055,-0.0,0.0,-0.141,0.52
167.8,8.879,-0.007,0.0,0.0,-0.011,-1.0,8.045,0.055,-0.0,0.0,-0.141,0.52
168.3,8.879,-0.007,0.0,0.0,-0.011,-1.0,8.045,0.055,-0.0,0.0,-0.141,0.52
168.8,8.879,-0.007,0.0,0.0,-0.011,-1.0,8.045,0.055,-0.0,0.0,-0.141,0.52
169.3,8.879,-0.007,0.0,0.0,-0.011,-1.0,8.045,0.055,-0.0,0.0,-0.141,0.52
169.55,8.879,-0.007,0.0,0.0,-0.011,-1.0,8.045,0.055,-0.0,0.0,-0.141,0.52
169.8,8.879,-0.007,0.0,0.0,-0.011,-1.0,8.045,0.055,-0.0,0.0,-0.141,0.52
170.3,8.879,-0.007,0.0,0.0,-0.011,-1.0,8.045,0.055,-0.0,0.0,-0.141,0.52
170.55,8.879,-0.007,0.0,0.0,-0.011,-1.0,8.045,0.055,-0.0,0.0,-0.141,0.52
170.8,8.879,-0.007,0.0,0.0,-0.011,-1.0,8.045,0.055,-0.0,0.0,-0.141,0.52
171.05,8.879,-0.007,0.0,0.0,-0.011,-1.0,8.045,0.055,-0.0,0.0,-0.141,0.52
171.55,8.879,-0.007,0.0,0.0,-0.011,-1.0,8.045,0.055,-0.0,0.0,-0.141,0.52
171.8,8.879,-0.007,0.0,0.0,-0.011,-1.0,8.045,0.055,-0.0,0.0,-0.141,0.52
173.05,8.879,-0.007,0.0,0.0,-0.011,-1.0,8.045,0.055,-0.0,0.0,-0.141,0.52
173.3,8.879,-0.007,0.0,0.0,-0.011,-1.0,8.045,0.055,-0.0,0.0,-0.141,0.52
174.05,8.878,-0.007,0.0,0.0,-0.011,-1.0,8.045,0.055,-0.0,0.0,-0.141,0.52
174.3,8.878,-0.007,0.0,0.0,-0.011,-1.0,8.045,0.055,-0.0,0.0,-0.141,0.52
174.8,8.878,-0.007,0.0,0.0,-0.011,-1.0,8.045,0.056,-0.0,0.0,-0.141,0.52
175.05,8.878,-0.007,0.0,0.0,-0.011,-1.0,8.045,0.056,-0.0,0.0,-0.141,0.52
175.3,8.878,-0.007,0.0,0.0,-0.011,-1.0,8.045,0.056,-0.0,0.0,-0.141,0.52
175.8,8.878,-0.007,0.0,0.0,-0.011,-1.0,8.045,0.056,-0.0,0.0,-0.141,0.52
176.05,8.878,-0.007,0.0,0.0,-0.011,-1.0,8.045,0.056,-0.0,0.0,-0.141,0.52
176.3,8.878,-0.007,0.0,0.0,-0.011,-1.0,8.045,0.056,-0.0,0.0,-0.141,0.52
176.8,8.878,-0.007,0.0,0.0,-0.011,-1.0,8.045,0.056,-0.0,0.0,-0.141,0.52
177.3,8.878,-0.007,0.0,0.0,-0.011,-1.0,8.045,0.056,-0.0,0.0,-0.14,0.52
177.8,8.878,-0.007,0.0,0.0,-0.011,-1.0,8.045,0.056,-0.0,0.0,-0.14,0.52
178.3,8.878,-0.007,0.0,0.0,-0.011,-1.0,8.045,0.056,-0.0,0.0,-0.14,0.52
178.55,8.878,-0.007,0.0,0.0,-0.011,-1.0,8.045,0.056,-0.0,0.0,-0.14,0.52
179.05,8.878,-0.007,0.0,0.0,-0.011,-1.0,8.045,0.056,-0.0,0.0,-0.14,0.52
179.3,8.878,-0.007,0.0,0.0,-0.011,-1.0,8.045,0.056,-0.0,0.0,-0.14,0.52
179.8,8.878,-0.007,0.0,0.0,-0.011,-1.0,8.045,0.056,-0.0,0.0,-0.14,0.52
180.05,8.878,-0.007,0.0,0.0,-0.011,-1.0,8.045,0.056,-0.0,0.0,-0.14,0.52
180.3,8.878,-0.007,0.0,0.0,-0.011,-1.0,8.045,0.056,-0.0,0.0,-0.14,0.52
180.55,8.878,-0.007,0.0,0.0,-0.011,-1.0,8.045,0.056,-0.0,0.0,-0.14,0.52
180.8,8.878,-0.007,0.0,0.0,-0.011,-1.0,8.045,0.056,-0.0,0.0,-0.14,0.52
181.3,8.878,-0.007,0.0,0.0,-0.011,-1.0,8.045,0.056,-0.0,0.0,-0.14,0.52
181.55,8.878,-0.007,0.0,0.0,-0.011,-1.0,8.045,0.056,-0.0,0.0,-0.14,0.52
181.8,8.878,-0.007,0.0,0.0,-0.011,-1.0,8.045,0.056,-0.0,0.0,-0.14,0.52
182.05,8.878,-0.007,0.0,0.0,-0.011,-1.0,8.045,0.056,-0.0,0.0,-0.14,0.52
182.55,8.878,-0.007,0.0,0.0,-0.011,-1.0,8.045,0.056,-0.0,0.0,-0.14,0.52
183.05,8.878,-0.007,0.0,0.0,-0.011,-1.0,8.045,0.056,-0.0,0.0,-0.14,0.52
183.8,8.878,-0.007,0.0,0.0,-0.011,-1.0,8.045,0.056,-0.0,0.0,-0.14,0.52
184.05,8.878,-0.007,0.0,0.0,-0.011,-1.0,8.045,0.056,-0.0,0.0,-0.14,0.52
184.3,8.878,-0.007,0.0,0.0,-0.011,-1.0,8.045,0.056,-0.0,0.0,-0.14,0.52
184.55,8.878,-0.007,0.0,0.0,-0.011,-1.0,8.045,0.056,-0.0,0.0,-0.14,0.52
185.8,8.878,-0.007,0.0,0.0,-0.011,-1.0,8.045,0.056,-0.0,0.0,-0.14,0.52
186.05,8.878,-0.007,0.0,0.0,-0.011,-1.0,8.045,0.056,-0.0,0.0,-0.14,0.52
186.3,8.878,-0.007,0.0,0.0,-0.011,-1.0,8.045,0.056,-0.0,0.0,-0.14,0.52
186.55,8.878,-0.007,0.0,0.0,-0.011,-1.0,8.045,0.056,-0.0,0.0,-0.14,0.52
187.05,8.878,-0.007,0.0,0.0,-0.011,-1.0,8.045,0.056,-0.0,0.0,-0.14,0.52
187.3,8.878,-0.007,0.0,0.0,-0.011,-1.0,8.045,0.056,-0.0,0.0,-0.14,0.52
187.55,8.878,-0.007,0.0,0.0,-0.011,-1.0,8.045,0.056,-0.0,0.0,-0.14,0.52
187.8,8.878,-0.007,0.0,0.0,-0.011,-1.0,8.045,0.056,-0.0,0.0,-0.14,0.52
188.05,8.878,-0.007,0.0,0.0,-0.011,-1.0,8.045,0.056,-0.0,0.0,-0.14,0.52
188.3,8.878,-0.007,0.0,0.0,-0.011,-1.0,8.044,0.056,-0.0,0.0,-0.14,0.52
188.55,8.878,-0.007,0.0,0.0,-0.011,-1.0,8.044,0.056,-0.0,0.0,-0.14,0.52
188.8,8.878,-0.007,0.0,0.0,-0.011,-1.0,8.044,0.056,-0.0,0.0,-0.14,0.52
189.3,8.877,-0.007,0.0,0.0,-0.011,-1.0,8.044,0.056,-0.0,0.0,-0.14,0.52
189.55,8.877,-0.007,0.0,0.0,-0.011,-1.0,8.044,0.056,-0.0,0.0,-0.14,0.52
190.05,8.877,-0.007,0.0,0.0,-0.011,-1.0,8.044,0.056,-0.0,0.0,-0.14,0.52
190.3,8.877,-0.007,0.0,0.0,-0.011,-1.0,8.044,0.056,-0.0,0.0,-0.14,0.52
190.55,8.877,-0.007,0.0,0.0,-0.011,-1.0,8.044,0.056,-0.0,0.0,-0.14,0.52
190.8,8.877,-0.007,0.0,0.0,-0.011,-1.0,8.044,0.056,-0.0,0.0,-0.14,0.52
191.55,8.877,-0.007,0.0,0.0,-0.011,-1.0,8.044,0.056,-0.0,0.0,-0.14,0.52
191.8,8.877,-0.007,0.0,0.0,-0.011,-1.0,8.044,0.056,-0.0,0.0,-0.14,0.52
192.3,8.877,-0.007,0.0,0.0,-0.012,-1.0,8.044,0.056,-0.0,0.0,-0.14,0.52
192.8,8.877,-0.007,0.0,0.0,-0.012,-1.0,8.044,0.056,-0.0,0.0,-0.14,0.52
193.8,8.877,-0.007,0.0,0.0,-0.012,-1.0,8.044,0.056,-0.0,0.0,-0.14,0.52
194.55,8.877,-0.007,0.0,0.0,-0.012,-1.0,8.044,0.056,-0.0,0.0,-0.14,0.52
194.8,8.877,-0.007,0.0,0.0,-0.012,-1.0,8.044,0.056,-0.0,0.0,-0.14,0.52
195.05,8.877,-0.007,0.0,0.0,-0.012,-1.0,8.044,0.056,-0.0,0.0,-0.14,0.52
195.3,8.877,-0.007,0.0,0.0,-0.012,-1.0,8.044,0.056,-0.0,0.0,-0.14,0.52
195.55,8.877,-0.007,0.0,0.0,-0.012,-1.0,8.044,0.056,-0.0,0.0,-0.14,0.52
195.8,8.877,-0.007,0.0,0.0,-0.012,-1.0,8.044,0.056,-0.0,0.0,-0.14,0.52
196.05,8.877,-0.007,0.0,0.0,-0.012,-1.0,8.044,0.056,-0.0,0.0,-0.14,0.52
196.3,8.877,-0.007,0.0,0.0,-0.012,-1.0,8.044,0.056,-0.0,0.0,-0.14,0.52
196.8,8.877,-0.007,0.0,0.0,-0.012,-1.0,8.044,0.056,-0.0,0.0,-0.14,0.52
197.55,8.877,-0.007,0.0,0.0,-0.012,-1.0,8.044,0.056,-0.0,0.0,-0.14,0.52
197.8,8.877,-0.007,0.0,0.0,-0.012,-1.0,8.044,0.056,-0.0,0.0,-0.14,0.519
198.05,8.877,-0.007,0.0,0.0,-0.012,-1.0,8.044,0.056,-0.0,0.0,-0.14,0.519
199.3,8.877,-0.007,0.0,0.0,-0.012,-1.0,8.044,0.056,-0.0,0.0,-0.14,0.519
199.55,8.877,-0.007,0.0,0.0,-0.012,-1.0,8.044,0.056,-0.0,0.0,-0.14,0.519
199.8,8.877,-0.007,0.0,0.0,-0.012,-1.0,8.044,0.056,-0.0,0.0,-0.14,0.519
200.55,8.877,-0.007,0.0,0.0,-0.012,-1.0,8.044,0.056,-0.0,0.0,-0.14,0.519
201.05,8.877,-0.007,0.0,0.0,-0.012,-1.0,8.044,0.056,-0.0,0.0,-0.14,0.519
201.3,8.877,-0.007,0.0,0.0,-0.012,-1.0,8.044,0.056,-0.0,0.0,-0.14,0.519
201.8,8.877,-0.007,0.0,0.0,-0.012,-1.0,8.044,0.056,-0.0,0.0,-0.14,0.519
202.05,8.877,-0.007,0.0,0.0,-0.012,-1.0,8.044,0.056,-0.0,0.0,-0.14,0.519
202.3,8.877,-0.007,0.0,0.0,-0.012,-1.0,8.044,0.056,-0.0,0.0,-0.14,0.519
203.05,8.877,-0.007,0.0,0.0,-0.012,-1.0,8.044,0.056,-0.0,0.0,-0.14,0.519
203.8,8.876,-0.007,0.0,0.0,-0.012,-1.0,8.044,0.056,-0.0,0.0,-0.14,0.519
204.05,8.876,-0.007,0.0,0.0,-0.012,-1.0,8.044,0.056,-0.0,0.0,-0.14,0.519
204.3,8.876,-0.007,0.0,0.0,-0.012,-1.0,8.044,0.056,-0.0,0.0,-0.14,0.519
204.8,8.876,-0.007,0.0,0.0,-0.012,-1.0,8.044,0.056,-0.0,0.0,-0.14,0.519
256.6,8.873,-0.008,0.0,0.0,-0.012,-1.0,8.043,0.056,-0.0,0.0,-0.14,0.519
256.85,8.873,-0.008,0.0,0.0,-0.012,-1.0,8.043,0.056,-0.0,0.0,-0.14,0.519
257.35,8.873,-0.008,0.0,0.0,-0.012,-1.0,8.043,0.056,-0.0,0.0,-0.14,0.519
258.6,8.873,-0.008,0.0,0.0,-0.012,-1.0,8.043,0.057,-0.0,0.0,-0.14,0.519
258.85,8.873,-0.008,0.0,0.0,-0.012,-1.0,8.042,0.057,-0.0,0.0,-0.14,0.519
259.35,8.873,-0.008,0.0,0.0,-0.012,-1.0,8.042,0.057,-0.0,0.0,-0.14,0.519
259.6,8.873,-0.008,0.0,0.0,-0.012,-1.0,8.042,0.057,-0.0,0.0,-0.14,0.519
260.6,8.873,-0.008,0.0,0.0,-0.012,-1.0,8.042,0.057,-0.0,0.0,-0.14,0.519
261.1,8.873,-0.008,0.0,0.0,-0.012,-1.0,8.042,0.057,-0.0,0.0,-0.14,0.519
261.35,8.873,-0.008,0.0,0.0,-0.012,-1.0,8.042,0.057,-0.0,0.0,-0.14,0.519
261.6,8.872,-0.008,0.0,0.0,-0.012,-1.0,8.042,0.057,-0.0,0.0,-0.14,0.519
262.1,8.872,-0.008,0.0,0.0,-0.012,-1.0,8.042,0.057,-0.0,0.0,-0.14,0.519
262.85,8.872,-0.008,0.0,0.0,-0.012,-1.0,8.042,0.057,-0.0,0.0,-0.14,0.519
263.1,8.872,-0.008,0.0,0.0,-0.012,-1.0,8.042,0.057,-0.0,0.0,-0.14,0.519
263.35,8.872,-0.008,0.0,0.0,-0.012,-1.0,8.042,0.057,-0.0,0.0,-0.14,0.519
263.85,8.872,-0.008,0.0,0.0,-0.012,-1.0,8.042,0.057,-0.0,0.0,-0.14,0.519
264.35,8.872,-0.008,0.0,0.0,-0.012,-1.0,8.042,0.057,-0.0,0.0,-0.14,0.519
264.6,8.872,-0.008,0.0,0.0,-0.012,-1.0,8.042,0.057,-0.0,0.0,-0.14,0.519
264.85,8.872,-0.008,0.0,0.0,-0.012,-1.0,8.042,0.057,-0.0,0.0,-0.14,0.519
265.1,8.872,-0.008,0.0,0.0,-0.012,-1.0,8.042,0.057,-0.0,0.0,-0.14,0.519
265.35,8.872,-0.008,0.0,0.0,-0.012,-1.0,8.042,0.057,-0.0,0.0,-0.14,0.519
265.85,8.872,-0.008,0.0,0.0,-0.012,-1.0,8.042,0.057,-0.0,0.0,-0.14,0.519
266.35,8.872,-0.008,0.0,0.0,-0.012,-1.0,8.042,0.057,-0.0,0.0,-0.14,0.519
266.6,8.872,-0.008,0.0,0.0,-0.012,-1.0,8.042,0.057,-0.0,0.0,-0.14,0.519
266.85,8.872,-0.008,0.0,0.0,-0.012,-1.0,8.042,0.057,-0.0,0.0,-0.14,0.519
267.1,8.872,-0.008,0.0,0.0,-0.012,-1.0,8.042,0.057,-0.0,0.0,-0.14,0.519
268.1,8.872,-0.008,0.0,0.0,-0.012,-1.0,8.042,0.057,-0.0,0.0,-0.14,0.519
268.35,8.872,-0.008,0.0,0.0,-0.012,-1.0,8.042,0.057,-0.0,0.0,-0.14,0.519
268.6,8.872,-0.008,0.0,0.0,-0.012,-1.0,8.042,0.057,-0.0,0.0,-0.14,0.519
269.1,8.872,-0.008,0.0,0.0,-0.012,-1.0,8.042,0.057,-0.0,0.0,-0.14,0.519
269.35,8.872,-0.008,0.0,0.0,-0.012,-1.0,8.042,0.057,-0.0,0.0,-0.14,0.519
269.6,8.872,-0.008,0.0,0.0,-0.012,-1.0,8.042,0.057,-0.0,0.0,-0.14,0.519
269.85,8.872,-0.008,0.0,0.0,-0.012,-1.0,8.042,0.057,-0.0,0.0,-0.14,0.519
270.1,8.872,-0.008,0.0,0.0,-0.012,-1.0,8.042,0.057,-0.0,0.0,-0.14,0.519
270.35,8.872,-0.008,0.0,0.0,-0.012,-1.0,8.042,0.057,-0.0,0.0,-0.14,0.519
270.6,8.872,-0.008,0.0,0.0,-0.012,-1.0,8.041,0.057,-0.0,0.0,-0.14,0.519
270.85,8.872,-0.008,0.0,0.0,-0.012,-1.0,8.041,0.057,-0.0,0.0,-0.14,0.519
271.1,8.872,-0.008,0.0,0.0,-0.012,-1.0,8.041,0.057,-0.0,0.0,-0.14,0.519
271.6,8.872,-0.008,0.0,0.0,-0.012,-1.0,8.041,0.057,-0.0,0.0,-0.14,0.519
272.1,8.872,-0.008,0.0,0.0,-0.012,-1.0,8.041,0.057,-0.0,0.0,-0.14,0.519
272.35,8.872,-0.008,0.0,0.0,-0.012,-1.0,8.041,0.057,-0.0,0.0,-0.14,0.519
272.6,8.872,-0.008,0.0,0.0,-0.012,-1.0,8.041,0.057,-0.0,0.0,-0.14,0.519
273.1,8.872,-0.008,0.0,0.0,-0.012,-1.0,8.041,0.057,-0.0,0.0,-0.14,0.519
274.6,8.872,-0.008,0.0,0.0,-0.012,-1.0,8.041,0.057,-0.0,0.0,-0.14,0.519
275.1,8.872,-0.008,0.0,0.0,-0.012,-1.0,8.041,0.057,-0.0,0.0,-0.14,0.519
275.35,8.872,-0.008,0.0,0.0,-0.012,-1.0,8.041,0.057,-0.0,0.0,-0.14,0.519
275.6,8.872,-0.008,0.0,0.0,-0.012,-1.0,8.041,0.057,-0.0,0.0,-0.14,0.519
276.35,8.871,-0.008,0.0,0.0,-0.012,-1.0,8.041,0.057,-0.0,0.0,-0.14,0.519
276.6,8.871,-0.008,0.0,0.0,-0.012,-1.0,8.041,0.057,-0.0,0.0,-0.14,0.519
276.85,8.871,-0.008,0.0,0.0,-0.012,-1.0,8.041,0.057,-0.0,0.0,-0.14,0.519
277.35,8.871,-0.008,0.0,0.0,-0.012,-1.0,8.041,0.057,-0.0,0.0,-0.14,0.519
277.6,8.871,-0.008,0.0,0.0,-0.012,-1.0,8.041,0.057,-0.0,0.0,-0.14,0.519
278.1,8.871,-0.008,0.0,0.0,-0.012,-1.0,8.041,0.057,-0.0,0.0,-0.14,0.519
278.35,8.871,-0.008,0.0,0.0,-0.012,-1.0,8.041,0.058,-0.0,0.0,-0.14,0.519
278.85,8.871,-0.008,0.0,0.0,-0.012,-1.0,8.041,0.058,-0.0,0.0,-0.14,0.519
279.1,8.871,-0.008,0.0,0.0,-0.012,-1.0,8.041,0.058,-0.0,0.0,-0.14,0.519
279.35,8.871,-0.008,0.0,0.0,-0.012,-1.0,8.041,0.058,-0.0,0.0,-0.14,0.519
279.6,8.871,-0.008,0.0,0.0,-0.012,-1.0,8.041,0.058,-0.0,0.0,-0.14,0.519
280.35,8.871,-0.008,0.0,0.0,-0.012,-1.0,8.041,0.058,-0.0,0.0,-0.14,0.519
280.6,8.871,-0.008,0.0,0.0,-0.012,-1.0,8.041,0.058,-0.0,0.0,-0.14,0.519
280.85,8.871,-0.008,0.0,0.0,-0.012,-1.0,8.041,0.058,-0.0,0.0,-0.14,0.519
281.1,8.871,-0.008,0.0,0.0,-0.012,-1.0,8.041,0.058,-0.0,0.0,-0.14,0.519
281.35,8.871,-0.008,0.0,0.0,-0.012,-1.0,8.041,0.058,-0.0,0.0,-0.14,0.519
281.6,8.871,-0.008,0.0,0.0,-0.012,-1.0,8.041,0.058,-0.0,0.0,-0.14,0.519
281.85,8.871,-0.008,0.0,0.0,-0.012,-1.0,8.041,0.058,-0.0,0.0,-0.14,0.519
282.1,8.871,-0.008,0.0,0.0,-0.012,-1.0,8.041,0.058,-0.0,0.0,-0.14,0.519
282.35,8.871,-0.008,0.0,0.0,-0.012,-1.0,8.041,0.058,-0.0,0.0,-0.14,0.519
282.6,8.871,-0.008,0.0,0.0,-0.012,-1.0,8.041,0.058,-0.0,0.0,-0.14,0.519
283.1,8.871,-0.008,0.0,0.0,-0.012,-1.0,8.041,0.058,-0.0,0.0,-0.14,0.519
283.35,8.871,-0.008,0.0,0.0,-0.012,-1.0,8.041,0.058,-0.0,0.0,-0.14,0.519
283.6,8.871,-0.008,0.0,0.0,-0.012,-1.0,8.041,0.058,-0.0,0.0,-0.14,0.519
283.85,8.871,-0.008,0.0,0.0,-0.012,-1.0,8.041,0.058,-0.0,0.0,-0.14,0.519
284.35,8.871,-0.008,0.0,0.0,-0.012,-1.0,8.041,0.058,-0.0,0.0,-0.14,0.519
284.6,8.871,-0.008,0.0,0.0,-0.012,-1.0,8.041,0.058,-0.0,0.0,-0.14,0.519
284.85,8.871,-0.008,0.0,0.0,-0.012,-1.0,8.041,0.058,-0.0,0.0,-0.14,0.519
285.1,8.871,-0.008,0.0,0.0,-0.012,-1.0,8.041,0.058,-0.0,0.0,-0.14,0.519
285.6,8.871,-0.008,0.0,0.0,-0.012,-1.0,8.041,0.058,-0.0,0.0,-0.14,0.519
286.1,8.871,-0.008,0.0,0.0,-0.012,-1.0,8.041,0.058,-0.0,0.0,-0.14,0.519
286.6,8.871,-0.008,0.0,0.0,-0.012,-1.0,8.041,0.058,-0.0,0.0,-0.14,0.519
286.85,8.871,-0.008,0.0,0.0,-0.012,-1.0,8.041,0.058,-0.0,0.0,-0.14,0.519
288.1,8.871,-0.008,0.0,0.0,-0.012,-1.0,8.041,0.058,-0.0,0.0,-0.14,0.519
289.1,8.871,-0.008,0.0,0.0,-0.012,-1.0,8.041,0.058,-0.0,0.0,-0.14,0.519
289.35,8.871,-0.008,0.0,0.0,-0.012,-1.0,8.041,0.058,-0.0,0.0,-0.14,0.519
290.1,8.871,-0.008,0.0,0.0,-0.012,-1.0,8.041,0.058,-0.0,0.0,-0.14,0.519
290.35,8.87,-0.008,0.0,0.0,-0.012,-1.0,8.041,0.058,-0.0,0.0,-0.14,0.519
290.6,8.87,-0.008,0.0,0.0,-0.012,-1.0,8.041,0.058,-0.0,0.0,-0.14,0.519
291.1,8.87,-0.008,0.0,0.0,-0.012,-1.0,8.041,0.058,-0.0,0.0,-0.14,0.519
291.6,8.87,-0.008,0.0,0.0,-0.012,-1.0,8.041,0.058,-0.0,0.0,-0.14,0.519
292.35,8.87,-0.008,0.0,0.0,-0.012,-1.0,8.041,0.058,-0.0,0.0,-0.14,0.519
292.6,8.87,-0.008,0.0,0.0,-0.013,-1.0,8.041,0.058,-0.0,0.0,-0.14,0.519
292.85,8.87,-0.008,0.0,0.0,-0.013,-1.0,8.041,0.058,-0.0,0.0,-0.14,0.519
293.1,8.87,-0.008,0.0,0.0,-0.013,-1.0,8.041,0.058,-0.0,0.0,-0.14,0.519
293.35,8.87,-0.008,0.0,0.0,-0.013,-1.0,8.041,0.058,-0.0,0.0,-0.14,0.519
293.6,8.87,-0.008,0.0,0.0,-0.013,-1.0,8.041,0.058,-0.0,0.0,-0.14,0.519
294.6,8.87,-0.008,0.0,0.0,-0.013,-1.0,8.041,0.058,-0.0,0.0,-0.14,0.519
294.85,8.87,-0.008,0.0,0.0,-0.013,-1.0,8.041,0.058,-0.0,0.0,-0.14,0.519
295.1,8.87,-0.008,0.0,0.0,-0.013,-1.0,8.041,0.058,-0.0,0.0,-0.14,0.519
295.35,8.87,-0.008,0.0,0.0,-0.013,-1.0,8.041,0.058,-0.0,0.0,-0.14,0.519
295.6,8.87,-0.008,0.0,0.0,-0.013,-1.0,8.041,0.058,-0.0,0.0,-0.14,0.519
296.1,8.87,-0.008,0.0,0.0,-0.013,-1.0,8.041,0.058,-0.0,0.0,-0.14,0.519
296.35,8.87,-0.008,0.0,0.0,-0.013,-1.0,8.041,0.058,-0.0,0.0,-0.14,0.519
296.6,8.87,-0.008,0.0,0.0,-0.013,-1.0,8.041,0.058,-0.0,0.0,-0.14,0.519
296.85,8.87,-0.008,0.0,0.0,-0.013,-1.0,8.041,0.058,-0.0,0.0,-0.14,0.519
297.35,8.87,-0.008,0.0,0.0,-0.013,-1.0,8.041,0.058,-0.0,0.0,-0.14,0.519
297.6,8.87,-0.008,0.0,0.0,-0.013,-1.0,8.04,0.058,-0.0,0.0,-0.14,0.519
298.35,8.87,-0.008,0.0,0.0,-0.013,-1.0,8.04,0.058,-0.0,0.0,-0.14,0.519
298.6,8.87,-0.008,0.0,0.0,-0.013,-1.0,8.04,0.058,-0.0,0.0,-0.14,0.519
299.1,8.87,-0.008,0.0,0.0,-0.013,-1.0,8.04,0.058,-0.0,0.0,-0.14,0.519
299.35,8.87,-0.008,0.0,0.0,-0.013,-1.0,8.04,0.058,-0.0,0.0,-0.14,0.519
299.6,8.87,-0.008,0.0,0.0,-0.013,-1.0,8.04,0.058,-0.0,0.0,-0.14,0.519
299.85,8.87,-0.008,0.0,0.0,-0.013,-1.0,8.04,0.058,-0.0,0.0,-0.14,0.519
300.35,8.87,-0.008,0.0,0.0,-0.013,-1.0,8.04,0.058,-0.0,0.0,-0.14,0.519
301.1,8.87,-0.008,0.0,0.0,-0.013,-1.0,8.04,0.058,-0.0,0.0,-0.14,0.519
301.35,8.87,-0.008,0.0,0.0,-0.013,-1.0,8.04,0.058,-0.0,0.0,-0.14,0.519
301.6,8.87,-0.008,0.0,0.0,-0.013,-1.0,8.04,0.058,-0.0,0.0,-0.14,0.519
302.1,8.87,-0.008,0.0,0.0,-0.013,-1.0,8.04,0.058,-0.0,0.0,-0.14,0.519
302.35,8.87,-0.008,0.0,0.0,-0.013,-1.0,8.04,0.058,-0.0,0.0,-0.14,0.519
302.6,8.87,-0.008,0.0,0.0,-0.013,-1.0,8.04,0.058,-0.0,0.0,-0.14,0.519
302.85,8.87,-0.008,0.0,0.0,-0.013,-1.0,8.04,0.058,-0.0,0.0,-0.14,0.519
303.35,8.87,-0.008,0.0,0.0,-0.013,-1.0,8.04,0.058,-0.0,0.0,-0.14,0.519
303.6,8.87,-0.008,0.0,0.0,-0.013,-1.0,8.04,0.058,-0.0,0.0,-0.14,0.519
303.85,8.87,-0.008,0.0,0.0,-0.013,-1.0,8.04,0.058,-0.0,0.0,-0.14,0.519
304.1,8.87,-0.008,0.0,0.0,-0.013,-1.0,8.04,0.058,-0.0,0.0,-0.14,0.519
304.35,8.87,-0.008,0.0,0.0,-0.013,-1.0,8.04,0.058,-0.0,0.0,-0.14,0.519
304.6,8.869,-0.008,0.0,0.0,-0.013,-1.0,8.04,0.058,-0.0,0.0,-0.14,0.519
305.1,8.869,-0.008,0.0,0.0,-0.013,-1.0,8.04,0.058,-0.0,0.0,-0.14,0.519
305.85,8.869,-0.008,0.0,0.0,-0.013,-1.0,8.04,0.058,-0.0,0.0,-0.14,0.519
306.1,8.869,-0.008,0.0,0.0,-0.013,-1.0,8.04,0.058,-0.0,0.0,-0.14,0.519
306.6,8.869,-0.008,0.0,0.0,-0.013,-1.0,8.04,0.058,-0.0,0.0,-0.14,0.519
306.85,8.869,-0.008,0.0,0.0,-0.013,-1.0,8.04,0.058,-0.0,0.0,-0.14,0.519
307.6,8.869,-0.008,0.0,0.0,-0.013,-1.0,8.04,0.058,-0.0,0.0,-0.14,0.519
307.85,8.869,-0.008,0.0,0.0,-0.013,-1.0,8.04,0.058,-0.0,0.0,-0.14,0.519
308.1,8.869,-0.008,0.0,0.0,-0.013,-1.0,8.04,0.058,-0.0,0.0,-0.14,0.519
308.35,8.869,-0.008,0.0,0.0,-0.013,-1.0,8.04,0.058,-0.0,0.0,-0.14,0.519
308.85,8.869,-0.008,0.0,0.0,-0.013,-1.0,8.04,0.058,-0.0,0.0,-0.14,0.519
309.6,8.869,-0.008,0.0,0.0,-0.013,-1.0,8.04,0.058,-0.0,0.0,-0.14,0.519
309.85,8.869,-0.008,0.0,0.0,-0.013,-1.0,8.04,0.058,-0.0,0.0,-0.14,0.519
310.1,8.869,-0.008,0.0,0.0,-0.013,-1.0,8.04,0.058,-0.0,0.0,-0.14,0.519
310.35,8.869,-0.008,0.0,0.0,-0.013,-1.0,8.04,0.058,-0.0,0.0,-0.14,0.519
310.6,8.869,-0.008,0.0,0.0,-0.013,-1.0,8.04,0.058,-0.0,0.0,-0.14,0.519
311.1,8.869,-0.008,0.0,0.0,-0.013,-1.0,8.04,0.058,-0.0,0.0,-0.14,0.519
311.6,8.869,-0.008,0.0,0.0,-0.013,-1.0,8.04,0.058,-0.0,0.0,-0.14,0.519
312.35,8.869,-0.008,0.0,0.0,-0.013,-1.0,8.04,0.058,-0.0,0.0,-0.14,0.519
312.6,8.869,-0.008,0.0,0.0,-0.013,-1.0,8.04,0.058,-0.0,0.0,-0.14,0.519
312.85,8.869,-0.008,0.0,0.0,-0.013,-1.0,8.04,0.058,-0.0,0.0,-0.14,0.519
313.1,8.869,-0.008,0.0,0.0,-0.013,-1.0,8.04,0.058,-0.0,0.0,-0.14,0.519
313.35,8.869,-0.008,0.0,0.0,-0.013,-1.0,8.04,0.058,-0.0,0.0,-0.14,0.519
313.6,8.869,-0.008,0.0,0.0,-0.013,-1.0,8.04,0.058,-0.0,0.0,-0.14,0.519
313.85,8.869,-0.008,0.0,0.0,-0.013,-1.0,8.04,0.058,-0.0,0.0,-0.14,0.519
314.1,8.869,-0.008,0.0,0.0,-0.013,-1.0,8.04,0.058,-0.0,0.0,-0.14,0.519
314.35,8.869,-0.008,0.0,0.0,-0.013,-1.0,8.04,0.058,-0.0,0.0,-0.14,0.519
314.6,8.869,-0.008,0.0,0.0,-0.013,-1.0,8.04,0.058,-0.0,0.0,-0.14,0.519
314.85,8.869,-0.008,0.0,0.0,-0.013,-1.0,8.04,0.058,-0.0,0.0,-0.14,0.519
315.1,8.869,-0.008,0.0,0.0,-0.013,-1.0,8.04,0.058,-0.0,0.0,-0.14,0.519
315.35,8.869,-0.008,0.0,0.0,-0.013,-1.0,8.04,0.058,-0.0,0.0,-0.14,0.519
315.6,8.869,-0.008,0.0,0.0,-0.013,-1.0,8.04,0.058,-0.0,0.0,-0.14,0.519
315.85,8.869,-0.008,0.0,0.0,-0.013,-1.0,8.04,0.058,-0.0,0.0,-0.14,0.519
316.6,8.869,-0.008,0.0,0.0,-0.013,-1.0,8.04,0.058,-0.0,0.0,-0.14,0.519
316.85,8.869,-0.008,0.0,0.0,-0.013,-1.0,8.04,0.058,-0.0,0.0,-0.14,0.519
317.1,8.869,-0.008,0.0,0.0,-0.013,-1.0,8.04,0.058,-0.0,0.0,-0.14,0.519
317.6,8.869,-0.008,0.0,0.0,-0.013,-1.0,8.04,0.058,-0.0,0.0,-0.14,0.519
317.85,8.869,-0.008,0.0,0.0,-0.013,-1.0,8.04,0.058,-0.0,0.0,-0.14,0.519
318.1,8.869,-0.008,0.0,0.0,-0.013,-1.0,8.04,0.058,-0.0,0.0,-0.14,0.519
318.35,8.869,-0.008,0.0,0.0,-0.013,-1.0,8.04,0.058,-0.0,0.0,-0.14,0.519
318.6,8.869,-0.008,0.0,0.0,-0.013,-1.0,8.04,0.058,-0.0,0.0,-0.14,0.519
319.1,8.868,-0.008,0.0,0.0,-0.013,-1.0,8.04,0.058,-0.0,0.0,-0.14,0.519
319.35,8.868,-0.008,0.0,0.0,-0.013,-1.0,8.04,0.058,-0.0,0.0,-0.14,0.519
319.6,8.868,-0.008,0.0,0.0,-0.013,-1.0,8.04,0.058,-0.0,0.0,-0.14,0.519
320.35,8.868,-0.008,0.0,0.0,-0.013,-1.0,8.04,0.058,-0.0,0.0,-0.14,0.519
320.6,8.868,-0.008,0.0,0.0,-0.013,-1.0,8.04,0.058,-0.0,0.0,-0.14,0.519
320.85,8.868,-0.008,0.0,0.0,-0.013,-1.0,8.04,0.058,-0.0,0.0,-0.14,0.519
321.1,8.868,-0.008,0.0,0.0,-0.013,-1.0,8.04,0.058,-0.0,0.0,-0.14,0.519
321.35,8.868,-0.008,0.0,0.0,-0.013,-1.0,8.04,0.058,-0.0,0.0,-0.14,0.519
321.85,8.868,-0.008,0.0,0.0,-0.013,-1.0,8.04,0.058,-0.0,0.0,-0.14,0.519
322.1,8.868,-0.008,0.0,0.0,-0.013,-1.0,8.04,0.058,-0.0,0.0,-0.14,0.519
322.35,8.868,-0.008,0.0,0.0,-0.013,-1.0,8.04,0.058,-0.0,0.0,-0.14,0.519
322.85,8.868,-0.008,0.0,0.0,-0.013,-1.0,8.04,0.058,-0.0,0.0,-0.14,0.519
323.1,8.868,-0.008,0.0,0.0,-0.013,-1.0,8.04,0.058,-0.0,0.0,-0.14,0.519
323.6,8.868,-0.008,0.0,0.0,-0.013,-1.0,8.04,0.058,-0.0,0.0,-0.14,0.519
323.85,8.868,-0.008,0.0,0.0,-0.013,-1.0,8.039,0.058,-0.0,0.0,-0.14,0.519
324.1,8.868,-0.008,0.0,0.0,-0.013,-1.0,8.039,0.058,-0.0,0.0,-0.14,0.519
324.6,8.868,-0.008,0.0,0.0,-0.013,-1.0,8.039,0.058,-0.0,0.0,-0.14,0.519
324.85,8.868,-0.008,0.0,0.0,-0.013,-1.0,8.039,0.058,-0.0,0.0,-0.14,0.519
325.1,8.868,-0.008,0.0,0.0,-0.013,-1.0,8.039,0.058,-0.0,0.0,-0.14,0.519
325.6,8.868,-0.008,0.0,0.0,-0.013,-1.0,8.039,0.058,-0.0,0.0,-0.14,0.519
325.85,8.868,-0.008,0.0,0.0,-0.013,-1.0,8.039,0.058,-0.0,0.0,-0.14,0.519
326.1,8.868,-0.008,0.0,0.0,-0.013,-1.0,8.039,0.058,-0.0,0.0,-0.14,0.519
326.6,8.868,-0.008,0.0,0.0,-0.013,-1.0,8.039,0.058,-0.0,0.0,-0.14,0.519
327.1,8.868,-0.008,0.0,0.0,-0.013,-1.0,8.039,0.058,-0.0,0.0,-0.14,0.519
327.6,8.868,-0.008,0.0,0.0,-0.013,-1.0,8.039,0.058,-0.0,0.0,-0.14,0.519
329.1,8.868,-0.008,0.0,0.0,-0.013,-1.0,8.039,0.058,-0.0,0.0,-0.14,0.519
329.6,8.868,-0.008,0.0,0.0,-0.013,-1.0,8.039,0.058,-0.0,0.0,-0.14,0.519
330.1,8.868,-0.008,0.0,0.0,-0.013,-1.0,8.039,0.058,-0.0,0.0,-0.14,0.519
330.35,8.868,-0.008,0.0,0.0,-0.013,-1.0,8.039,0.058,-0.0,0.0,-0.14,0.519
331.35,8.868,-0.008,0.0,0.0,-0.013,-1.0,8.039,0.058,-0.0,0.0,-0.14,0.519
331.6,8.868,-0.008,0.0,0.0,-0.013,-1.0,8.039,0.058,-0.0,0.0,-0.14,0.519
331.85,8.868,-0.008,0.0,0.0,-0.013,-1.0,8.039,0.058,-0.0,0.0,-0.14,0.519
332.1,8.868,-0.008,0.0,0.0,-0.013,-1.0,8.039,0.058,-0.0,0.0,-0.14,0.519
332.35,8.868,-0.008,0.0,0.0,-0.013,-1.0,8.039,0.058,-0.0,0.0,-0.14,0.519
332.6,8.868,-0.008,0.0,0.0,-0.013,-1.0,8.039,0.058,-0.0,0.0,-0.14,0.519
333.1,8.868,-0.008,0.0,0.0,-0.013,-1.0,8.039,0.058,-0.0,0.0,-0.14,0.519
333.35,8.867,-0.008,0.0,0.0,-0.013,-1.0,8.039,0.058,-0.0,0.0,-0.14,0.519
333.6,8.867,-0.008,0.0,0.0,-0.013,-1.0,8.039,0.058,-0.0,0.0,-0.14,0.519
333.85,8.867,-0.008,0.0,0.0,-0.013,-1.0,8.039,0.058,-0.0,0.0,-0.14,0.519
334.1,8.867,-0.008,0.0,0.0,-0.013,-1.0,8.039,0.058,-0.0,0.0,-0.14,0.519
334.35,8.867,-0.008,0.0,0.0,-0.013,-1.0,8.039,0.058,-0.0,0.0,-0.14,0.519
334.6,8.867,-0.008,0.0,0.0,-0.013,-1.0,8.039,0.058,-0.0,0.0,-0.14,0.519
334.85,8.867,-0.008,0.0,0.0,-0.013,-1.0,8.039,0.058,-0.0,0.0,-0.14,0.519
335.1,8.867,-0.008,0.0,0.0,-0.013,-1.0,8.039,0.058,-0.0,0.0,-0.14,0.519
335.6,8.867,-0.008,0.0,0.0,-0.013,-1.0,8.039,0.058,-0.0,0.0,-0.14,0.519
335.85,8.867,-0.008,0.0,0.0,-0.013,-1.0,8.039,0.058,-0.0,0.0,-0.14,0.519
336.1,8.867,-0.008,0.0,0.0,-0.013,-1.0,8.039,0.058,-0.0,0.0,-0.14,0.519
336.6,8.867,-0.008,0.0,0.0,-0.013,-1.0,8.039,0.058,-0.0,0.0,-0.14,0.519
337.1,8.867,-0.008,0.0,0.0,-0.013,-1.0,8.039,0.058,-0.0,0.0,-0.14,0.519
337.85,8.867,-0.008,0.0,0.0,-0.013,-1.0,8.039,0.058,-0.0,0.0,-0.14,0.519
338.1,8.867,-0.008,0.0,0.0,-0.013,-1.0,8.039,0.058,-0.0,0.0,-0.14,0.519
338.35,8.867,-0.008,0.0,0.0,-0.013,-1.0,8.039,0.058,-0.0,0.0,-0.14,0.519
338.6,8.867,-0.008,0.0,0.0,-0.013,-1.0,8.039,0.059,-0.0,0.0,-0.14,0.519
338.85,8.867,-0.008,0.0,0.0,-0.013,-1.0,8.039,0.059,-0.0,0.0,-0.14,0.519
339.35,8.867,-0.008,0.0,0.0,-0.013,-1.0,8.039,0.059,-0.0,0.0,-0.14,0.519
340.1,8.867,-0.008,0.0,0.0,-0.013,-1.0,8.039,0.059,-0.0,0.0,-0.14,0.519
340.35,8.867,-0.008,0.0,0.0,-0.013,-1.0,8.039,0.059,-0.0,0.0,-0.14,0.519
340.85,8.867,-0.008,0.0,0.0,-0.013,-1.0,8.039,0.059,-0.0,0.0,-0.14,0.519
341.1,8.867,-0.008,0.0,0.0,-0.013,-1.0,8.039,0.059,-0.0,0.0,-0.14,0.519
341.35,8.867,-0.008,0.0,0.0,-0.013,-1.0,8.039,0.059,-0.0,0.0,-0.14,0.519
341.6,8.867,-0.008,0.0,0.0,-0.013,-1.0,8.039,0.059,-0.0,0.0,-0.14,0.519
341.85,8.867,-0.008,0.0,0.0,-0.013,-1.0,8.039,0.059,-0.0,0.0,-0.14,0.519
342.6,8.867,-0.008,0.0,0.0,-0.013,-1.0,8.039,0.059,-0.0,0.0,-0.14,0.519
343.1,8.867,-0.008,0.0,0.0,-0.013,-1.0,8.039,0.059,-0.0,0.0,-0.14,0.519
343.6,8.867,-0.008,0.0,0.0,-0.013,-1.0,8.039,0.059,-0.0,0.0,-0.14,0.519
344.1,8.867,-0.008,0.0,0.0,-0.013,-1.0,8.039,0.059,-0.0,0.0,-0.14,0.519
344.6,8.867,-0.008,0.0,0.0,-0.013,-1.0,8.039,0.059,-0.0,0.0,-0.14,0.519
344.85,8.867,-0.008,0.0,0.0,-0.013,-1.0,8.039,0.059,-0.0,0.0,-0.14,0.519
345.35,8.867,-0.008,0.0,0.0,-0.013,-1.0,8.039,0.059,-0.0,0.0,-0.14,0.519
345.6,8.867,-0.008,0.0,0.0,-0.013,-1.0,8.039,0.059,-0.0,0.0,-0.14,0.519
345.85,8.867,-0.008,0.0,0.0,-0.013,-1.0,8.039,0.059,-0.0,0.0,-0.14,0.519
346.1,8.867,-0.008,0.0,0.0,-0.013,-1.0,8.039,0.059,-0.0,0.0,-0.14,0.519
346.6,8.867,-0.008,0.0,0.0,-0.013,-1.0,8.039,0.059,-0.0,0.0,-0.14,0.519
347.1,8.867,-0.008,0.0,0.0,-0.013,-1.0,8.039,0.059,-0.0,0.0,-0.14,0.519
347.35,8.867,-0.008,0.0,0.0,-0.013,-1.0,8.039,0.059,-0.0,0.0,-0.14,0.519
348.1,8.866,-0.008,0.0,0.0,-0.013,-1.0,8.039,0.059,-0.0,0.0,-0.14,0.519
348.85,8.866,-0.008,0.0,0.0,-0.013,-1.0,8.039,0.059,-0.0,0.0,-0.14,0.519
349.1,8.866,-0.008,0.0,0.0,-0.013,-1.0,8.039,0.059,-0.0,0.0,-0.14,0.519
349.6,8.866,-0.008,0.0,0.0,-0.013,-1.0,8.039,0.059,-0.0,0.0,-0.14,0.519
350.35,8.866,-0.008,0.0,0.0,-0.013,-1.0,8.039,0.059,-0.0,0.0,-0.14,0.519
350.6,8.866,-0.008,0.0,0.0,-0.013,-1.0,8.038,0.059,-0.0,0.0,-0.14,0.519
350.85,8.866,-0.008,0.0,0.0,-0.013,-1.0,8.038,0.059,-0.0,0.0,-0.14,0.519
351.1,8.866,-0.008,0.0,0.0,-0.013,-1.0,8.038,0.059,-0.0,0.0,-0.14,0.519
351.6,8.866,-0.008,0.0,0.0,-0.013,-1.0,8.038,0.059,-0.0,0.0,-0.14,0.519
351.85,8.866,-0.008,0.0,0.0,-0.013,-1.0,8.038,0.059,-0.0,0.0,-0.14,0.519
352.1,8.866,-0.008,0.0,0.0,-0.013,-1.0,8.038,0.059,-0.0,0.0,-0.14,0.519
352.6,8.866,-0.008,0.0,0.0,-0.013,-1.0,8.038,0.059,-0.0,0.0,-0.14,0.519
352.85,8.866,-0.008,0.0,0.0,-0.013,-1.0,8.038,0.059,-0.0,0.0,-0.14,0.519
353.6,8.866,-0.008,0.0,0.0,-0.013,-1.0,8.038,0.059,-0.0,0.0,-0.14,0.519
354.1,8.866,-0.008,0.0,0.0,-0.013,-1.0,8.038,0.059,-0.0,0.0,-0.14,0.519
354.35,8.866,-0.008,0.0,0.0,-0.013,-1.0,8.038,0.059,-0.0,0.0,-0.14,0.519
354.6,8.866,-0.008,0.0,0.0,-0.013,-1.0,8.038,0.059,-0.0,0.0,-0.14,0.519
355.35,8.866,-0.008,0.0,0.0,-0.013,-1.0,8.038,0.059,-0.0,0.0,-0.14,0.519
355.6,8.866,-0.008,0.0,0.0,-0.013,-1.0,8.038,0.059,-0.0,0.0,-0.14,0.519
355.85,8.866,-0.008,0.0,0.0,-0.013,-1.0,8.038,0.059,-0.0,0.0,-0.14,0.519
356.1,8.866,-0.008,0.0,0.0,-0.013,-1.0,8.038,0.059,-0.0,0.0,-0.14,0.519
356.6,8.866,-0.008,0.0,0.0,-0.013,-1.0,8.038,0.059,-0.0,0.0,-0.14,0.519
356.85,8.866,-0.008,0.0,0.0,-0.013,-1.0,8.038,0.059,-0.0,0.0,-0.14,0.519
357.35,8.866,-0.008,0.0,0.0,-0.013,-1.0,8.038,0.059,-0.0,0.0,-0.14,0.519
357.6,8.866,-0.008,0.0,0.0,-0.013,-1.0,8.038,0.059,-0.0,0.0,-0.14,0.519
357.85,8.866,-0.008,0.0,0.0,-0.013,-1.0,8.038,0.059,-0.0,0.0,-0.14,0.519
358.1,8.866,-0.008,0.0,0.0,-0.013,-1.0,8.038,0.059,-0.0,0.0,-0.14,0.519
358.35,8.866,-0.008,0.0,0.0,-0.013,-1.0,8.038,0.059,-0.0,0.0,-0.14,0.519
358.85,8.866,-0.008,0.0,0.0,-0.013,-1.0,8.038,0.059,-0.0,0.0,-0.14,0.519
360.1,8.866,-0.008,0.0,0.0,-0.013,-1.0,8.038,0.059,-0.0,0.0,-0.14,0.519
360.35,8.866,-0.008,0.0,0.0,-0.013,-1.0,8.038,0.059,-0.0,0.0,-0.14,0.519
360.6,8.866,-0.008,0.0,0.0,-0.013,-1.0,8.038,0.059,-0.0,0.0,-0.14,0.519
360.85,8.866,-0.008,0.0,0.0,-0.013,-1.0,8.038,0.059,-0.0,0.0,-0.14,0.519
360.85,8.866,-0.008,0.0,0.0,-0.013,-1.0,8.038,0.059,-0.0,0.0,-0.14,0.519
361.1,8.866,-0.008,0.0,0.0,-0.013,-1.0,8.038,0.059,-0.0,0.0,-0.14,0.519
361.6,8.866,-0.008,0.0,0.0,-0.013,-1.0,8.038,0.059,-0.0,0.0,-0.14,0.519
361.6,8.866,-0.008,0.0,0.0,-0.013,-1.0,8.038,0.059,-0.0,0.0,-0.14,0.519
362.1,8.865,-0.008,0.0,0.0,-0.013,-1.0,8.038,0.059,-0.0,0.0,-0.14,0.519
362.6,8.865,-0.008,0.0,0.0,-0.013,-1.0,8.038,0.059,-0.0,0.0,-0.14,0.519
362.85,8.865,-0.008,0.0,0.0,-0.013,-1.0,8.038,0.059,-0.0,0.0,-0.14,0.519
363.35,8.865,-0.008,0.0,0.0,-0.013,-1.0,8.038,0.059,-0.0,0.0,-0.14,0.519
365.1,8.865,-0.008,0.0,0.0,-0.013,-1.0,8.038,0.059,-0.0,0.0,-0.14,0.519
365.6,8.865,-0.008,0.0,0.0,-0.013,-1.0,8.038,0.059,-0.0,0.0,-0.14,0.519
366.1,8.865,-0.008,0.0,0.0,-0.013,-1.0,8.038,0.059,-0.0,0.0,-0.14,0.519
366.35,8.865,-0.008,0.0,0.0,-0.013,-1.0,8.038,0.059,-0.0,0.0,-0.14,0.519
366.6,8.865,-0.008,0.0,0.0,-0.013,-1.0,8.038,0.059,-0.0,0.0,-0.14,0.519
367.1,8.865,-0.008,0.0,0.0,-0.013,-1.0,8.038,0.059,-0.0,0.0,-0.14,0.519
367.35,8.865,-0.008,0.0,0.0,-0.013,-1.0,8.038,0.059,-0.0,0.0,-0.14,0.519
367.6,8.865,-0.008,0.0,0.0,-0.013,-1.0,8.038,0.059,-0.0,0.0,-0.14,0.519
367.85,8.865,-0.008,0.0,0.0,-0.013,-1.0,8.038,0.059,-0.0,0.0,-0.14,0.519
368.1,8.865,-0.008,0.0,0.0,-0.013,-1.0,8.038,0.059,-0.0,0.0,-0.14,0.519
368.35,8.865,-0.008,0.0,0.0,-0.013,-1.0,8.038,0.059,-0.0,0.0,-0.14,0.519
368.6,8.865,-0.008,0.0,0.0,-0.013,-1.0,8.038,0.059,-0.0,0.0,-0.14,0.519
368.85,8.865,-0.008,0.0,0.0,-0.013,-1.0,8.038,0.059,-0.0,0.0,-0.14,0.519
369.1,8.865,-0.008,0.0,0.0,-0.013,-1.0,8.038,0.059,-0.0,0.0,-0.14,0.519
369.35,8.865,-0.008,0.0,0.0,-0.013,-1.0,8.038,0.059,-0.0,0.0,-0.14,0.519
369.6,8.865,-0.008,0.0,0.0,-0.013,-1.0,8.038,0.059,-0.0,0.0,-0.14,0.519
370.1,8.865,-0.008,0.0,0.0,-0.013,-1.0,8.038,0.059,-0.0,0.0,-0.14,0.519
370.35,8.865,-0.008,0.0,0.0,-0.013,-1.0,8.038,0.059,-0.0,0.0,-0.14,0.519
370.6,8.865,-0.008,0.0,0.0,-0.013,-1.0,8.038,0.059,-0.0,0.0,-0.14,0.519
371.1,8.865,-0.008,0.0,0.0,-0.013,-1.0,8.038,0.059,-0.0,0.0,-0.14,0.519
371.35,8.865,-0.008,0.0,0.0,-0.013,-1.0,8.038,0.059,-0.0,0.0,-0.14,0.519
371.6,8.865,-0.008,0.0,0.0,-0.013,-1.0,8.038,0.059,-0.0,0.0,-0.14,0.519
372.1,8.865,-0.008,0.0,0.0,-0.013,-1.0,8.038,0.059,-0.0,0.0,-0.14,0.519
372.6,8.865,-0.008,0.0,0.0,-0.013,-1.0,8.038,0.059,-0.0,0.0,-0.14,0.519
373.1,8.865,-0.008,0.0,0.0,-0.013,-1.0,8.038,0.059,-0.0,0.0,-0.14,0.519
373.35,8.865,-0.008,0.0,0.0,-0.013,-1.0,8.038,0.059,-0.0,0.0,-0.14,0.519
373.6,8.865,-0.008,0.0,0.0,-0.013,-1.0,8.038,0.059,-0.0,0.0,-0.14,0.519
374.1,8.865,-0.008,0.0,0.0,-0.013,-1.0,8.038,0.059,-0.0,0.0,-0.14,0.519
374.6,8.865,-0.008,0.0,0.0,-0.013,-1.0,8.038,0.059,-0.0,0.0,-0.14,0.519
375.35,8.865,-0.008,0.0,0.0,-0.013,-1.0,8.038,0.059,-0.0,0.0,-0.14,0.519
375.6,8.865,-0.008,0.0,0.0,-0.013,-1.0,8.038,0.059,-0.0,0.0,-0.14,0.519
376.1,8.864,-0.008,0.0,0.0,-0.013,-1.0,8.038,0.059,-0.0,0.0,-0.14,0.519
376.35,8.864,-0.008,0.0,0.0,-0.013,-1.0,8.038,0.059,-0.0,0.0,-0.14,0.519
376.6,8.864,-0.008,0.0,0.0,-0.013,-1.0,8.037,0.059,-0.0,0.0,-0.14,0.518
376.85,8.864,-0.008,0.0,0.0,-0.013,-1.0,8.037,0.059,-0.0,0.0,-0.14,0.518
378.35,8.864,-0.008,0.0,0.0,-0.013,-1.0,8.037,0.059,-0.0,0.0,-0.14,0.518
378.6,8.864,-0.008,0.0,0.0,-0.013,-1.0,8.037,0.059,-0.0,0.0,-0.14,0.518
378.85,8.864,-0.008,0.0,0.0,-0.013,-1.0,8.037,0.059,-0.0,0.0,-0.14,0.518
379.35,8.864,-0.008,0.0,0.0,-0.013,-1.0,8.037,0.059,-0.0,0.0,-0.14,0.518
379.6,8.864,-0.008,0.0,0.0,-0.013,-1.0,8.037,0.059,-0.0,0.0,-0.14,0.518
380.35,8.864,-0.008,0.0,0.0,-0.013,-1.0,8.037,0.059,-0.0,0.0,-0.14,0.518
380.6,8.864,-0.008,0.0,0.0,-0.013,-1.0,8.037,0.059,-0.0,0.0,-0.14,0.518
380.85,8.864,-0.008,0.0,0.0,-0.013,-1.0,8.037,0.059,-0.0,0.0,-0.14,0.518
381.1,8.864,-0.008,0.0,0.0,-0.013,-1.0,8.037,0.059,-0.0,0.0,-0.14,0.518
381.6,8.864,-0.008,0.0,0.0,-0.013,-1.0,8.037,0.059,-0.0,0.0,-0.14,0.518
382.1,8.864,-0.008,0.0,0.0,-0.013,-1.0,8.037,0.059,-0.0,0.0,-0.14,0.518
382.6,8.864,-0.008,0.0,0.0,-0.013,-1.0,8.037,0.059,-0.0,0.0,-0.14,0.518
382.85,8.864,-0.008,0.0,0.0,-0.013,-1.0,8.037,0.059,-0.0,0.0,-0.14,0.518
383.1,8.864,-0.008,0.0,0.0,-0.013,-1.0,8.037,0.059,-0.0,0.0,-0.14,0.518
383.35,8.864,-0.008,0.0,0.0,-0.013,-1.0,8.037,0.059,-0.0,0.0,-0.14,0.518
383.6,8.864,-0.008,0.0,0.0,-0.013,-1.0,8.037,0.059,-0.0,0.0,-0.14,0.518
384.1,8.864,-0.008,0.0,0.0,-0.013,-1.0,8.037,0.059,-0.0,0.0,-0.14,0.518
384.35,8.864,-0.008,0.0,0.0,-0.013,-1.0,8.037,0.059,-0.0,0.0,-0.14,0.518
384.6,8.864,-0.008,0.0,0.0,-0.013,-1.0,8.037,0.059,-0.0,0.0,-0.14,0.518
384.85,8.864,-0.008,0.0,0.0,-0.013,-1.0,8.037,0.059,-0.0,0.0,-0.14,0.518
385.35,8.864,-0.008,0.0,0.0,-0.013,-1.0,8.037,0.059,-0.0,0.0,-0.14,0.518
385.6,8.864,-0.008,0.0,0.0,-0.013,-1.0,8.037,0.059,-0.0,0.0,-0.14,0.518
385.85,8.864,-0.008,0.0,0.0,-0.013,-1.0,8.037,0.059,-0.0,0.0,-0.14,0.518
386.35,8.864,-0.008,0.0,0.0,-0.013,-1.0,8.037,0.059,-0.0,0.0,-0.14,0.518
386.85,8.864,-0.008,0.0,0.0,-0.013,-1.0,8.037,0.059,-0.0,0.0,-0.14,0.518
387.1,8.864,-0.008,0.0,0.0,-0.013,-1.0,8.037,0.059,-0.0,0.0,-0.14,0.518
387.35,8.864,-0.008,0.0,0.0,-0.013,-1.0,8.037,0.059,-0.0,0.0,-0.14,0.518
387.6,8.864,-0.008,0.0,0.0,-0.013,-1.0,8.037,0.059,-0.0,0.0,-0.14,0.518
387.85,8.864,-0.008,0.0,0.0,-0.013,-1.0,8.037,0.059,-0.0,0.0,-0.14,0.518
388.1,8.864,-0.008,0.0,0.0,-0.013,-1.0,8.037,0.059,-0.0,0.0,-0.14,0.518
388.6,8.864,-0.008,0.0,0.0,-0.013,-1.0,8.037,0.059,-0.0,0.0,-0.14,0.518
389.1,8.864,-0.008,0.0,0.0,-0.013,-1.0,8.037,0.059,-0.0,0.0,-0.14,0.518
389.6,8.864,-0.008,0.0,0.0,-0.013,-1.0,8.037,0.059,-0.0,0.0,-0.14,0.518
390.35,8.863,-0.008,0.0,0.0,-0.013,-1.0,8.037,0.059,-0.0,0.0,-0.14,0.518
390.6,8.863,-0.008,0.0,0.0,-0.013,-1.0,8.037,0.059,-0.0,0.0,-0.14,0.518
390.85,8.863,-0.008,0.0,0.0,-0.013,-1.0,8.037,0.059,-0.0,0.0,-0.14,0.518
391.85,8.863,-0.008,0.0,0.0,-0.013,-1.0,8.037,0.059,-0.0,0.0,-0.14,0.518
392.1,8.863,-0.008,0.0,0.0,-0.013,-1.0,8.037,0.059,-0.0,0.0,-0.14,0.518
392.35,8.863,-0.008,0.0,0.0,-0.013,-1.0,8.037,0.059,-0.0,0.0,-0.14,0.518
392.6,8.863,-0.008,0.0,0.0,-0.013,-1.0,8.037,0.059,-0.0,0.0,-0.14,0.518
392.85,8.863,-0.008,0.0,0.0,-0.013,-1.0,8.037,0.059,-0.0,0.0,-0.14,0.518
393.1,8.863,-0.008,0.0,0.0,-0.013,-1.0,8.037,0.059,-0.0,0.0,-0.14,0.518
393.85,8.863,-0.008,0.0,0.0,-0.013,-1.0,8.037,0.059,-0.0,0.0,-0.14,0.518
394.1,8.863,-0.008,0.0,0.0,-0.013,-1.0,8.037,0.059,-0.0,0.0,-0.14,0.518
394.35,8.863,-0.008,0.0,0.0,-0.013,-1.0,8.037,0.059,-0.0,0.0,-0.14,0.518
395.1,8.863,-0.008,0.0,0.0,-0.013,-1.0,8.037,0.059,-0.0,0.0,-0.14,0.518
395.6,8.863,-0.008,0.0,0.0,-0.013,-1.0,8.037,0.059,-0.0,0.0,-0.14,0.518
396.1,8.863,-0.008,0.0,0.0,-0.013,-1.0,8.037,0.059,-0.0,0.0,-0.14,0.518
396.35,8.863,-0.008,0.0,0.0,-0.013,-1.0,8.037,0.059,-0.0,0.0,-0.14,0.518
396.6,8.863,-0.008,0.0,0.0,-0.013,-1.0,8.037,0.059,-0.0,0.0,-0.14,0.518
397.35,8.863,-0.008,0.0,0.0,-0.013,-1.0,8.037,0.059,-0.0,0.0,-0.14,0.518
397.85,8.863,-0.008,0.0,0.0,-0.013,-1.0,8.037,0.059,-0.0,0.0,-0.14,0.518
398.1,8.863,-0.008,0.0,0.0,-0.013,-1.0,8.037,0.059,-0.0,0.0,-0.14,0.518
398.35,8.863,-0.008,0.0,0.0,-0.013,-1.0,8.037,0.059,-0.0,0.0,-0.14,0.518
398.6,8.863,-0.008,0.0,0.0,-0.013,-1.0,8.037,0.06,-0.0,0.0,-0.14,0.518
398.85,8.863,-0.008,0.0,0.0,-0.013,-1.0,8.037,0.06,-0.0,0.0,-0.14,0.518
399.1,8.863,-0.008,0.0,0.0,-0.013,-1.0,8.037,0.06,-0.0,0.0,-0.14,0.518
399.35,8.863,-0.008,0.0,0.0,-0.013,-1.0,8.037,0.06,-0.0,0.0,-0.14,0.518
399.6,8.863,-0.008,0.0,0.0,-0.013,-1.0,8.037,0.06,-0.0,0.0,-0.14,0.518
399.6,8.863,-0.008,0.0,0.0,-0.013,-1.0,8.037,0.06,-0.0,0.0,-0.14,0.518
399.85,8.863,-0.008,0.0,0.0,-0.013,-1.0,8.037,0.06,-0.0,0.0,-0.14,0.518
400.35,8.863,-0.008,0.0,0.0,-0.013,-1.0,8.037,0.06,-0.0,0.0,-0.14,0.518
400.6,8.863,-0.008,0.0,0.0,-0.013,-1.0,8.037,0.06,-0.0,0.0,-0.14,0.518
400.85,8.863,-0.008,0.0,0.0,-0.013,-1.0,8.037,0.06,-0.0,0.0,-0.14,0.518
401.1,8.863,-0.008,0.0,0.0,-0.013,-1.0,8.037,0.06,-0.0,0.0,-0.14,0.518
401.35,8.863,-0.008,0.0,0.0,-0.013,-1.0,8.037,0.06,-0.0,0.0,-0.14,0.518
401.6,8.863,-0.008,0.0,0.0,-0.013,-1.0,8.037,0.06,-0.0,0.0,-0.14,0.518
401.85,8.863,-0.008,0.0,0.0,-0.013,-1.0,8.037,0.06,-0.0,0.0,-0.14,0.518
402.1,8.863,-0.008,0.0,0.0,-0.013,-1.0,8.037,0.06,-0.0,0.0,-0.14,0.518
402.1,8.863,-0.008,0.0,0.0,-0.013,-1.0,8.037,0.06,-0.0,0.0,-0.14,0.518
403.35,8.863,-0.008,0.0,0.0,-0.013,-1.0,8.036,0.06,-0.0,0.0,-0.14,0.518
403.85,8.863,-0.008,0.0,0.0,-0.013,-1.0,8.036,0.06,-0.0,0.0,-0.14,0.518
404.1,8.863,-0.008,0.0,0.0,-0.013,-1.0,8.036,0.06,-0.0,0.0,-0.14,0.518
406.1,8.862,-0.008,0.0,0.0,-0.013,-1.0,8.036,0.06,-0.0,0.0,-0.14,0.518
407.1,8.862,-0.008,0.0,0.0,-0.013,-1.0,8.036,0.06,-0.0,0.0,-0.14,0.518
407.35,8.862,-0.008,0.0,0.0,-0.013,-1.0,8.036,0.06,-0.0,0.0,-0.14,0.518
408.1,8.862,-0.008,0.0,0.0,-0.013,-1.0,8.036,0.06,-0.0,0.0,-0.14,0.518
408.6,8.862,-0.008,0.0,0.0,-0.013,-1.0,8.036,0.06,-0.0,0.0,-0.14,0.518
408.85,8.862,-0.008,0.0,0.0,-0.013,-1.0,8.036,0.06,-0.0,0.0,-0.14,0.518
409.6,8.862,-0.008,0.0,0.0,-0.013,-1.0,8.036,0.06,-0.0,0.0,-0.14,0.518
512.2,8.855,-0.008,-0.0,0.0,-0.014,-1.0,8.035,0.059,-0.0,0.0,-0.14,0.518
512.7,8.855,-0.008,-0.0,0.0,-0.014,-1.0,8.034,0.06,-0.0,0.0,-0.14,0.518
513.45,8.855,-0.008,-0.0,0.0,-0.014,-1.0,8.034,0.06,-0.0,0.0,-0.14,0.518
513.7,8.855,-0.008,-0.0,0.0,-0.014,-1.0,8.034,0.06,-0.0,0.0,-0.14,0.518
513.95,8.855,-0.008,-0.0,0.0,-0.014,-1.0,8.033,0.061,-0.0,0.0,-0.14,0.518
514.45,8.855,-0.008,-0.0,0.0,-0.014,-1.0,8.033,0.061,-0.0,0.0,-0.14,0.518
514.7,8.855,-0.008,-0.0,0.0,-0.014,-1.0,8.033,0.061,-0.0,0.0,-0.14,0.518
514.95,8.855,-0.008,-0.0,0.0,-0.014,-1.0,8.032,0.061,-0.0,0.0,-0.14,0.518
515.2,8.855,-0.008,-0.0,0.0,-0.014,-1.0,8.032,0.061,-0.0,0.0,-0.14,0.518
515.45,8.855,-0.008,-0.0,0.0,-0.014,-1.0,8.032,0.061,-0.0,0.0,-0.14,0.518
515.7,8.855,-0.008,-0.0,0.0,-0.014,-1.0,8.032,0.061,-0.0,0.0,-0.14,0.518
516.2,8.855,-0.008,-0.0,0.0,-0.014,-1.0,8.032,0.061,-0.0,0.0,-0.14,0.518
516.7,8.855,-0.008,-0.0,0.0,-0.014,-1.0,8.032,0.061,-0.0,0.0,-0.14,0.518
516.95,8.855,-0.008,-0.0,0.0,-0.014,-1.0,8.032,0.061,-0.0,0.0,-0.14,0.518
517.2,8.854,-0.008,-0.0,0.0,-0.014,-1.0,8.032,0.061,-0.0,0.0,-0.14,0.518
517.95,8.854,-0.008,-0.0,0.0,-0.014,-1.0,8.032,0.061,-0.0,0.0,-0.14,0.518
518.2,8.854,-0.008,-0.0,0.0,-0.014,-1.0,8.032,0.061,-0.0,0.0,-0.14,0.518
518.95,8.854,-0.008,-0.0,0.0,-0.014,-1.0,8.032,0.061,-0.0,0.0,-0.14,0.518
519.2,8.854,-0.008,-0.0,0.0,-0.014,-1.0,8.032,0.061,-0.0,0.0,-0.14,0.518
519.45,8.854,-0.008,-0.0,0.0,-0.014,-1.0,8.032,0.061,-0.0,0.0,-0.14,0.518
519.7,8.854,-0.008,-0.0,0.0,-0.014,-1.0,8.032,0.062,-0.0,0.0,-0.14,0.518
520.7,8.854,-0.008,-0.0,0.0,-0.014,-1.0,8.032,0.062,-0.0,0.0,-0.14,0.518
521.2,8.854,-0.008,-0.0,0.0,-0.014,-1.0,8.032,0.062,-0.0,0.0,-0.14,0.518
521.7,8.854,-0.008,-0.0,0.0,-0.014,-1.0,8.032,0.062,-0.0,0.0,-0.14,0.518
521.95,8.854,-0.008,-0.0,0.0,-0.014,-1.0,8.032,0.062,-0.0,0.0,-0.14,0.518
522.2,8.854,-0.008,-0.0,0.0,-0.014,-1.0,8.032,0.062,-0.0,0.0,-0.14,0.518
523.2,8.854,-0.008,-0.0,0.0,-0.014,-1.0,8.032,0.062,-0.0,0.0,-0.14,0.518
523.45,8.854,-0.008,-0.0,0.0,-0.014,-1.0,8.032,0.062,-0.0,0.0,-0.14,0.518
524.2,8.854,-0.008,-0.0,0.0,-0.014,-1.0,8.032,0.062,-0.0,0.0,-0.14,0.518
524.7,8.854,-0.008,-0.0,0.0,-0.014,-1.0,8.032,0.062,-0.0,0.0,-0.14,0.518
524.95,8.854,-0.008,-0.0,0.0,-0.014,-1.0,8.032,0.062,-0.0,0.0,-0.14,0.518
525.2,8.854,-0.008,-0.0,0.0,-0.014,-1.0,8.032,0.062,-0.0,0.0,-0.14,0.518
525.7,8.854,-0.008,-0.0,0.0,-0.014,-1.0,8.032,0.062,-0.0,0.0,-0.14,0.518
525.95,8.854,-0.008,-0.0,0.0,-0.014,-1.0,8.032,0.062,-0.0,0.0,-0.14,0.518
526.2,8.854,-0.008,-0.0,0.0,-0.014,-1.0,8.032,0.062,-0.0,0.0,-0.14,0.518
526.45,8.854,-0.008,-0.0,0.0,-0.014,-1.0,8.032,0.062,-0.0,0.0,-0.14,0.518
526.7,8.854,-0.008,-0.0,0.0,-0.014,-1.0,8.032,0.062,-0.0,0.0,-0.14,0.518
526.95,8.854,-0.008,-0.0,0.0,-0.014,-1.0,8.032,0.062,-0.0,0.0,-0.14,0.518
527.2,8.854,-0.008,-0.0,0.0,-0.014,-1.0,8.032,0.062,-0.0,0.0,-0.14,0.518
527.45,8.854,-0.008,-0.0,0.0,-0.014,-1.0,8.032,0.062,-0.0,0.0,-0.14,0.518
527.7,8.854,-0.008,-0.0,0.0,-0.014,-1.0,8.032,0.062,-0.0,0.0,-0.14,0.518
527.95,8.854,-0.008,-0.0,0.0,-0.014,-1.0,8.032,0.062,-0.0,0.0,-0.14,0.518
528.2,8.854,-0.008,-0.0,0.0,-0.014,-1.0,8.032,0.062,-0.0,0.0,-0.14,0.518
528.45,8.854,-0.008,-0.0,0.0,-0.014,-1.0,8.032,0.062,-0.0,0.0,-0.14,0.518
528.7,8.854,-0.008,-0.0,0.0,-0.014,-1.0,8.032,0.062,-0.0,0.0,-0.14,0.518
529.2,8.854,-0.008,-0.0,0.0,-0.014,-1.0,8.032,0.062,-0.0,0.0,-0.14,0.518
530.45,8.854,-0.008,-0.0,0.0,-0.014,-1.0,8.032,0.062,-0.0,0.0,-0.14,0.518
530.95,8.854,-0.008,-0.0,0.0,-0.014,-1.0,8.032,0.062,-0.0,0.0,-0.14,0.518
531.2,8.853,-0.008,-0.0,0.0,-0.014,-1.0,8.032,0.062,-0.0,0.0,-0.14,0.518
531.45,8.853,-0.008,-0.0,0.0,-0.014,-1.0,8.032,0.062,-0.0,0.0,-0.14,0.518
531.7,8.853,-0.008,-0.0,0.0,-0.014,-1.0,8.032,0.062,-0.0,0.0,-0.14,0.518
531.95,8.853,-0.008,-0.0,0.0,-0.014,-1.0,8.031,0.062,-0.0,0.0,-0.14,0.518
532.2,8.853,-0.008,-0.0,0.0,-0.014,-1.0,8.031,0.062,-0.0,0.0,-0.14,0.518
532.45,8.853,-0.008,-0.0,0.0,-0.014,-1.0,8.031,0.062,-0.0,0.0,-0.14,0.518
532.7,8.853,-0.008,-0.0,0.0,-0.014,-1.0,8.031,0.062,-0.0,0.0,-0.14,0.518
532.95,8.853,-0.008,-0.0,0.0,-0.014,-1.0,8.031,0.062,-0.0,0.0,-0.14,0.518
533.2,8.853,-0.008,-0.0,0.0,-0.014,-1.0,8.031,0.062,-0.0,0.0,-0.14,0.518
533.45,8.853,-0.008,-0.0,0.0,-0.014,-1.0,8.031,0.062,-0.0,0.0,-0.14,0.518
533.7,8.853,-0.008,-0.0,0.0,-0.014,-1.0,8.031,0.062,-0.0,0.0,-0.14,0.518
534.2,8.853,-0.008,-0.0,0.0,-0.014,-1.0,8.031,0.062,-0.0,0.0,-0.14,0.518
534.45,8.853,-0.008,-0.0,0.0,-0.014,-1.0,8.031,0.062,-0.0,0.0,-0.14,0.518
534.7,8.853,-0.008,-0.0,0.0,-0.014,-1.0,8.031,0.062,-0.0,0.0,-0.14,0.518
534.95,8.853,-0.008,-0.0,0.0,-0.014,-1.0,8.031,0.062,-0.0,0.0,-0.14,0.518
535.2,8.853,-0.008,-0.0,0.0,-0.014,-1.0,8.031,0.062,-0.0,0.0,-0.14,0.518
535.45,8.853,-0.008,-0.0,0.0,-0.014,-1.0,8.031,0.062,-0.0,0.0,-0.14,0.518
535.7,8.853,-0.008,-0.0,0.0,-0.014,-1.0,8.031,0.062,-0.0,0.0,-0.14,0.518
535.95,8.853,-0.008,-0.0,0.0,-0.014,-1.0,8.031,0.062,-0.0,0.0,-0.14,0.518
536.2,8.853,-0.008,-0.0,0.0,-0.014,-1.0,8.031,0.062,-0.0,0.0,-0.14,0.518
536.7,8.853,-0.008,-0.0,0.0,-0.014,-1.0,8.031,0.062,-0.0,0.0,-0.14,0.518
536.95,8.853,-0.008,-0.0,0.0,-0.014,-1.0,8.031,0.062,-0.0,0.0,-0.14,0.518
537.45,8.853,-0.008,-0.0,0.0,-0.014,-1.0,8.031,0.062,-0.0,0.0,-0.14,0.518
537.7,8.853,-0.008,-0.0,0.0,-0.014,-1.0,8.031,0.062,-0.0,0.0,-0.14,0.518
538.2,8.853,-0.008,-0.0,0.0,-0.014,-1.0,8.031,0.062,-0.0,0.0,-0.14,0.518
538.45,8.853,-0.008,-0.0,0.0,-0.014,-1.0,8.031,0.062,-0.0,0.0,-0.14,0.518
538.7,8.853,-0.008,-0.0,0.0,-0.014,-1.0,8.031,0.062,-0.0,0.0,-0.14,0.518
538.95,8.853,-0.008,-0.0,0.0,-0.014,-1.0,8.031,0.062,-0.0,0.0,-0.14,0.518
539.95,8.853,-0.008,-0.0,0.0,-0.014,-1.0,8.031,0.062,-0.0,0.0,-0.14,0.518
540.95,8.853,-0.008,-0.0,0.0,-0.014,-1.0,8.031,0.062,-0.0,0.0,-0.14,0.518
541.2,8.853,-0.008,-0.0,0.0,-0.014,-1.0,8.031,0.062,-0.0,0.0,-0.14,0.518
541.45,8.853,-0.008,-0.0,0.0,-0.014,-1.0,8.031,0.062,-0.0,0.0,-0.14,0.518
541.7,8.853,-0.008,-0.0,0.0,-0.014,-1.0,8.031,0.062,-0.0,0.0,-0.14,0.518
541.95,8.853,-0.008,-0.0,0.0,-0.014,-1.0,8.031,0.062,-0.0,0.0,-0.14,0.518
542.2,8.853,-0.008,-0.0,0.0,-0.014,-1.0,8.031,0.062,-0.0,0.0,-0.14,0.518
542.45,8.853,-0.008,-0.0,0.0,-0.014,-1.0,8.031,0.062,-0.0,0.0,-0.14,0.518
543.45,8.853,-0.008,-0.0,0.0,-0.014,-1.0,8.031,0.062,-0.0,0.0,-0.14,0.518
543.7,8.853,-0.008,-0.0,0.0,-0.014,-1.0,8.031,0.062,-0.0,0.0,-0.14,0.518
544.2,8.853,-0.008,-0.0,0.0,-0.014,-1.0,8.031,0.062,-0.0,0.0,-0.14,0.518
544.45,8.853,-0.008,-0.0,0.0,-0.014,-1.0,8.031,0.062,-0.0,0.0,-0.14,0.518
544.7,8.853,-0.008,-0.0,0.0,-0.014,-1.0,8.031,0.062,-0.0,0.0,-0.14,0.518
544.95,8.853,-0.008,-0.0,0.0,-0.014,-1.0,8.031,0.062,-0.0,0.0,-0.14,0.518
545.45,8.852,-0.008,-0.0,0.0,-0.014,-1.0,8.031,0.062,-0.0,0.0,-0.14,0.518
545.7,8.852,-0.008,-0.0,0.0,-0.014,-1.0,8.031,0.062,-0.0,0.0,-0.14,0.518
545.95,8.852,-0.008,-0.0,0.0,-0.014,-1.0,8.031,0.062,-0.0,0.0,-0.14,0.518
546.45,8.852,-0.008,-0.0,0.0,-0.014,-1.0,8.031,0.062,-0.0,0.0,-0.14,0.518
546.7,8.852,-0.008,-0.0,0.0,-0.014,-1.0,8.031,0.062,-0.0,0.0,-0.14,0.518
546.95,8.852,-0.008,-0.0,0.0,-0.014,-1.0,8.031,0.062,-0.0,0.0,-0.14,0.518
547.45,8.852,-0.008,-0.0,0.0,-0.014,-1.0,8.031,0.062,-0.0,0.0,-0.14,0.518
547.7,8.852,-0.008,-0.0,0.0,-0.014,-1.0,8.031,0.062,-0.0,0.0,-0.14,0.518
547.95,8.852,-0.008,-0.0,0.0,-0.014,-1.0,8.031,0.062,-0.0,0.0,-0.14,0.518
548.45,8.852,-0.008,-0.0,0.0,-0.014,-1.0,8.031,0.062,-0.0,0.0,-0.14,0.518
548.7,8.852,-0.008,-0.0,0.0,-0.014,-1.0,8.031,0.062,-0.0,0.0,-0.14,0.518
549.45,8.852,-0.008,-0.0,0.0,-0.014,-1.0,8.031,0.062,-0.0,0.0,-0.14,0.518
549.7,8.852,-0.008,-0.0,0.0,-0.014,-1.0,8.031,0.062,-0.0,0.0,-0.14,0.518
549.95,8.852,-0.008,-0.0,0.0,-0.014,-1.0,8.031,0.062,-0.0,0.0,-0.14,0.518
550.2,8.852,-0.008,-0.0,0.0,-0.014,-1.0,8.031,0.062,-0.0,0.0,-0.14,0.518
550.7,8.852,-0.008,-0.0,0.0,-0.014,-1.0,8.031,0.062,-0.0,0.0,-0.14,0.517
551.45,8.852,-0.008,-0.0,0.0,-0.014,-1.0,8.031,0.062,-0.0,0.0,-0.14,0.517
551.7,8.852,-0.008,-0.0,0.0,-0.014,-1.0,8.031,0.062,-0.0,0.0,-0.14,0.517
551.95,8.852,-0.008,-0.0,0.0,-0.014,-1.0,8.031,0.062,-0.0,0.0,-0.14,0.517
552.2,8.852,-0.008,-0.0,0.0,-0.014,-1.0,8.031,0.062,-0.0,0.0,-0.14,0.517
552.7,8.852,-0.008,-0.0,0.0,-0.014,-1.0,8.031,0.062,-0.0,0.0,-0.14,0.517
553.2,8.852,-0.008,-0.0,0.0,-0.014,-1.0,8.031,0.062,-0.0,0.0,-0.14,0.517
553.7,8.852,-0.008,-0.0,0.0,-0.014,-1.0,8.031,0.062,-0.0,0.0,-0.14,0.517
554.45,8.852,-0.008,-0.0,0.0,-0.014,-1.0,8.031,0.062,-0.0,0.0,-0.14,0.517
554.7,8.852,-0.008,-0.0,0.0,-0.014,-1.0,8.031,0.062,-0.0,0.0,-0.14,0.517
555.2,8.852,-0.008,-0.0,0.0,-0.014,-1.0,8.031,0.062,-0.0,0.0,-0.14,0.517
555.7,8.852,-0.008,-0.0,0.0,-0.014,-1.0,8.031,0.062,-0.0,0.0,-0.14,0.517
555.95,8.852,-0.008,-0.0,0.0,-0.014,-1.0,8.031,0.062,-0.0,0.0,-0.14,0.517
556.2,8.852,-0.008,-0.0,0.0,-0.014,-1.0,8.031,0.062,-0.0,0.0,-0.14,0.517
556.7,8.852,-0.008,-0.0,0.0,-0.014,-1.0,8.031,0.062,-0.0,0.0,-0.14,0.517
556.95,8.852,-0.008,-0.0,0.0,-0.014,-1.0,8.031,0.062,-0.0,0.0,-0.14,0.517
557.95,8.852,-0.008,-0.0,0.0,-0.014,-1.0,8.03,0.062,-0.0,0.0,-0.14,0.517
558.2,8.852,-0.008,-0.0,0.0,-0.014,-1.0,8.03,0.062,-0.0,0.0,-0.14,0.517
558.45,8.852,-0.008,-0.0,0.0,-0.014,-1.0,8.03,0.062,-0.0,0.0,-0.14,0.517
558.7,8.852,-0.008,-0.0,0.0,-0.014,-1.0,8.03,0.062,-0.0,0.0,-0.14,0.517
558.95,8.852,-0.008,-0.0,0.0,-0.014,-1.0,8.03,0.062,-0.0,0.0,-0.14,0.517
559.45,8.851,-0.008,-0.0,0.0,-0.014,-1.0,8.03,0.062,-0.0,0.0,-0.14,0.517
559.7,8.851,-0.008,-0.0,0.0,-0.014,-1.0,8.03,0.062,-0.0,0.0,-0.14,0.517
559.95,8.851,-0.008,-0.0,0.0,-0.014,-1.0,8.03,0.062,-0.0,0.0,-0.14,0.517
561.2,8.851,-0.008,-0.0,0.0,-0.014,-1.0,8.03,0.062,-0.0,0.0,-0.14,0.517
561.45,8.851,-0.008,-0.0,0.0,-0.014,-1.0,8.03,0.062,-0.0,0.0,-0.14,0.517
561.7,8.851,-0.008,-0.0,0.0,-0.014,-1.0,8.03,0.062,-0.0,0.0,-0.14,0.517
561.95,8.851,-0.008,-0.0,0.0,-0.014,-1.0,8.03,0.062,-0.0,0.0,-0.14,0.517
562.2,8.851,-0.008,-0.0,0.0,-0.014,-1.0,8.03,0.062,-0.0,0.0,-0.14,0.517
563.2,8.851,-0.008,-0.0,0.0,-0.014,-1.0,8.03,0.062,-0.0,0.0,-0.14,0.517
563.7,8.851,-0.008,-0.0,0.0,-0.014,-1.0,8.03,0.062,-0.0,0.0,-0.14,0.517
563.95,8.851,-0.008,-0.0,0.0,-0.014,-1.0,8.03,0.062,-0.0,0.0,-0.14,0.517
564.95,8.851,-0.008,-0.0,0.0,-0.014,-1.0,8.03,0.062,-0.0,0.0,-0.14,0.517
565.2,8.851,-0.008,-0.0,0.0,-0.014,-1.0,8.03,0.062,-0.0,0.0,-0.14,0.517
565.45,8.851,-0.008,-0.0,0.0,-0.014,-1.0,8.03,0.062,-0.0,0.0,-0.14,0.517
566.2,8.851,-0.008,-0.0,0.0,-0.014,-1.0,8.03,0.062,-0.0,0.0,-0.14,0.517
567.2,8.851,-0.008,-0.0,0.0,-0.014,-1.0,8.03,0.062,-0.0,0.0,-0.14,0.517
567.45,8.851,-0.008,-0.0,0.0,-0.014,-1.0,8.03,0.062,-0.0,0.0,-0.14,0.517
567.95,8.851,-0.008,-0.0,0.0,-0.014,-1.0,8.03,0.062,-0.0,0.0,-0.14,0.517
568.2,8.851,-0.008,-0.0,0.0,-0.014,-1.0,8.03,0.062,-0.0,0.0,-0.14,0.517
568.45,8.851,-0.008,-0.0,0.0,-0.014,-1.0,8.03,0.062,-0.0,0.0,-0.14,0.517
568.95,8.851,-0.008,-0.0,0.0,-0.014,-1.0,8.03,0.062,-0.0,0.0,-0.14,0.517
569.2,8.851,-0.008,-0.0,0.0,-0.014,-1.0,8.03,0.062,-0.0,0.0,-0.14,0.517
569.7,8.851,-0.008,-0.0,0.0,-0.014,-1.0,8.03,0.062,-0.0,0.0,-0.14,0.517
569.95,8.851,-0.008,-0.0,0.0,-0.014,-1.0,8.03,0.062,-0.0,0.0,-0.14,0.517
570.45,8.851,-0.008,-0.0,0.0,-0.014,-1.0,8.03,0.062,-0.0,0.0,-0.14,0.517
571.45,8.851,-0.008,-0.0,0.0,-0.014,-1.0,8.03,0.062,-0.0,0.0,-0.14,0.517
571.7,8.851,-0.008,-0.0,0.0,-0.014,-1.0,8.03,0.062,-0.0,0.0,-0.14,0.517
572.2,8.851,-0.008,-0.0,0.0,-0.014,-1.0,8.03,0.062,-0.0,0.0,-0.14,0.517
572.45,8.851,-0.008,-0.0,0.0,-0.014,-1.0,8.03,0.062,-0.0,0.0,-0.14,0.517
572.7,8.851,-0.008,-0.0,0.0,-0.014,-1.0,8.03,0.062,-0.0,0.0,-0.14,0.517
573.2,8.85,-0.008,-0.0,0.0,-0.014,-1.0,8.03,0.062,-0.0,0.0,-0.14,0.517
573.45,8.85,-0.008,-0.0,0.0,-0.014,-1.0,8.03,0.062,-0.0,0.0,-0.14,0.517
573.7,8.85,-0.008,-0.0,0.0,-0.014,-1.0,8.03,0.062,-0.0,0.0,-0.14,0.517
574.45,8.85,-0.008,-0.0,0.0,-0.014,-1.0,8.03,0.062,-0.0,0.0,-0.14,0.517
574.7,8.85,-0.008,-0.0,0.0,-0.014,-1.0,8.03,0.062,-0.0,0.0,-0.14,0.517
575.45,8.85,-0.008,-0.0,0.0,-0.014,-1.0,8.03,0.062,-0.0,0.0,-0.14,0.517
575.7,8.85,-0.008,-0.0,0.0,-0.014,-1.0,8.03,0.062,-0.0,0.0,-0.14,0.517
575.95,8.85,-0.008,-0.0,0.0,-0.014,-1.0,8.03,0.062,-0.0,0.0,-0.14,0.517
576.2,8.85,-0.008,-0.0,0.0,-0.014,-1.0,8.03,0.062,-0.0,0.0,-0.14,0.517
576.45,8.85,-0.008,-0.0,0.0,-0.014,-1.0,8.03,0.062,-0.0,0.0,-0.14,0.517
576.7,8.85,-0.008,-0.0,0.0,-0.014,-1.0,8.03,0.062,-0.0,0.0,-0.14,0.517
577.45,8.85,-0.008,-0.0,0.0,-0.014,-1.0,8.03,0.062,-0.0,0.0,-0.14,0.517
577.7,8.85,-0.008,-0.0,0.0,-0.014,-1.0,8.03,0.062,-0.0,0.0,-0.14,0.517
577.95,8.85,-0.008,-0.0,0.0,-0.014,-1.0,8.03,0.062,-0.0,0.0,-0.14,0.517
578.45,8.85,-0.008,-0.0,0.0,-0.014,-1.0,8.03,0.062,-0.0,0.0,-0.14,0.517
578.7,8.85,-0.008,-0.0,0.0,-0.014,-1.0,8.03,0.062,-0.0,0.0,-0.14,0.517
578.95,8.85,-0.008,-0.0,0.0,-0.014,-1.0,8.03,0.062,-0.0,0.0,-0.14,0.517
579.45,8.85,-0.008,-0.0,0.0,-0.014,-1.0,8.03,0.062,-0.0,0.0,-0.14,0.517
579.7,8.85,-0.008,-0.0,0.0,-0.014,-1.0,8.03,0.062,-0.0,0.0,-0.14,0.517
580.45,8.85,-0.008,-0.0,0.0,-0.014,-1.0,8.03,0.063,-0.0,0.0,-0.14,0.517
581.45,8.85,-0.008,-0.0,0.0,-0.014,-1.0,8.03,0.063,-0.0,0.0,-0.14,0.517
581.7,8.85,-0.008,-0.0,0.0,-0.014,-1.0,8.03,0.063,-0.0,0.0,-0.14,0.517
582.2,8.85,-0.008,-0.0,0.0,-0.014,-1.0,8.03,0.063,-0.0,0.0,-0.14,0.517
582.45,8.85,-0.008,-0.0,0.0,-0.014,-1.0,8.03,0.063,-0.0,0.0,-0.14,0.517
583.2,8.85,-0.008,-0.0,0.0,-0.014,-1.0,8.03,0.063,-0.0,0.0,-0.14,0.517
584.45,8.85,-0.008,-0.0,0.0,-0.014,-1.0,8.029,0.063,-0.0,0.0,-0.14,0.517
584.7,8.85,-0.008,-0.0,0.0,-0.014,-1.0,8.029,0.063,-0.0,0.0,-0.14,0.517
585.2,8.85,-0.008,-0.0,0.0,-0.014,-1.0,8.029,0.063,-0.0,0.0,-0.14,0.517
585.45,8.85,-0.008,-0.0,0.0,-0.014,-1.0,8.029,0.063,-0.0,0.0,-0.14,0.517
585.95,8.85,-0.008,-0.0,0.0,-0.014,-1.0,8.029,0.063,-0.0,0.0,-0.14,0.517
586.2,8.85,-0.008,-0.0,0.0,-0.014,-1.0,8.029,0.063,-0.0,0.0,-0.14,0.517
587.2,8.849,-0.008,-0.0,0.0,-0.014,-1.0,8.029,0.063,-0.0,0.0,-0.14,0.517
587.7,8.849,-0.008,-0.0,0.0,-0.014,-1.0,8.029,0.063,-0.0,0.0,-0.14,0.517
587.95,8.849,-0.008,-0.0,0.0,-0.014,-1.0,8.029,0.063,-0.0,0.0,-0.14,0.517
588.2,8.849,-0.008,-0.0,0.0,-0.014,-1.0,8.029,0.063,-0.0,0.0,-0.14,0.517
588.7,8.849,-0.008,-0.0,0.0,-0.014,-1.0,8.029,0.063,-0.0,0.0,-0.14,0.517
589.2,8.849,-0.008,-0.0,0.0,-0.014,-1.0,8.029,0.063,-0.0,0.0,-0.14,0.517
589.45,8.849,-0.008,-0.0,0.0,-0.014,-1.0,8.029,0.063,-0.0,0.0,-0.14,0.517
589.95,8.849,-0.008,-0.0,0.0,-0.014,-1.0,8.029,0.063,-0.0,0.0,-0.14,0.517
590.2,8.849,-0.008,-0.0,0.0,-0.014,-1.0,8.029,0.063,-0.0,0.0,-0.14,0.517
590.45,8.849,-0.008,-0.0,0.0,-0.014,-1.0,8.029,0.063,-0.0,0.0,-0.14,0.517
590.7,8.849,-0.008,-0.0,0.0,-0.014,-1.0,8.029,0.063,-0.0,0.0,-0.14,0.517
590.95,8.849,-0.008,-0.0,0.0,-0.014,-1.0,8.029,0.063,-0.0,0.0,-0.14,0.517
591.2,8.849,-0.008,-0.0,0.0,-0.014,-1.0,8.029,0.063,-0.0,0.0,-0.14,0.517
591.45,8.849,-0.008,-0.0,0.0,-0.014,-1.0,8.029,0.063,-0.0,0.0,-0.14,0.517
591.7,8.849,-0.008,-0.0,0.0,-0.014,-1.0,8.029,0.063,-0.0,0.0,-0.14,0.517
591.95,8.849,-0.008,-0.0,0.0,-0.014,-1.0,8.029,0.063,-0.0,0.0,-0.14,0.517
592.95,8.849,-0.008,-0.0,0.0,-0.014,-1.0,8.029,0.063,-0.0,0.0,-0.14,0.517
593.2,8.849,-0.008,-0.0,0.0,-0.014,-1.0,8.029,0.063,-0.0,0.0,-0.14,0.517
593.7,8.849,-0.008,-0.0,0.0,-0.014,-1.0,8.029,0.063,-0.0,0.0,-0.14,0.517
593.95,8.849,-0.008,-0.0,0.0,-0.014,-1.0,8.029,0.063,-0.0,0.0,-0.14,0.517
594.2,8.849,-0.008,-0.0,0.0,-0.014,-1.0,8.029,0.063,-0.0,0.0,-0.14,0.517
594.45,8.849,-0.008,-0.0,0.0,-0.014,-1.0,8.029,0.063,-0.0,0.0,-0.14,0.517
594.7,8.849,-0.008,-0.0,0.0,-0.014,-1.0,8.029,0.063,-0.0,0.0,-0.14,0.517
595.2,8.849,-0.008,-0.0,0.0,-0.014,-1.0,8.029,0.063,-0.0,0.0,-0.14,0.517
595.45,8.849,-0.008,-0.0,0.0,-0.014,-1.0,8.029,0.063,-0.0,0.0,-0.14,0.517
595.95,8.849,-0.008,-0.0,0.0,-0.014,-1.0,8.029,0.063,-0.0,0.0,-0.14,0.517
596.2,8.849,-0.008,-0.0,0.0,-0.014,-1.0,8.029,0.063,-0.0,0.0,-0.14,0.517
596.45,8.849,-0.008,-0.0,0.0,-0.014,-1.0,8.029,0.063,-0.0,0.0,-0.14,0.517
596.7,8.849,-0.008,-0.0,0.0,-0.014,-1.0,8.029,0.063,-0.0,0.0,-0.14,0.517
596.95,8.849,-0.008,-0.0,0.0,-0.014,-1.0,8.029,0.063,-0.0,0.0,-0.14,0.517
597.2,8.849,-0.008,-0.0,0.0,-0.014,-1.0,8.029,0.063,-0.0,0.0,-0.14,0.517
597.45,8.849,-0.008,-0.0,0.0,-0.014,-1.0,8.029,0.063,-0.0,0.0,-0.14,0.517
597.7,8.849,-0.008,-0.0,0.0,-0.014,-1.0,8.029,0.063,-0.0,0.0,-0.14,0.517
598.2,8.849,-0.008,-0.0,0.0,-0.014,-1.0,8.029,0.063,-0.0,0.0,-0.14,0.517
598.7,8.849,-0.008,-0.0,0.0,-0.014,-1.0,8.029,0.063,-0.0,0.0,-0.14,0.517
598.95,8.849,-0.008,-0.0,0.0,-0.014,-1.0,8.029,0.063,-0.0,0.0,-0.14,0.517
599.2,8.849,-0.008,-0.0,0.0,-0.014,-1.0,8.029,0.063,-0.0,0.0,-0.14,0.517
599.7,8.849,-0.008,-0.0,0.0,-0.014,-1.0,8.029,0.063,-0.0,0.0,-0.14,0.517
599.95,8.849,-0.008,-0.0,0.0,-0.014,-1.0,8.029,0.063,-0.0,0.0,-0.14,0.517
600.2,8.849,-0.008,-0.0,0.0,-0.014,-1.0,8.029,0.063,-0.0,0.0,-0.14,0.517
600.45,8.849,-0.008,-0.0,0.0,-0.014,-1.0,8.029,0.063,-0.0,0.0,-0.14,0.517
600.7,8.849,-0.008,-0.0,0.0,-0.014,-1.0,8.029,0.063,-0.0,0.0,-0.14,0.517
600.95,8.848,-0.008,-0.0,0.0,-0.014,-1.0,8.029,0.063,-0.0,0.0,-0.14,0.517
601.2,8.848,-0.008,-0.0,0.0,-0.014,-1.0,8.029,0.063,-0.0,0.0,-0.14,0.517
601.45,8.848,-0.008,-0.0,0.0,-0.014,-1.0,8.029,0.063,-0.0,0.0,-0.14,0.517
601.7,8.848,-0.008,-0.0,0.0,-0.014,-1.0,8.029,0.063,-0.0,0.0,-0.14,0.517
602.45,8.848,-0.008,-0.0,0.0,-0.014,-1.0,8.029,0.063,-0.0,0.0,-0.14,0.517
602.7,8.848,-0.008,-0.0,0.0,-0.014,-1.0,8.029,0.063,-0.0,0.0,-0.14,0.517
603.45,8.848,-0.008,-0.0,0.0,-0.014,-1.0,8.029,0.063,-0.0,0.0,-0.14,0.517
604.95,8.848,-0.008,-0.0,0.0,-0.014,-1.0,8.029,0.063,-0.0,0.0,-0.14,0.517
605.2,8.848,-0.008,-0.0,0.0,-0.014,-1.0,8.029,0.063,-0.0,0.0,-0.14,0.517
605.45,8.848,-0.008,-0.0,0.0,-0.014,-1.0,8.029,0.063,-0.0,0.0,-0.14,0.517
605.95,8.848,-0.008,-0.0,0.0,-0.014,-1.0,8.029,0.063,-0.0,0.0,-0.14,0.517
606.2,8.848,-0.008,-0.0,0.0,-0.014,-1.0,8.029,0.063,-0.0,0.0,-0.14,0.517
606.95,8.848,-0.008,-0.0,0.0,-0.014,-1.0,8.029,0.063,-0.0,0.0,-0.14,0.517
607.45,8.848,-0.008,-0.0,0.0,-0.014,-1.0,8.029,0.063,-0.0,0.0,-0.14,0.517
608.45,8.848,-0.008,-0.0,0.0,-0.014,-1.0,8.029,0.063,-0.0,0.0,-0.14,0.517
608.95,8.848,-0.008,-0.0,0.0,-0.014,-1.0,8.028,0.063,-0.0,0.0,-0.14,0.517
609.2,8.848,-0.008,-0.0,0.0,-0.014,-1.0,8.028,0.063,-0.0,0.0,-0.14,0.517
610.45,8.848,-0.008,-0.0,0.0,-0.014,-1.0,8.028,0.063,-0.0,0.0,-0.14,0.517
610.7,8.848,-0.008,-0.0,0.0,-0.014,-1.0,8.028,0.063,-0.0,0.0,-0.14,0.517
611.2,8.848,-0.008,-0.0,0.0,-0.014,-1.0,8.028,0.063,-0.0,0.0,-0.14,0.517
611.45,8.848,-0.008,-0.0,0.0,-0.014,-1.0,8.028,0.063,-0.0,0.0,-0.14,0.517
611.7,8.848,-0.008,-0.0,0.0,-0.014,-1.0,8.028,0.063,-0.0,0.0,-0.14,0.517
611.95,8.848,-0.008,-0.0,0.0,-0.014,-1.0,8.028,0.063,-0.0,0.0,-0.14,0.517
612.2,8.848,-0.008,-0.0,0.0,-0.014,-1.0,8.028,0.063,-0.0,0.0,-0.14,0.517
612.45,8.848,-0.008,-0.0,0.0,-0.014,-1.0,8.028,0.063,-0.0,0.0,-0.14,0.517
612.95,8.848,-0.008,-0.0,0.0,-0.014,-1.0,8.028,0.063,-0.0,0.0,-0.14,0.517
613.2,8.848,-0.008,-0.0,0.0,-0.014,-1.0,8.028,0.063,-0.0,0.0,-0.14,0.517
613.45,8.848,-0.008,-0.0,0.0,-0.014,-1.0,8.028,0.063,-0.0,0.0,-0.14,0.517
613.7,8.848,-0.008,-0.0,0.0,-0.014,-1.0,8.028,0.063,-0.0,0.0,-0.14,0.517
613.95,8.848,-0.008,-0.0,0.0,-0.014,-1.0,8.028,0.063,-0.0,0.0,-0.14,0.517
614.2,8.848,-0.008,-0.0,0.0,-0.014,-1.0,8.028,0.063,-0.0,0.0,-0.14,0.517
614.7,8.847,-0.008,-0.0,0.0,-0.014,-1.0,8.028,0.063,-0.0,0.0,-0.14,0.517
615.2,8.847,-0.008,-0.0,0.0,-0.014,-1.0,8.028,0.063,-0.0,0.0,-0.14,0.517
615.45,8.847,-0.008,-0.0,0.0,-0.014,-1.0,8.028,0.063,-0.0,0.0,-0.14,0.517
615.7,8.847,-0.008,-0.0,0.0,-0.014,-1.0,8.028,0.063,-0.0,0.0,-0.14,0.517
615.95,8.847,-0.008,-0.0,0.0,-0.014,-1.0,8.028,0.063,-0.0,0.0,-0.14,0.517
616.2,8.847,-0.008,-0.0,0.0,-0.014,-1.0,8.028,0.063,-0.0,0.0,-0.14,0.517
616.45,8.847,-0.008,-0.0,0.0,-0.014,-1.0,8.028,0.063,-0.0,0.0,-0.14,0.517
616.7,8.847,-0.008,-0.0,0.0,-0.014,-1.0,8.028,0.063,-0.0,0.0,-0.14,0.517
617.2,8.847,-0.008,-0.0,0.0,-0.014,-1.0,8.028,0.063,-0.0,0.0,-0.14,0.517
617.45,8.847,-0.008,-0.0,0.0,-0.014,-1.0,8.028,0.063,-0.0,0.0,-0.14,0.517
617.7,8.847,-0.008,-0.0,0.0,-0.014,-1.0,8.028,0.063,-0.0,0.0,-0.14,0.517
617.95,8.847,-0.008,-0.0,0.0,-0.014,-1.0,8.028,0.063,-0.0,0.0,-0.14,0.517
618.2,8.847,-0.008,-0.0,0.0,-0.014,-1.0,8.028,0.063,-0.0,0.0,-0.14,0.517
618.7,8.847,-0.008,-0.0,0.0,-0.014,-1.0,8.028,0.063,-0.0,0.0,-0.14,0.517
618.95,8.847,-0.008,-0.0,0.0,-0.014,-1.0,8.028,0.063,-0.0,0.0,-0.14,0.517
619.2,8.847,-0.008,-0.0,0.0,-0.014,-1.0,8.028,0.063,-0.0,0.0,-0.14,0.517
620.2,8.847,-0.008,-0.0,0.0,-0.014,-1.0,8.028,0.063,-0.0,0.0,-0.14,0.517
620.45,8.847,-0.008,-0.0,0.0,-0.014,-1.0,8.028,0.063,-0.0,0.0,-0.14,0.517
621.2,8.847,-0.008,-0.0,0.0,-0.014,-1.0,8.028,0.063,-0.0,0.0,-0.14,0.517
621.7,8.847,-0.008,-0.0,0.0,-0.014,-1.0,8.028,0.063,-0.0,0.0,-0.14,0.517
621.95,8.847,-0.008,-0.0,0.0,-0.014,-1.0,8.028,0.063,-0.0,0.0,-0.14,0.517
622.2,8.847,-0.008,-0.0,0.0,-0.014,-1.0,8.028,0.063,-0.0,0.0,-0.14,0.517
622.45,8.847,-0.008,-0.0,0.0,-0.014,-1.0,8.028,0.063,-0.0,0.0,-0.14,0.517
622.7,8.847,-0.008,-0.0,0.0,-0.014,-1.0,8.028,0.063,-0.0,0.0,-0.14,0.517
622.95,8.847,-0.008,-0.0,0.0,-0.014,-1.0,8.028,0.063,-0.0,0.0,-0.14,0.517
623.2,8.847,-0.008,-0.0,0.0,-0.014,-1.0,8.028,0.063,-0.0,0.0,-0.14,0.517
623.45,8.847,-0.008,-0.0,0.0,-0.014,-1.0,8.028,0.063,-0.0,0.0,-0.14,0.517
624.2,8.847,-0.008,-0.0,0.0,-0.014,-1.0,8.028,0.063,-0.0,0.0,-0.14,0.517
624.45,8.847,-0.008,-0.0,0.0,-0.014,-1.0,8.028,0.063,-0.0,0.0,-0.14,0.517
625.2,8.847,-0.008,-0.0,0.0,-0.014,-1.0,8.028,0.063,-0.0,0.0,-0.14,0.517
625.45,8.847,-0.008,-0.0,0.0,-0.014,-1.0,8.028,0.063,-0.0,0.0,-0.14,0.517
625.7,8.847,-0.008,-0.0,0.0,-0.014,-1.0,8.028,0.063,-0.0,0.0,-0.14,0.517
625.95,8.847,-0.008,-0.0,0.0,-0.014,-1.0,8.028,0.063,-0.0,0.0,-0.14,0.517
626.2,8.847,-0.008,-0.0,0.0,-0.014,-1.0,8.028,0.063,-0.0,0.0,-0.14,0.517
626.45,8.847,-0.008,-0.0,0.0,-0.014,-1.0,8.028,0.063,-0.0,0.0,-0.14,0.517
627.45,8.847,-0.008,-0.0,0.0,-0.014,-1.0,8.028,0.063,-0.0,0.0,-0.14,0.517
627.7,8.847,-0.008,-0.0,0.0,-0.014,-1.0,8.028,0.063,-0.0,0.0,-0.14,0.517
627.95,8.847,-0.008,-0.0,0.0,-0.014,-1.0,8.028,0.063,-0.0,0.0,-0.14,0.517
628.2,8.847,-0.008,-0.0,0.0,-0.014,-1.0,8.028,0.063,-0.0,0.0,-0.14,0.517
628.7,8.846,-0.008,-0.0,0.0,-0.014,-1.0,8.028,0.063,-0.0,0.0,-0.14,0.517
628.95,8.846,-0.008,-0.0,0.0,-0.014,-1.0,8.028,0.063,-0.0,0.0,-0.14,0.517
629.7,8.846,-0.008,-0.0,0.0,-0.014,-1.0,8.028,0.063,-0.0,0.0,-0.14,0.517
629.95,8.846,-0.008,-0.0,0.0,-0.014,-1.0,8.028,0.063,-0.0,0.0,-0.14,0.517
630.45,8.846,-0.008,-0.0,0.0,-0.014,-1.0,8.028,0.063,-0.0,0.0,-0.14,0.517
630.95,8.846,-0.008,-0.0,0.0,-0.014,-1.0,8.028,0.063,-0.0,0.0,-0.14,0.517
631.2,8.846,-0.008,-0.0,0.0,-0.014,-1.0,8.028,0.063,-0.0,0.0,-0.14,0.517
632.2,8.846,-0.008,-0.0,0.0,-0.014,-1.0,8.028,0.063,-0.0,0.0,-0.14,0.517
632.45,8.846,-0.008,-0.0,0.0,-0.014,-1.0,8.028,0.063,-0.0,0.0,-0.14,0.517
632.7,8.846,-0.008,-0.0,0.0,-0.014,-1.0,8.028,0.063,-0.0,0.0,-0.14,0.517
633.45,8.846,-0.008,-0.0,0.0,-0.014,-1.0,8.028,0.063,-0.0,0.0,-0.14,0.517
633.7,8.846,-0.008,-0.0,0.0,-0.014,-1.0,8.027,0.063,-0.0,0.0,-0.14,0.517
633.95,8.846,-0.008,-0.0,0.0,-0.014,-1.0,8.027,0.063,-0.0,0.0,-0.14,0.517
634.45,8.846,-0.008,-0.0,0.0,-0.014,-1.0,8.027,0.063,-0.0,0.0,-0.14,0.517
634.7,8.846,-0.008,-0.0,0.0,-0.014,-1.0,8.027,0.063,-0.0,0.0,-0.14,0.517
634.95,8.846,-0.008,-0.0,0.0,-0.014,-1.0,8.027,0.063,-0.0,0.0,-0.14,0.517
635.45,8.846,-0.008,-0.0,0.0,-0.014,-1.0,8.027,0.063,-0.0,0.0,-0.14,0.517
635.7,8.846,-0.008,-0.0,0.0,-0.014,-1.0,8.027,0.063,-0.0,0.0,-0.14,0.517
635.95,8.846,-0.008,-0.0,0.0,-0.014,-1.0,8.027,0.063,-0.0,0.0,-0.14,0.517
636.2,8.846,-0.008,-0.0,0.0,-0.014,-1.0,8.027,0.063,-0.0,0.0,-0.14,0.517
636.95,8.846,-0.008,-0.0,0.0,-0.014,-1.0,8.027,0.063,-0.0,0.0,-0.14,0.517
637.2,8.846,-0.008,-0.0,0.0,-0.014,-1.0,8.027,0.063,-0.0,0.0,-0.14,0.517
637.45,8.846,-0.008,-0.0,0.0,-0.014,-1.0,8.027,0.063,-0.0,0.0,-0.14,0.517
637.7,8.846,-0.008,-0.0,0.0,-0.014,-1.0,8.027,0.063,-0.0,0.0,-0.14,0.517
637.95,8.846,-0.008,-0.0,0.0,-0.014,-1.0,8.027,0.063,-0.0,0.0,-0.14,0.517
638.2,8.846,-0.008,-0.0,0.0,-0.014,-1.0,8.027,0.063,-0.0,0.0,-0.14,0.517
639.2,8.846,-0.008,-0.0,0.0,-0.014,-1.0,8.027,0.063,-0.0,0.0,-0.14,0.517
639.45,8.846,-0.008,-0.0,0.0,-0.014,-1.0,8.027,0.063,-0.0,0.0,-0.14,0.517
640.2,8.846,-0.008,-0.0,0.0,-0.014,-1.0,8.027,0.063,-0.0,0.0,-0.14,0.517
640.45,8.846,-0.008,-0.0,0.0,-0.014,-1.0,8.027,0.063,-0.0,0.0,-0.14,0.517
640.7,8.846,-0.008,-0.0,0.0,-0.014,-1.0,8.027,0.064,-0.0,0.0,-0.14,0.517
640.95,8.846,-0.008,-0.0,0.0,-0.014,-1.0,8.027,0.064,-0.0,0.0,-0.14,0.517
641.2,8.846,-0.008,-0.0,0.0,-0.014,-1.0,8.027,0.064,-0.0,0.0,-0.14,0.517
641.7,8.846,-0.008,-0.0,0.0,-0.014,-1.0,8.027,0.064,-0.0,0.0,-0.14,0.517
641.95,8.846,-0.008,-0.0,0.0,-0.014,-1.0,8.027,0.064,-0.0,0.0,-0.14,0.517
642.2,8.846,-0.008,-0.0,0.0,-0.014,-1.0,8.027,0.064,-0.0,0.0,-0.14,0.517
642.45,8.845,-0.008,-0.0,0.0,-0.014,-1.0,8.027,0.064,-0.0,0.0,-0.14,0.517
642.7,8.845,-0.008,-0.0,0.0,-0.014,-1.0,8.027,0.064,-0.0,0.0,-0.14,0.517
643.2,8.845,-0.008,-0.0,0.0,-0.014,-1.0,8.027,0.064,-0.0,0.0,-0.14,0.517
643.45,8.845,-0.008,-0.0,0.0,-0.014,-1.0,8.027,0.064,-0.0,0.0,-0.14,0.517
643.7,8.845,-0.008,-0.0,0.0,-0.014,-1.0,8.027,0.064,-0.0,0.0,-0.14,0.517
644.2,8.845,-0.008,-0.0,0.0,-0.014,-1.0,8.027,0.064,-0.0,0.0,-0.14,0.517
644.7,8.845,-0.008,-0.0,0.0,-0.014,-1.0,8.027,0.064,-0.0,0.0,-0.14,0.517
645.7,8.845,-0.008,-0.0,0.0,-0.014,-1.0,8.027,0.064,-0.0,0.0,-0.14,0.517
645.95,8.845,-0.008,-0.0,0.0,-0.014,-1.0,8.027,0.064,-0.0,0.0,-0.14,0.517
646.2,8.845,-0.008,-0.0,0.0,-0.014,-1.0,8.027,0.064,-0.0,0.0,-0.14,0.517
646.45,8.845,-0.008,-0.0,0.0,-0.014,-1.0,8.027,0.064,-0.0,0.0,-0.14,0.517
646.7,8.845,-0.008,-0.0,0.0,-0.014,-1.0,8.027,0.064,-0.0,0.0,-0.14,0.517
647.2,8.845,-0.008,-0.0,0.0,-0.014,-1.0,8.027,0.064,-0.0,0.0,-0.14,0.517
647.45,8.845,-0.008,-0.0,0.0,-0.014,-1.0,8.027,0.064,-0.0,0.0,-0.14,0.517
647.7,8.845,-0.008,-0.0,0.0,-0.014,-1.0,8.027,0.064,-0.0,0.0,-0.14,0.517
647.95,8.845,-0.008,-0.0,0.0,-0.014,-1.0,8.027,0.064,-0.0,0.0,-0.14,0.517
648.2,8.845,-0.008,-0.0,0.0,-0.014,-1.0,8.027,0.064,-0.0,0.0,-0.14,0.517
648.45,8.845,-0.008,-0.0,0.0,-0.014,-1.0,8.027,0.064,-0.0,0.0,-0.14,0.517
648.7,8.845,-0.008,-0.0,0.0,-0.014,-1.0,8.027,0.064,-0.0,0.0,-0.14,0.517
648.95,8.845,-0.008,-0.0,0.0,-0.014,-1.0,8.027,0.064,-0.0,0.0,-0.14,0.517
649.2,8.845,-0.008,-0.0,0.0,-0.014,-1.0,8.027,0.064,-0.0,0.0,-0.14,0.517
649.45,8.845,-0.008,-0.0,0.0,-0.014,-1.0,8.027,0.064,-0.0,0.0,-0.14,0.517
649.95,8.845,-0.008,-0.0,0.0,-0.014,-1.0,8.027,0.064,-0.0,0.0,-0.14,0.517
650.2,8.845,-0.008,-0.0,0.0,-0.014,-1.0,8.027,0.064,-0.0,0.0,-0.14,0.517
650.45,8.845,-0.008,-0.0,0.0,-0.014,-1.0,8.027,0.064,-0.0,0.0,-0.14,0.517
650.7,8.845,-0.008,-0.0,0.0,-0.014,-1.0,8.027,0.064,-0.0,0.0,-0.14,0.517
650.95,8.845,-0.008,-0.0,0.0,-0.014,-1.0,8.027,0.064,-0.0,0.0,-0.14,0.517
651.2,8.845,-0.008,-0.0,0.0,-0.014,-1.0,8.027,0.064,-0.0,0.0,-0.14,0.517
651.45,8.845,-0.008,-0.0,0.0,-0.014,-1.0,8.027,0.064,-0.0,0.0,-0.14,0.517
651.7,8.845,-0.008,-0.0,0.0,-0.014,-1.0,8.027,0.064,-0.0,0.0,-0.14,0.517
651.95,8.845,-0.008,-0.0,0.0,-0.014,-1.0,8.027,0.064,-0.0,0.0,-0.14,0.517
652.7,8.845,-0.008,-0.0,0.0,-0.014,-1.0,8.027,0.064,-0.0,0.0,-0.14,0.517
653.95,8.845,-0.008,-0.0,0.0,-0.014,-1.0,8.027,0.064,-0.0,0.0,-0.14,0.517
654.2,8.845,-0.008,-0.0,0.0,-0.014,-1.0,8.027,0.064,-0.0,0.0,-0.14,0.517
654.7,8.845,-0.008,-0.0,0.0,-0.014,-1.0,8.027,0.064,-0.0,0.0,-0.14,0.517
654.95,8.845,-0.008,-0.0,0.0,-0.014,-1.0,8.027,0.064,-0.0,0.0,-0.14,0.517
655.7,8.845,-0.008,-0.0,0.0,-0.014,-1.0,8.027,0.064,-0.0,0.0,-0.14,0.517
656.95,8.844,-0.008,-0.0,0.0,-0.014,-1.0,8.027,0.064,-0.0,0.0,-0.14,0.517
657.2,8.844,-0.008,-0.0,0.0,-0.014,-1.0,8.027,0.064,-0.0,0.0,-0.14,0.517
657.7,8.844,-0.008,-0.0,0.0,-0.014,-1.0,8.027,0.064,-0.0,0.0,-0.14,0.517
657.95,8.844,-0.008,-0.0,0.0,-0.014,-1.0,8.027,0.064,-0.0,0.0,-0.14,0.517
658.2,8.844,-0.008,-0.0,0.0,-0.014,-1.0,8.027,0.064,-0.0,0.0,-0.14,0.517
658.7,8.844,-0.008,-0.0,0.0,-0.014,-1.0,8.026,0.064,-0.0,0.0,-0.14,0.517
658.95,8.844,-0.008,-0.0,0.0,-0.014,-1.0,8.026,0.064,-0.0,0.0,-0.14,0.517
659.2,8.844,-0.008,-0.0,0.0,-0.014,-1.0,8.026,0.064,-0.0,0.0,-0.14,0.517
659.45,8.844,-0.008,-0.0,0.0,-0.014,-1.0,8.026,0.064,-0.0,0.0,-0.14,0.517
659.95,8.844,-0.008,-0.0,0.0,-0.014,-1.0,8.026,0.064,-0.0,0.0,-0.14,0.517
660.45,8.844,-0.008,-0.0,0.0,-0.014,-1.0,8.026,0.064,-0.0,0.0,-0.14,0.517
660.7,8.844,-0.008,-0.0,0.0,-0.014,-1.0,8.026,0.064,-0.0,0.0,-0.14,0.517
660.95,8.844,-0.008,-0.0,0.0,-0.014,-1.0,8.026,0.064,-0.0,0.0,-0.14,0.517
661.2,8.844,-0.008,-0.0,0.0,-0.014,-1.0,8.026,0.064,-0.0,0.0,-0.14,0.517
661.45,8.844,-0.008,-0.0,0.0,-0.014,-1.0,8.026,0.064,-0.0,0.0,-0.14,0.517
661.7,8.844,-0.008,-0.0,0.0,-0.014,-1.0,8.026,0.064,-0.0,0.0,-0.14,0.517
662.45,8.844,-0.008,-0.0,0.0,-0.014,-1.0,8.026,0.064,-0.0,0.0,-0.14,0.517
662.95,8.844,-0.008,-0.0,0.0,-0.014,-1.0,8.026,0.064,-0.0,0.0,-0.14,0.517
663.2,8.844,-0.008,-0.0,0.0,-0.014,-1.0,8.026,0.064,-0.0,0.0,-0.14,0.517
663.45,8.844,-0.008,-0.0,0.0,-0.014,-1.0,8.026,0.064,-0.0,0.0,-0.14,0.517
663.7,8.844,-0.008,-0.0,0.0,-0.014,-1.0,8.026,0.064,-0.0,0.0,-0.14,0.517
663.95,8.844,-0.008,-0.0,0.0,-0.014,-1.0,8.026,0.064,-0.0,0.0,-0.14,0.517
664.2,8.844,-0.008,-0.0,0.0,-0.014,-1.0,8.026,0.064,-0.0,0.0,-0.14,0.517
664.45,8.844,-0.008,-0.0,0.0,-0.014,-1.0,8.026,0.064,-0.0,0.0,-0.14,0.517
664.7,8.844,-0.008,-0.0,0.0,-0.014,-1.0,8.026,0.064,-0.0,0.0,-0.14,0.517
664.95,8.844,-0.008,-0.0,0.0,-0.014,-1.0,8.026,0.064,-0.0,0.0,-0.14,0.517
665.2,8.844,-0.008,-0.0,0.0,-0.014,-1.0,8.026,0.064,-0.0,0.0,-0.14,0.517
665.45,8.844,-0.008,-0.0,0.0,-0.014,-1.0,8.026,0.064,-0.0,0.0,-0.14,0.517
665.7,8.844,-0.008,-0.0,0.0,-0.014,-1.0,8.026,0.064,-0.0,0.0,-0.14,0.517
665.95,8.844,-0.008,-0.0,0.0,-0.014,-1.0,8.026,0.064,-0.0,0.0,-0.14,0.517
666.2,8.844,-0.008,-0.0,0.0,-0.014,-1.0,8.026,0.064,-0.0,0.0,-0.14,0.517
666.7,8.844,-0.008,-0.0,0.0,-0.014,-1.0,8.026,0.064,-0.0,0.0,-0.14,0.517
667.7,8.844,-0.008,-0.0,0.0,-0.014,-1.0,8.026,0.064,-0.0,0.0,-0.14,0.517
667.95,8.844,-0.008,-0.0,0.0,-0.014,-1.0,8.026,0.064,-0.0,0.0,-0.14,0.517
668.2,8.844,-0.008,-0.0,0.0,-0.014,-1.0,8.026,0.064,-0.0,0.0,-0.14,0.517
668.45,8.844,-0.008,-0.0,0.0,-0.014,-1.0,8.026,0.064,-0.0,0.0,-0.14,0.517
668.7,8.844,-0.008,-0.0,0.0,-0.014,-1.0,8.026,0.064,-0.0,0.0,-0.14,0.517
668.95,8.844,-0.008,-0.0,0.0,-0.014,-1.0,8.026,0.064,-0.0,0.0,-0.14,0.517
669.2,8.844,-0.008,-0.0,0.0,-0.014,-1.0,8.026,0.064,-0.0,0.0,-0.14,0.517
669.45,8.844,-0.008,-0.0,0.0,-0.014,-1.0,8.026,0.064,-0.0,0.0,-0.14,0.517
669.7,8.843,-0.008,-0.0,0.0,-0.014,-1.0,8.026,0.064,-0.0,0.0,-0.14,0.517
669.95,8.843,-0.008,-0.0,0.0,-0.014,-1.0,8.026,0.064,-0.0,0.0,-0.14,0.517
670.2,8.843,-0.008,-0.0,0.0,-0.014,-1.0,8.026,0.064,-0.0,0.0,-0.14,0.517
670.45,8.843,-0.008,-0.0,0.0,-0.014,-1.0,8.026,0.064,-0.0,0.0,-0.14,0.517
670.45,8.843,-0.008,-0.0,0.0,-0.014,-1.0,8.026,0.064,-0.0,0.0,-0.14,0.517
670.45,8.843,-0.008,-0.0,0.0,-0.014,-1.0,8.026,0.064,-0.0,0.0,-0.14,0.517
670.7,8.843,-0.008,-0.0,0.0,-0.014,-1.0,8.026,0.064,-0.0,0.0,-0.14,0.517
670.95,8.843,-0.008,-0.0,0.0,-0.014,-1.0,8.026,0.064,-0.0,0.0,-0.14,0.517
671.2,8.843,-0.008,-0.0,0.0,-0.014,-1.0,8.026,0.064,-0.0,0.0,-0.14,0.517
671.45,8.843,-0.008,-0.0,0.0,-0.014,-1.0,8.026,0.064,-0.0,0.0,-0.14,0.517
671.7,8.843,-0.008,-0.0,0.0,-0.014,-1.0,8.026,0.064,-0.0,0.0,-0.14,0.517
671.95,8.843,-0.008,-0.0,0.0,-0.014,-1.0,8.026,0.064,-0.0,0.0,-0.14,0.517
672.2,8.843,-0.008,-0.0,0.0,-0.014,-1.0,8.026,0.064,-0.0,0.0,-0.14,0.517
672.45,8.843,-0.008,-0.0,0.0,-0.014,-1.0,8.026,0.064,-0.0,0.0,-0.14,0.517
672.7,8.843,-0.008,-0.0,0.0,-0.014,-1.0,8.026,0.064,-0.0,0.0,-0.14,0.517
672.95,8.843,-0.008,-0.0,0.0,-0.014,-1.0,8.026,0.064,-0.0,0.0,-0.14,0.517
673.2,8.843,-0.008,-0.0,0.0,-0.014,-1.0,8.026,0.064,-0.0,0.0,-0.14,0.517
673.45,8.843,-0.008,-0.0,0.0,-0.014,-1.0,8.026,0.064,-0.0,0.0,-0.14,0.517
673.95,8.843,-0.008,-0.0,0.0,-0.014,-1.0,8.026,0.064,-0.0,0.0,-0.14,0.517
674.2,8.843,-0.008,-0.0,0.0,-0.014,-1.0,8.026,0.064,-0.0,0.0,-0.14,0.517
674.45,8.843,-0.008,-0.0,0.0,-0.014,-1.0,8.026,0.064,-0.0,0.0,-0.14,0.517
675.7,8.843,-0.008,-0.0,0.0,-0.014,-1.0,8.026,0.064,-0.0,0.0,-0.14,0.517
676.2,8.843,-0.008,-0.0,0.0,-0.014,-1.0,8.026,0.064,-0.0,0.0,-0.14,0.517
676.95,8.843,-0.008,-0.0,0.0,-0.014,-1.0,8.026,0.064,-0.0,0.0,-0.14,0.517
677.2,8.843,-0.008,-0.0,0.0,-0.014,-1.0,8.026,0.064,-0.0,0.0,-0.14,0.517
677.45,8.843,-0.008,-0.0,0.0,-0.014,-1.0,8.026,0.064,-0.0,0.0,-0.14,0.517
677.7,8.843,-0.008,-0.0,0.0,-0.014,-1.0,8.026,0.064,-0.0,0.0,-0.14,0.517
677.95,8.843,-0.008,-0.0,0.0,-0.014,-1.0,8.026,0.064,-0.0,0.0,-0.14,0.517
678.7,8.843,-0.008,-0.0,0.0,-0.014,-1.0,8.026,0.064,-0.0,0.0,-0.14,0.517
679.2,8.843,-0.008,-0.0,0.0,-0.014,-1.0,8.026,0.064,-0.0,0.0,-0.14,0.517
679.45,8.843,-0.008,-0.0,0.0,-0.014,-1.0,8.026,0.064,-0.0,0.0,-0.14,0.517
679.7,8.843,-0.008,-0.0,0.0,-0.014,-1.0,8.026,0.064,-0.0,0.0,-0.14,0.517
680.2,8.843,-0.008,-0.0,0.0,-0.014,-1.0,8.026,0.064,-0.0,0.0,-0.14,0.517
680.7,8.843,-0.008,-0.0,0.0,-0.014,-1.0,8.026,0.064,-0.0,0.0,-0.14,0.517
680.95,8.843,-0.008,-0.0,0.0,-0.014,-1.0,8.026,0.064,-0.0,0.0,-0.14,0.517
681.7,8.843,-0.008,-0.0,0.0,-0.014,-1.0,8.026,0.064,-0.0,0.0,-0.14,0.517
681.95,8.843,-0.008,-0.0,0.0,-0.014,-1.0,8.026,0.064,-0.0,0.0,-0.14,0.517
682.45,8.843,-0.008,-0.0,0.0,-0.014,-1.0,8.026,0.064,-0.0,0.0,-0.14,0.517
682.7,8.843,-0.008,-0.0,0.0,-0.014,-1.0,8.026,0.064,-0.0,0.0,-0.14,0.517
682.95,8.843,-0.008,-0.0,0.0,-0.014,-1.0,8.026,0.064,-0.0,0.0,-0.14,0.517
683.2,8.843,-0.008,-0.0,0.0,-0.014,-1.0,8.026,0.064,-0.0,0.0,-0.14,0.517
683.7,8.842,-0.008,-0.0,0.0,-0.014,-1.0,8.025,0.064,-0.0,0.0,-0.14,0.517
683.95,8.842,-0.008,-0.0,0.0,-0.014,-1.0,8.025,0.064,-0.0,0.0,-0.14,0.517
684.2,8.842,-0.008,-0.0,0.0,-0.014,-1.0,8.025,0.064,-0.0,0.0,-0.14,0.517
684.7,8.842,-0.008,-0.0,0.0,-0.014,-1.0,8.025,0.064,-0.0,0.0,-0.14,0.517
685.2,8.842,-0.008,-0.0,0.0,-0.014,-1.0,8.025,0.064,-0.0,0.0,-0.14,0.517
685.45,8.842,-0.008,-0.0,0.0,-0.014,-1.0,8.025,0.064,-0.0,0.0,-0.14,0.517
685.7,8.842,-0.008,-0.0,0.0,-0.014,-1.0,8.025,0.064,-0.0,0.0,-0.14,0.517
686.2,8.842,-0.008,-0.0,0.0,-0.014,-1.0,8.025,0.064,-0.0,0.0,-0.14,0.517
686.45,8.842,-0.008,-0.0,0.0,-0.014,-1.0,8.025,0.064,-0.0,0.0,-0.14,0.517
686.95,8.842,-0.008,-0.0,0.0,-0.014,-1.0,8.025,0.064,-0.0,0.0,-0.14,0.517
687.2,8.842,-0.008,-0.0,0.0,-0.014,-1.0,8.025,0.064,-0.0,0.0,-0.14,0.517
687.7,8.842,-0.008,-0.0,0.0,-0.014,-1.0,8.025,0.064,-0.0,0.0,-0.14,0.517
687.95,8.842,-0.008,-0.0,0.0,-0.014,-1.0,8.025,0.064,-0.0,0.0,-0.14,0.517
688.2,8.842,-0.008,-0.0,0.0,-0.014,-1.0,8.025,0.064,-0.0,0.0,-0.14,0.517
688.45,8.842,-0.008,-0.0,0.0,-0.014,-1.0,8.025,0.064,-0.0,0.0,-0.14,0.517
688.7,8.842,-0.008,-0.0,0.0,-0.014,-1.0,8.025,0.064,-0.0,0.0,-0.14,0.517
688.95,8.842,-0.008,-0.0,0.0,-0.014,-1.0,8.025,0.064,-0.0,0.0,-0.14,0.517
689.2,8.842,-0.008,-0.0,0.0,-0.014,-1.0,8.025,0.064,-0.0,0.0,-0.14,0.517
689.45,8.842,-0.008,-0.0,0.0,-0.014,-1.0,8.025,0.064,-0.0,0.0,-0.14,0.517
689.7,8.842,-0.008,-0.0,0.0,-0.014,-1.0,8.025,0.064,-0.0,0.0,-0.14,0.517
689.95,8.842,-0.008,-0.0,0.0,-0.014,-1.0,8.025,0.064,-0.0,0.0,-0.14,0.517
690.2,8.842,-0.008,-0.0,0.0,-0.014,-1.0,8.025,0.064,-0.0,0.0,-0.14,0.517
690.45,8.842,-0.008,-0.0,0.0,-0.014,-1.0,8.025,0.064,-0.0,0.0,-0.14,0.517
690.7,8.842,-0.008,-0.0,0.0,-0.014,-1.0,8.025,0.064,-0.0,0.0,-0.14,0.517
690.95,8.842,-0.008,-0.0,0.0,-0.014,-1.0,8.025,0.064,-0.0,0.0,-0.14,0.517
691.2,8.842,-0.008,-0.0,0.0,-0.014,-1.0,8.025,0.064,-0.0,0.0,-0.14,0.517
691.45,8.842,-0.008,-0.0,0.0,-0.014,-1.0,8.025,0.064,-0.0,0.0,-0.14,0.517
691.95,8.842,-0.008,-0.0,0.0,-0.014,-1.0,8.025,0.064,-0.0,0.0,-0.14,0.517
691.95,8.842,-0.008,-0.0,0.0,-0.014,-1.0,8.025,0.064,-0.0,0.0,-0.14,0.517
692.2,8.842,-0.008,-0.0,0.0,-0.014,-1.0,8.025,0.064,-0.0,0.0,-0.14,0.517
692.45,8.842,-0.008,-0.0,0.0,-0.014,-1.0,8.025,0.064,-0.0,0.0,-0.14,0.517
692.7,8.842,-0.008,-0.0,0.0,-0.014,-1.0,8.025,0.064,-0.0,0.0,-0.14,0.517
692.95,8.842,-0.008,-0.0,0.0,-0.014,-1.0,8.025,0.064,-0.0,0.0,-0.14,0.517
693.45,8.842,-0.008,-0.0,0.0,-0.014,-1.0,8.025,0.064,-0.0,0.0,-0.14,0.517
694.2,8.842,-0.008,-0.0,0.0,-0.014,-1.0,8.025,0.064,-0.0,0.0,-0.14,0.517
694.7,8.842,-0.008,-0.0,0.0,-0.014,-1.0,8.025,0.064,-0.0,0.0,-0.14,0.517
694.95,8.842,-0.008,-0.0,0.0,-0.014,-1.0,8.025,0.064,-0.0,0.0,-0.14,0.517
695.2,8.842,-0.008,-0.0,0.0,-0.014,-1.0,8.025,0.064,-0.0,0.0,-0.14,0.517
695.45,8.842,-0.008,-0.0,0.0,-0.014,-1.0,8.025,0.064,-0.0,0.0,-0.14,0.517
695.95,8.842,-0.008,-0.0,0.0,-0.014,-1.0,8.025,0.064,-0.0,0.0,-0.14,0.517
696.2,8.842,-0.008,-0.0,0.0,-0.014,-1.0,8.025,0.064,-0.0,0.0,-0.14,0.517
696.45,8.842,-0.008,-0.0,0.0,-0.014,-1.0,8.025,0.064,-0.0,0.0,-0.14,0.517
696.95,8.842,-0.008,-0.0,0.0,-0.014,-1.0,8.025,0.064,-0.0,0.0,-0.14,0.517
697.7,8.841,-0.008,-0.0,0.0,-0.014,-1.0,8.025,0.064,-0.0,0.0,-0.14,0.517
697.95,8.841,-0.008,-0.0,0.0,-0.014,-1.0,8.025,0.064,-0.0,0.0,-0.14,0.517
698.2,8.841,-0.008,-0.0,0.0,-0.014,-1.0,8.025,0.064,-0.0,0.0,-0.14,0.517
698.45,8.841,-0.008,-0.0,0.0,-0.014,-1.0,8.025,0.064,-0.0,0.0,-0.14,0.517
699.2,8.841,-0.008,-0.0,0.0,-0.014,-1.0,8.025,0.064,-0.0,0.0,-0.14,0.517
699.45,8.841,-0.008,-0.0,0.0,-0.014,-1.0,8.025,0.064,-0.0,0.0,-0.14,0.517
699.7,8.841,-0.008,-0.0,0.0,-0.014,-1.0,8.025,0.064,-0.0,0.0,-0.14,0.517
699.95,8.841,-0.008,-0.0,0.0,-0.014,-1.0,8.025,0.064,-0.0,0.0,-0.14,0.517
700.45,8.841,-0.008,-0.0,0.0,-0.014,-1.0,8.025,0.065,-0.0,0.0,-0.14,0.517
700.7,8.841,-0.008,-0.0,0.0,-0.014,-1.0,8.025,0.065,-0.0,0.0,-0.14,0.517
700.95,8.841,-0.008,-0.0,0.0,-0.014,-1.0,8.025,0.065,-0.0,0.0,-0.14,0.517
701.7,8.841,-0.008,-0.0,0.0,-0.014,-1.0,8.025,0.065,-0.0,0.0,-0.14,0.517
701.95,8.841,-0.008,-0.0,0.0,-0.014,-1.0,8.025,0.065,-0.0,0.0,-0.14,0.517
702.7,8.841,-0.008,-0.0,0.0,-0.014,-1.0,8.025,0.065,-0.0,0.0,-0.14,0.517
703.45,8.841,-0.008,-0.0,0.0,-0.014,-1.0,8.025,0.065,-0.0,0.0,-0.14,0.517
703.7,8.841,-0.008,-0.0,0.0,-0.014,-1.0,8.025,0.065,-0.0,0.0,-0.14,0.517
704.2,8.841,-0.008,-0.0,0.0,-0.014,-1.0,8.025,0.065,-0.0,0.0,-0.14,0.517
704.45,8.841,-0.008,-0.0,0.0,-0.014,-1.0,8.025,0.065,-0.0,0.0,-0.14,0.517
704.7,8.841,-0.008,-0.0,0.0,-0.014,-1.0,8.025,0.065,-0.0,0.0,-0.14,0.517
704.95,8.841,-0.008,-0.0,0.0,-0.014,-1.0,8.025,0.065,-0.0,0.0,-0.14,0.517
705.7,8.841,-0.008,-0.0,0.0,-0.014,-1.0,8.025,0.065,-0.0,0.0,-0.14,0.517
705.95,8.841,-0.008,-0.0,0.0,-0.014,-1.0,8.025,0.065,-0.0,0.0,-0.14,0.517
706.2,8.841,-0.008,-0.0,0.0,-0.014,-1.0,8.025,0.065,-0.0,0.0,-0.14,0.517
706.7,8.841,-0.008,-0.0,0.0,-0.014,-1.0,8.025,0.065,-0.0,0.0,-0.14,0.517
706.95,8.841,-0.008,-0.0,0.0,-0.014,-1.0,8.025,0.065,-0.0,0.0,-0.14,0.517
707.45,8.841,-0.008,-0.0,0.0,-0.014,-1.0,8.025,0.065,-0.0,0.0,-0.14,0.517
707.7,8.841,-0.008,-0.0,0.0,-0.014,-1.0,8.025,0.065,-0.0,0.0,-0.14,0.517
707.95,8.841,-0.008,-0.0,0.0,-0.014,-1.0,8.025,0.065,-0.0,0.0,-0.14,0.517
708.2,8.841,-0.008,-0.0,0.0,-0.014,-1.0,8.024,0.065,-0.0,0.0,-0.14,0.517
708.45,8.841,-0.008,-0.0,0.0,-0.014,-1.0,8.024,0.065,-0.0,0.0,-0.14,0.517
708.7,8.841,-0.008,-0.0,0.0,-0.014,-1.0,8.024,0.065,-0.0,0.0,-0.14,0.517
708.95,8.841,-0.008,-0.0,0.0,-0.014,-1.0,8.024,0.065,-0.0,0.0,-0.14,0.517
709.2,8.841,-0.008,-0.0,0.0,-0.014,-1.0,8.024,0.065,-0.0,0.0,-0.14,0.517
709.45,8.841,-0.008,-0.0,0.0,-0.014,-1.0,8.024,0.065,-0.0,0.0,-0.14,0.517
709.7,8.841,-0.008,-0.0,0.0,-0.014,-1.0,8.024,0.065,-0.0,0.0,-0.14,0.517
710.45,8.841,-0.008,-0.0,0.0,-0.014,-1.0,8.024,0.065,-0.0,0.0,-0.14,0.517
710.7,8.84,-0.008,-0.0,0.0,-0.014,-1.0,8.024,0.065,-0.0,0.0,-0.14,0.517
710.95,8.84,-0.008,-0.0,0.0,-0.014,-1.0,8.024,0.065,-0.0,0.0,-0.14,0.517
711.2,8.84,-0.008,-0.0,0.0,-0.014,-1.0,8.024,0.065,-0.0,0.0,-0.14,0.517
711.7,8.84,-0.008,-0.0,0.0,-0.014,-1.0,8.024,0.065,-0.0,0.0,-0.14,0.517
712.2,8.84,-0.008,-0.0,0.0,-0.014,-1.0,8.024,0.065,-0.0,0.0,-0.14,0.517
713.2,8.84,-0.008,-0.0,0.0,-0.014,-1.0,8.024,0.065,-0.0,0.0,-0.14,0.517
713.7,8.84,-0.008,-0.0,0.0,-0.014,-1.0,8.024,0.065,-0.0,0.0,-0.14,0.517
713.95,8.84,-0.008,-0.0,0.0,-0.014,-1.0,8.024,0.065,-0.0,0.0,-0.14,0.517
714.2,8.84,-0.008,-0.0,0.0,-0.014,-1.0,8.024,0.065,-0.0,0.0,-0.14,0.517
714.45,8.84,-0.008,-0.0,0.0,-0.014,-1.0,8.024,0.065,-0.0,0.0,-0.14,0.517
715.2,8.84,-0.008,-0.0,0.0,-0.014,-1.0,8.024,0.065,-0.0,0.0,-0.14,0.517
715.45,8.84,-0.008,-0.0,0.0,-0.014,-1.0,8.024,0.065,-0.0,0.0,-0.14,0.517
715.7,8.84,-0.008,-0.0,0.0,-0.014,-1.0,8.024,0.065,-0.0,0.0,-0.14,0.517
716.2,8.84,-0.008,-0.0,0.0,-0.014,-1.0,8.024,0.065,-0.0,0.0,-0.14,0.517
716.45,8.84,-0.008,-0.0,0.0,-0.014,-1.0,8.024,0.065,-0.0,0.0,-0.14,0.517
717.2,8.84,-0.008,-0.0,0.0,-0.014,-1.0,8.024,0.065,-0.0,0.0,-0.14,0.517
717.7,8.84,-0.008,-0.0,0.0,-0.014,-1.0,8.024,0.065,-0.0,0.0,-0.14,0.517
718.2,8.84,-0.008,-0.0,0.0,-0.014,-1.0,8.024,0.065,-0.0,0.0,-0.14,0.517
718.45,8.84,-0.008,-0.0,0.0,-0.014,-1.0,8.024,0.065,-0.0,0.0,-0.14,0.517
718.7,8.84,-0.008,-0.0,0.0,-0.014,-1.0,8.024,0.065,-0.0,0.0,-0.14,0.517
718.95,8.84,-0.008,-0.0,0.0,-0.014,-1.0,8.024,0.065,-0.0,0.0,-0.14,0.517
719.2,8.84,-0.008,-0.0,0.0,-0.014,-1.0,8.024,0.065,-0.0,0.0,-0.14,0.517
719.45,8.84,-0.008,-0.0,0.0,-0.014,-1.0,8.024,0.065,-0.0,0.0,-0.14,0.517
719.7,8.84,-0.008,-0.0,0.0,-0.014,-1.0,8.024,0.065,-0.0,0.0,-0.14,0.517
719.95,8.84,-0.008,-0.0,0.0,-0.014,-1.0,8.024,0.065,-0.0,0.0,-0.14,0.517
719.95,8.84,-0.008,-0.0,0.0,-0.014,-1.0,8.024,0.065,-0.0,0.0,-0.14,0.517
720.2,8.84,-0.008,-0.0,0.0,-0.014,-1.0,8.024,0.065,-0.0,0.0,-0.14,0.516
720.45,8.84,-0.008,-0.0,0.0,-0.014,-1.0,8.024,0.065,-0.0,0.0,-0.14,0.516
720.7,8.84,-0.008,-0.0,0.0,-0.014,-1.0,8.024,0.065,-0.0,0.0,-0.14,0.516
720.95,8.84,-0.008,-0.0,0.0,-0.014,-1.0,8.024,0.065,-0.0,0.0,-0.14,0.516
721.2,8.84,-0.008,-0.0,0.0,-0.014,-1.0,8.024,0.065,-0.0,0.0,-0.14,0.516
721.45,8.84,-0.008,-0.0,0.0,-0.014,-1.0,8.024,0.065,-0.0,0.0,-0.14,0.516
721.7,8.84,-0.008,-0.0,0.0,-0.014,-1.0,8.024,0.065,-0.0,0.0,-0.14,0.516
722.2,8.84,-0.008,-0.0,0.0,-0.014,-1.0,8.024,0.065,-0.0,0.0,-0.14,0.516
722.45,8.84,-0.008,-0.0,0.0,-0.014,-1.0,8.024,0.065,-0.0,0.0,-0.14,0.516
722.7,8.84,-0.008,-0.0,0.0,-0.014,-1.0,8.024,0.065,-0.0,0.0,-0.14,0.516
723.95,8.84,-0.008,-0.0,0.0,-0.014,-1.0,8.024,0.065,-0.0,0.0,-0.14,0.516
724.2,8.84,-0.008,-0.0,0.0,-0.014,-1.0,8.024,0.065,-0.0,0.0,-0.14,0.516
724.45,8.839,-0.008,-0.0,0.0,-0.014,-1.0,8.024,0.065,-0.0,0.0,-0.14,0.516
724.7,8.839,-0.008,-0.0,0.0,-0.014,-1.0,8.024,0.065,-0.0,0.0,-0.14,0.516
725.2,8.839,-0.008,-0.0,0.0,-0.014,-1.0,8.024,0.065,-0.0,0.0,-0.14,0.516
725.95,8.839,-0.008,-0.0,0.0,-0.014,-1.0,8.024,0.065,-0.0,0.0,-0.14,0.516
726.45,8.839,-0.008,-0.0,0.0,-0.014,-1.0,8.024,0.065,-0.0,0.0,-0.14,0.516
726.7,8.839,-0.008,-0.0,0.0,-0.014,-1.0,8.024,0.065,-0.0,0.0,-0.14,0.516
726.95,8.839,-0.008,-0.0,0.0,-0.014,-1.0,8.024,0.065,-0.0,0.0,-0.14,0.516
727.7,8.839,-0.008,-0.0,0.0,-0.014,-1.0,8.024,0.065,-0.0,0.0,-0.14,0.516
727.95,8.839,-0.008,-0.0,0.0,-0.014,-1.0,8.024,0.065,-0.0,0.0,-0.14,0.516
728.2,8.839,-0.008,-0.0,0.0,-0.014,-1.0,8.024,0.065,-0.0,0.0,-0.14,0.516
728.45,8.839,-0.008,-0.0,0.0,-0.014,-1.0,8.024,0.065,-0.0,0.0,-0.14,0.516
728.7,8.839,-0.008,-0.0,0.0,-0.014,-1.0,8.024,0.065,-0.0,0.0,-0.14,0.516
728.95,8.839,-0.008,-0.0,0.0,-0.014,-1.0,8.024,0.065,-0.0,0.0,-0.14,0.516
729.2,8.839,-0.008,-0.0,0.0,-0.014,-1.0,8.024,0.065,-0.0,0.0,-0.14,0.516
729.45,8.839,-0.008,-0.0,0.0,-0.014,-1.0,8.024,0.065,-0.0,0.0,-0.14,0.516
729.7,8.839,-0.008,-0.0,0.0,-0.014,-1.0,8.024,0.065,-0.0,0.0,-0.14,0.516
730.45,8.839,-0.008,-0.0,0.0,-0.014,-1.0,8.024,0.065,-0.0,0.0,-0.14,0.516
730.7,8.839,-0.008,-0.0,0.0,-0.014,-1.0,8.024,0.065,-0.0,0.0,-0.14,0.516
731.2,8.839,-0.008,-0.0,0.0,-0.014,-1.0,8.024,0.065,-0.0,0.0,-0.14,0.516
731.45,8.839,-0.008,-0.0,0.0,-0.014,-1.0,8.024,0.065,-0.0,0.0,-0.14,0.516
731.95,8.839,-0.008,-0.0,0.0,-0.014,-1.0,8.024,0.065,-0.0,0.0,-0.14,0.516
732.2,8.839,-0.008,-0.0,0.0,-0.014,-1.0,8.024,0.065,-0.0,0.0,-0.14,0.516
732.45,8.839,-0.008,-0.0,0.0,-0.014,-1.0,8.024,0.065,-0.0,0.0,-0.14,0.516
732.7,8.839,-0.008,-0.0,0.0,-0.014,-1.0,8.024,0.065,-0.0,0.0,-0.14,0.516
732.95,8.839,-0.008,-0.0,0.0,-0.014,-1.0,8.023,0.065,-0.0,0.0,-0.14,0.516
733.2,8.839,-0.008,-0.0,0.0,-0.014,-1.0,8.023,0.065,-0.0,0.0,-0.14,0.516
733.45,8.839,-0.008,-0.0,0.0,-0.014,-1.0,8.023,0.065,-0.0,0.0,-0.14,0.516
733.7,8.839,-0.008,-0.0,0.0,-0.014,-1.0,8.023,0.065,-0.0,0.0,-0.14,0.516
733.95,8.839,-0.008,-0.0,0.0,-0.014,-1.0,8.023,0.065,-0.0,0.0,-0.14,0.516
734.45,8.839,-0.008,-0.0,0.0,-0.014,-1.0,8.023,0.065,-0.0,0.0,-0.14,0.516
734.7,8.839,-0.008,-0.0,0.0,-0.014,-1.0,8.023,0.065,-0.0,0.0,-0.14,0.516
735.2,8.839,-0.008,-0.0,0.0,-0.014,-1.0,8.023,0.065,-0.0,0.0,-0.14,0.516
735.45,8.839,-0.008,-0.0,0.0,-0.014,-1.0,8.023,0.065,-0.0,0.0,-0.14,0.516
736.2,8.839,-0.008,-0.0,0.0,-0.014,-1.0,8.023,0.065,-0.0,0.0,-0.14,0.516
736.45,8.839,-0.008,-0.0,0.0,-0.014,-1.0,8.023,0.065,-0.0,0.0,-0.14,0.516
736.7,8.839,-0.008,-0.0,0.0,-0.014,-1.0,8.023,0.065,-0.0,0.0,-0.14,0.516
737.2,8.839,-0.008,-0.0,0.0,-0.014,-1.0,8.023,0.065,-0.0,0.0,-0.14,0.516
737.2,8.839,-0.008,-0.0,0.0,-0.014,-1.0,8.023,0.065,-0.0,0.0,-0.14,0.516
737.45,8.839,-0.008,-0.0,0.0,-0.014,-1.0,8.023,0.065,-0.0,0.0,-0.14,0.516
737.95,8.838,-0.008,-0.0,0.0,-0.014,-1.0,8.023,0.065,-0.0,0.0,-0.14,0.516
738.2,8.838,-0.008,-0.0,0.0,-0.014,-1.0,8.023,0.065,-0.0,0.0,-0.14,0.516
738.7,8.838,-0.008,-0.0,0.0,-0.014,-1.0,8.023,0.065,-0.0,0.0,-0.14,0.516
738.95,8.838,-0.008,-0.0,0.0,-0.014,-1.0,8.023,0.065,-0.0,0.0,-0.14,0.516
739.45,8.838,-0.008,-0.0,0.0,-0.014,-1.0,8.023,0.065,-0.0,0.0,-0.14,0.516
739.7,8.838,-0.008,-0.0,0.0,-0.014,-1.0,8.023,0.065,-0.0,0.0,-0.14,0.516
740.2,8.838,-0.008,-0.0,0.0,-0.014,-1.0,8.023,0.065,-0.0,0.0,-0.14,0.516
740.7,8.838,-0.008,-0.0,0.0,-0.014,-1.0,8.023,0.065,-0.0,0.0,-0.14,0.516
741.2,8.838,-0.008,-0.0,0.0,-0.014,-1.0,8.023,0.065,-0.0,0.0,-0.14,0.516
741.45,8.838,-0.008,-0.0,0.0,-0.014,-1.0,8.023,0.065,-0.0,0.0,-0.14,0.516
741.7,8.838,-0.008,-0.0,0.0,-0.014,-1.0,8.023,0.065,-0.0,0.0,-0.14,0.516
741.95,8.838,-0.008,-0.0,0.0,-0.014,-1.0,8.023,0.065,-0.0,0.0,-0.14,0.516
742.2,8.838,-0.008,-0.0,0.0,-0.014,-1.0,8.023,0.065,-0.0,0.0,-0.14,0.516
742.45,8.838,-0.008,-0.0,0.0,-0.014,-1.0,8.023,0.065,-0.0,0.0,-0.14,0.516
742.7,8.838,-0.008,-0.0,0.0,-0.014,-1.0,8.023,0.065,-0.0,0.0,-0.14,0.516
742.95,8.838,-0.008,-0.0,0.0,-0.014,-1.0,8.023,0.065,-0.0,0.0,-0.14,0.516
743.2,8.838,-0.008,-0.0,0.0,-0.014,-1.0,8.023,0.065,-0.0,0.0,-0.14,0.516
743.95,8.838,-0.008,-0.0,0.0,-0.014,-1.0,8.023,0.065,-0.0,0.0,-0.14,0.516
745.2,8.838,-0.008,-0.0,0.0,-0.014,-1.0,8.023,0.065,-0.0,0.0,-0.14,0.516
745.45,8.838,-0.008,-0.0,0.0,-0.014,-1.0,8.023,0.065,-0.0,0.0,-0.14,0.516
745.7,8.838,-0.008,-0.0,0.0,-0.014,-1.0,8.023,0.065,-0.0,0.0,-0.14,0.516
