ayah05/MobileRobot/prediction_data/predictions.csv
timestamp,actual_x,actual_y,actual_qx,actual_qy,actual_qz,actual_qw,predicted_x,predicted_y,predicted_qx,predicted_qy,predicted_qz,predicted_qw
3.2,-0.0,-0.0,-0.0,-0.0,0.0,1.0,-0.117,0.175,-0.0,-0.0,-0.123,0.39
4.15,-0.0,-0.0,-0.0,-0.0,0.0,1.0,-0.117,0.175,-0.0,-0.0,-0.123,0.39
4.4,-0.0,-0.0,-0.0,-0.0,0.0,1.0,-0.117,0.175,-0.0,-0.0,-0.123,0.39
4.65,-0.0,-0.0,-0.0,-0.0,0.0,1.0,-0.117,0.175,-0.0,-0.0,-0.123,0.39
4.9,-0.0,-0.0,-0.0,-0.0,0.0,1.0,-0.117,0.175,-0.0,-0.0,-0.123,0.39
5.15,-0.0,-0.0,-0.0,-0.0,0.0,1.0,-0.117,0.175,-0.0,-0.0,-0.123,0.39
5.4,-0.0,-0.0,-0.0,-0.0,0.0,1.0,-0.117,0.175,-0.0,-0.0,-0.123,0.39
5.65,-0.0,-0.0,-0.0,-0.0,0.0,1.0,-0.117,0.175,-0.0,-0.0,-0.123,0.39
6.4,-0.0,-0.0,-0.0,-0.0,0.0,1.0,-0.117,0.175,-0.0,-0.0,-0.123,0.39
8.05,-0.001,-0.0,-0.0,-0.0,0.0,1.0,-0.117,0.175,-0.0,-0.0,-0.123,0.39
8.3,-0.001,-0.0,-0.0,-0.0,0.0,1.0,-0.117,0.175,-0.0,-0.0,-0.123,0.39
8.55,-0.001,-0.0,-0.0,-0.0,0.0,1.0,-0.117,0.175,-0.0,-0.0,-0.123,0.39
8.8,-0.001,-0.0,-0.0,-0.0,0.0,1.0,-0.117,0.175,-0.0,-0.0,-0.123,0.39
9.05,-0.001,-0.0,-0.0,-0.0,0.0,1.0,-0.118,0.175,-0.0,-0.0,-0.123,0.39
9.3,-0.001,-0.0,-0.0,-0.0,0.0,1.0,-0.118,0.175,-0.0,-0.0,-0.123,0.39
9.55,-0.001,-0.0,-0.0,-0.0,0.0,1.0,-0.118,0.175,-0.0,-0.0,-0.123,0.39
9.8,-0.001,-0.0,-0.0,-0.0,0.0,1.0,-0.118,0.175,-0.0,-0.0,-0.123,0.39
10.3,-0.001,-0.0,-0.0,-0.0,0.0,1.0,-0.118,0.175,-0.0,-0.0,-0.123,0.39
10.55,-0.001,-0.0,-0.0,-0.0,0.0,1.0,-0.118,0.175,-0.0,-0.0,-0.123,0.39
10.8,-0.001,-0.0,-0.0,-0.0,0.0,1.0,-0.118,0.175,-0.0,-0.0,-0.123,0.39
11.05,-0.001,-0.0,-0.0,-0.0,0.0,1.0,-0.118,0.175,-0.0,-0.0,-0.123,0.39
11.3,-0.001,-0.0,-0.0,-0.0,0.0,1.0,-0.118,0.175,-0.0,-0.0,-0.123,0.39
11.8,-0.001,-0.0,-0.0,-0.0,0.0,1.0,-0.118,0.175,-0.0,-0.0,-0.123,0.39
12.05,-0.0,-0.0,-0.0,-0.0,0.0,1.0,-0.117,0.175,-0.0,-0.0,-0.123,0.39
12.3,0.076,0.0,-0.0,-0.0,0.0,1.0,-0.087,0.171,-0.0,-0.0,-0.123,0.391
12.55,0.261,0.0,-0.0,-0.0,0.0,1.0,-0.002,0.161,-0.0,-0.0,-0.122,0.393
12.8,0.461,0.0,-0.0,-0.0,0.0,1.0,0.109,0.153,-0.0,-0.0,-0.123,0.395
16.1,3.099,0.09,-0.0,-0.0,0.008,1.0,1.872,0.416,-0.0,-0.0,-0.099,0.253
16.35,3.299,0.09,-0.0,-0.0,-0.003,1.0,2.467,0.21,-0.0,0.0,-0.11,0.195
16.6,3.499,0.089,-0.0,-0.0,-0.003,1.0,2.781,0.18,-0.0,0.0,-0.115,0.16
16.85,3.699,0.088,-0.0,-0.0,-0.003,1.0,3.052,0.201,-0.0,0.0,-0.116,0.146
17.1,3.899,0.086,-0.0,-0.0,-0.003,1.0,3.322,0.221,-0.0,0.0,-0.115,0.145
17.35,4.099,0.086,0.0,-0.0,0.003,1.0,3.593,0.243,-0.0,0.0,-0.115,0.152
17.6,4.299,0.091,0.0,-0.0,0.03,1.0,3.863,0.283,-0.0,0.0,-0.112,0.168
17.85,4.498,0.11,0.0,-0.0,0.065,0.998,4.134,0.355,-0.0,0.0,-0.107,0.192
18.1,4.696,0.143,0.0,-0.0,0.101,0.995,4.406,0.444,-0.0,0.0,-0.101,0.227
18.35,4.891,0.19,0.0,0.0,0.136,0.991,4.679,0.565,-0.0,0.0,-0.093,0.266
18.85,5.255,0.319,0.0,0.0,0.206,0.979,4.978,0.719,-0.0,0.0,-0.085,0.28
19.1,5.435,0.406,0.0,-0.0,0.237,0.971,5.243,0.895,-0.0,0.0,-0.076,0.29
19.35,5.61,0.502,0.0,0.0,0.261,0.965,5.487,1.09,-0.0,0.0,-0.067,0.299
19.6,5.78,0.608,0.0,-0.0,0.286,0.958,5.711,1.295,-0.0,0.0,-0.057,0.306
19.85,5.945,0.722,0.0,0.0,0.316,0.949,5.906,1.514,-0.0,0.0,-0.046,0.311
20.1,6.098,0.85,0.0,0.0,0.368,0.93,6.063,1.737,-0.0,0.0,-0.034,0.314
20.35,6.235,0.997,0.0,0.0,0.426,0.905,6.176,1.965,-0.0,0.0,-0.023,0.313
20.6,6.353,1.157,0.0,0.0,0.486,0.874,6.246,2.215,-0.0,0.0,-0.014,0.312
20.85,6.445,1.338,0.0,0.0,0.559,0.829,6.279,2.471,-0.0,0.0,-0.006,0.312
21.6,6.562,1.927,0.0,-0.0,0.692,0.722,6.261,2.887,-0.0,0.0,0.006,0.311
21.85,6.566,2.127,0.0,-0.0,0.706,0.708,6.202,3.246,-0.0,0.0,0.01,0.316
22.1,6.563,2.327,0.0,-0.0,0.717,0.697,6.136,3.529,-0.0,0.0,0.012,0.318
22.35,6.557,2.526,0.0,-0.0,0.717,0.697,6.086,3.74,-0.0,0.0,0.015,0.321
22.85,6.539,2.925,0.0,-0.0,0.727,0.686,6.035,3.993,-0.0,0.0,0.018,0.327
23.1,6.525,3.126,0.0,-0.0,0.74,0.673,5.988,4.203,-0.0,0.0,0.022,0.332
23.6,6.461,3.521,0.0,-0.0,0.779,0.627,5.948,4.387,-0.0,0.0,0.026,0.334
23.85,6.415,3.715,0.0,-0.0,0.791,0.612,5.906,4.526,-0.0,0.0,0.03,0.328
24.1,6.361,3.908,0.0,-0.0,0.801,0.599,5.861,4.636,-0.0,0.0,0.033,0.331
24.6,6.262,4.296,0.0,-0.0,0.771,0.637,5.819,4.781,-0.0,0.0,0.038,0.336
24.85,6.231,4.493,0.0,-0.0,0.751,0.661,5.766,4.946,-0.0,0.0,0.043,0.342
25.6,6.184,5.091,0.0,-0.0,0.717,0.697,5.712,5.202,-0.0,0.0,0.05,0.353
32.45,3.853,9.068,0.0,0.0,0.981,-0.195,5.53,5.866,-0.0,0.0,0.026,0.311
32.7,3.671,8.985,0.0,0.0,0.974,-0.228,5.146,6.759,-0.0,0.0,-0.024,0.192
32.95,3.494,8.893,0.0,0.0,0.971,-0.241,4.586,7.458,-0.0,0.0,-0.074,0.041
33.2,3.327,8.804,0.0,0.0,0.97,-0.243,4.069,7.94,-0.0,0.0,-0.114,-0.082
33.45,3.154,8.709,0.0,0.0,0.966,-0.257,3.672,8.24,-0.0,0.0,-0.136,-0.173
34.2,2.629,8.421,0.0,0.0,0.973,-0.229,3.34,8.376,-0.0,0.0,-0.15,-0.241
34.45,2.449,8.332,0.0,0.0,0.974,-0.227,3.072,8.426,-0.0,0.0,-0.159,-0.288
34.7,2.274,8.245,0.0,0.0,0.973,-0.229,2.805,8.426,-0.0,0.0,-0.168,-0.331
34.95,2.104,8.16,0.0,0.0,0.973,-0.231,2.46,8.396,-0.0,0.0,-0.178,-0.383
35.2,1.926,8.07,0.0,0.0,0.972,-0.234,1.899,8.335,-0.0,0.0,-0.199,-0.463
35.45,1.748,7.979,0.0,0.0,0.972,-0.235,1.476,8.228,-0.0,0.0,-0.213,-0.52
35.7,1.569,7.889,0.0,0.0,0.976,-0.22,1.023,8.133,-0.0,0.0,-0.223,-0.576
36.2,1.202,7.73,0.0,0.0,0.978,-0.209,0.43,8.026,-0.0,0.0,-0.238,-0.646
36.45,1.021,7.645,0.0,0.0,0.974,-0.227,0.116,7.957,-0.0,0.0,-0.258,-0.66
36.7,0.842,7.555,0.0,0.0,0.973,-0.23,0.011,7.96,-0.0,0.0,-0.27,-0.662
36.95,0.664,7.466,0.0,0.0,0.973,-0.232,-0.039,7.941,-0.0,0.0,-0.275,-0.661
37.2,0.485,7.375,0.0,0.0,0.974,-0.226,-0.075,7.91,-0.0,0.0,-0.279,-0.659
37.7,0.125,7.201,0.0,0.0,0.974,-0.228,-0.11,7.869,-0.0,0.0,-0.282,-0.655
37.95,-0.053,7.109,0.0,0.0,0.971,-0.24,-0.142,7.821,-0.0,0.0,-0.285,-0.651
38.2,-0.229,7.015,0.0,0.0,0.97,-0.243,-0.174,7.766,-0.0,0.0,-0.288,-0.646
38.45,-0.406,6.923,0.0,-0.0,0.973,-0.233,-0.207,7.706,-0.0,0.0,-0.291,-0.641
38.7,-0.574,6.841,0.0,0.0,0.975,-0.221,-0.251,7.643,-0.0,0.0,-0.295,-0.635
39.2,-0.934,6.666,0.0,0.0,0.972,-0.233,-0.308,7.578,-0.0,0.0,-0.301,-0.628
39.45,-1.111,6.575,0.0,0.0,0.973,-0.23,-0.37,7.511,-0.0,0.0,-0.307,-0.621
39.7,-1.291,6.488,0.0,0.0,0.976,-0.216,-0.441,7.435,-0.0,0.0,-0.314,-0.612
39.95,-1.473,6.407,0.0,0.0,0.981,-0.193,-0.544,7.345,-0.0,0.0,-0.322,-0.59
40.2,-1.663,6.341,0.0,-0.0,0.99,-0.14,-0.684,7.251,-0.0,0.0,-0.328,-0.561
40.45,-1.857,6.294,0.0,-0.0,0.996,-0.092,-0.832,7.166,-0.0,0.0,-0.333,-0.525
40.95,-2.254,6.254,0.0,-0.0,1.0,-0.014,-1.057,7.092,-0.0,0.0,-0.341,-0.466
41.2,-2.454,6.254,0.0,-0.0,1.0,0.01,-1.344,7.021,-0.0,0.0,-0.345,-0.389
41.45,-2.654,6.26,0.0,0.0,1.0,0.015,-1.658,6.944,-0.0,0.0,-0.343,-0.308
41.7,-2.854,6.266,0.0,0.0,1.0,0.015,-1.954,6.871,-0.0,0.0,-0.341,-0.231
42.7,-3.654,6.291,0.0,0.0,1.0,0.014,-2.317,6.85,-0.0,0.0,-0.34,-0.148
42.95,-3.854,6.294,0.0,0.0,1.0,0.004,-2.712,6.826,-0.0,0.0,-0.338,-0.057
43.2,-4.054,6.296,0.0,0.0,1.0,0.003,-3.139,6.751,-0.0,0.0,-0.336,0.043
43.45,-4.254,6.297,0.0,0.0,1.0,0.004,-3.776,6.489,-0.0,0.0,-0.335,0.2
43.95,-4.654,6.3,0.0,0.0,1.0,0.004,-4.442,6.208,0.0,0.0,-0.333,0.355
44.2,-4.854,6.301,0.0,0.0,1.0,0.004,-4.831,6.118,0.0,0.0,-0.327,0.436
44.45,-5.054,6.303,0.0,0.0,1.0,0.003,-5.009,6.118,0.0,0.0,-0.324,0.471
44.7,-5.254,6.302,0.0,0.0,1.0,-0.009,-5.135,6.114,0.0,0.0,-0.321,0.496
44.95,-5.453,6.298,0.0,0.0,1.0,-0.01,-5.241,6.106,0.0,0.0,-0.319,0.517
45.2,-5.653,6.294,0.0,0.0,1.0,-0.01,-5.34,6.094,0.0,0.0,-0.317,0.537
45.45,-5.853,6.289,0.0,0.0,1.0,-0.011,-5.408,6.1,0.0,0.0,-0.316,0.549
45.7,-6.053,6.285,0.0,0.0,1.0,-0.011,-5.475,6.106,0.0,0.0,-0.315,0.561
45.95,-6.253,6.281,0.0,0.0,1.0,-0.011,-5.541,6.112,0.0,0.0,-0.314,0.573
46.45,-6.653,6.272,0.0,0.0,1.0,-0.011,-5.619,6.132,0.0,0.0,-0.313,0.585
46.7,-6.852,6.267,0.0,0.0,1.0,-0.009,-5.683,6.155,0.0,0.0,-0.314,0.595
46.95,-7.053,6.266,0.0,0.0,1.0,0.001,-5.736,6.171,0.0,0.0,-0.314,0.603
47.2,-7.253,6.267,0.0,0.0,1.0,0.002,-5.781,6.182,0.0,0.0,-0.313,0.61
47.45,-7.453,6.268,0.0,0.0,1.0,0.002,-5.821,6.192,0.0,0.0,-0.313,0.616
47.7,-7.653,6.271,0.0,-0.0,1.0,0.017,-5.859,6.2,0.0,0.0,-0.313,0.622
47.95,-7.852,6.282,0.0,-0.0,0.999,0.041,-5.896,6.209,0.0,0.0,-0.313,0.628
48.2,-8.051,6.306,0.0,-0.0,0.996,0.09,-5.933,6.217,0.0,0.0,-0.313,0.634
48.45,-8.232,6.35,0.0,-0.0,0.989,0.146,-5.967,6.224,0.0,0.0,-0.313,0.64
48.7,-8.418,6.42,0.0,-0.0,0.976,0.216,-6.0,6.231,0.0,0.0,-0.313,0.645
48.95,-8.592,6.519,0.0,-0.0,0.956,0.293,-6.031,6.238,0.0,0.0,-0.312,0.649
49.2,-8.748,6.643,0.0,-0.0,0.928,0.374,-6.058,6.243,0.0,0.0,-0.312,0.653
49.45,-8.876,6.795,0.0,-0.0,0.88,0.475,-6.081,6.248,0.0,0.0,-0.312,0.657
49.7,-8.967,6.973,0.0,-0.0,0.823,0.568,-6.098,6.249,0.0,0.0,-0.312,0.659
49.95,-9.018,7.158,0.0,-0.0,0.763,0.646,-6.108,6.247,0.0,0.0,-0.312,0.661
50.2,-9.03,7.35,0.0,-0.0,0.688,0.726,-6.112,6.244,0.0,0.0,-0.312,0.661
50.45,-8.997,7.546,-0.0,-0.0,0.597,0.802,-6.109,6.238,0.0,0.0,-0.312,0.661
50.7,-8.923,7.716,0.0,-0.0,0.497,0.868,-6.1,6.23,0.0,0.0,-0.311,0.66
51.2,-8.652,8.006,0.0,-0.0,0.306,0.952,-6.074,6.215,0.0,0.0,-0.311,0.657
64.15,-8.184,8.223,0.0,-0.0,0.081,0.997,-6.02,6.188,0.0,0.0,-0.311,0.65
64.4,-8.184,8.223,0.0,-0.0,0.082,0.997,-5.995,6.184,0.0,0.0,-0.311,0.646
64.65,-8.184,8.223,0.0,-0.0,0.083,0.997,-5.994,6.196,0.0,0.0,-0.312,0.645
64.9,-8.184,8.223,0.0,-0.0,0.083,0.997,-6.003,6.214,0.0,0.0,-0.312,0.645
65.15,-8.184,8.223,0.0,-0.0,0.084,0.996,-6.012,6.233,0.0,0.0,-0.313,0.646
65.4,-8.184,8.223,0.0,-0.0,0.085,0.996,-6.019,6.25,0.0,0.0,-0.314,0.646
65.65,-8.184,8.223,0.0,-0.0,0.086,0.996,-6.023,6.266,0.0,0.0,-0.315,0.645
65.9,-8.184,8.223,0.0,-0.0,0.087,0.996,-6.024,6.28,0.0,0.0,-0.315,0.644
66.65,-8.185,8.223,0.0,-0.0,0.09,0.996,-6.023,6.292,0.0,0.0,-0.316,0.643
66.9,-8.185,8.223,0.0,-0.0,0.091,0.996,-6.02,6.299,0.0,0.0,-0.316,0.642
67.15,-8.185,8.223,0.0,-0.0,0.091,0.996,-6.02,6.299,0.0,0.0,-0.316,0.642
67.4,-8.185,8.223,0.0,-0.0,0.092,0.996,-6.02,6.299,0.0,0.0,-0.316,0.642
67.65,-8.185,8.223,0.0,-0.0,0.093,0.996,-6.02,6.299,0.0,0.0,-0.316,0.642
67.9,-8.185,8.223,0.0,-0.0,0.094,0.996,-6.02,6.299,0.0,0.0,-0.316,0.642
68.15,-8.185,8.223,0.0,-0.0,0.095,0.995,-6.02,6.298,0.0,0.0,-0.316,0.642
68.65,-8.185,8.223,0.0,-0.0,0.097,0.995,-6.019,6.298,0.0,0.0,-0.316,0.642
68.9,-8.185,8.223,0.0,-0.0,0.098,0.995,-6.019,6.298,0.0,0.0,-0.316,0.642
69.15,-8.185,8.223,0.0,-0.0,0.098,0.995,-6.019,6.298,0.0,0.0,-0.316,0.642
69.4,-8.186,8.223,0.0,-0.0,0.099,0.995,-6.019,6.298,0.0,0.0,-0.316,0.642
69.65,-8.186,8.223,0.0,-0.0,0.1,0.995,-6.019,6.298,0.0,0.0,-0.316,0.642
69.9,-8.186,8.223,-0.0,-0.0,0.101,0.995,-6.019,6.297,0.0,0.0,-0.316,0.642
70.15,-8.186,8.223,0.0,-0.0,0.102,0.995,-6.019,6.297,0.0,0.0,-0.316,0.642
70.4,-8.186,8.222,0.0,-0.0,0.103,0.995,-6.018,6.297,0.0,0.0,-0.316,0.642
70.65,-8.186,8.222,0.0,-0.0,0.104,0.995,-6.018,6.297,0.0,0.0,-0.316,0.642
71.15,-8.186,8.222,0.0,0.0,0.105,0.994,-6.018,6.297,0.0,0.0,-0.316,0.642
71.65,-8.187,8.222,0.0,0.0,0.107,0.994,-6.018,6.297,0.0,0.0,-0.316,0.642
71.9,-8.187,8.222,0.0,0.0,0.107,0.994,-6.018,6.297,0.0,0.0,-0.316,0.642
72.15,-8.187,8.222,0.0,0.0,0.108,0.994,-6.018,6.296,0.0,0.0,-0.316,0.642
72.65,-8.187,8.222,0.0,0.0,0.109,0.994,-6.018,6.296,0.0,0.0,-0.316,0.642
73.15,-8.188,8.222,0.0,0.0,0.111,0.994,-6.018,6.296,0.0,0.0,-0.316,0.642
73.4,-8.188,8.222,0.0,0.0,0.112,0.994,-6.018,6.296,0.0,0.0,-0.316,0.642
73.65,-8.188,8.222,0.0,0.0,0.112,0.994,-6.017,6.296,0.0,0.0,-0.316,0.642
73.9,-8.188,8.222,0.0,0.0,0.113,0.994,-6.017,6.296,0.0,0.0,-0.316,0.642
74.4,-8.188,8.222,0.0,0.0,0.114,0.993,-6.017,6.296,0.0,0.0,-0.316,0.642
74.65,-8.188,8.222,0.0,0.0,0.115,0.993,-6.017,6.295,0.0,0.0,-0.316,0.642
74.9,-8.189,8.222,0.0,0.0,0.116,0.993,-6.017,6.295,0.0,0.0,-0.316,0.642
75.15,-8.189,8.222,0.0,0.0,0.116,0.993,-6.017,6.295,0.0,0.0,-0.316,0.642
75.65,-8.189,8.222,-0.0,-0.0,0.118,0.993,-6.017,6.295,0.0,0.0,-0.316,0.642
75.9,-8.189,8.222,-0.0,-0.0,0.118,0.993,-6.017,6.295,0.0,0.0,-0.316,0.642
76.15,-8.189,8.222,-0.0,-0.0,0.119,0.993,-6.017,6.295,0.0,0.0,-0.316,0.642
76.4,-8.189,8.222,-0.0,-0.0,0.119,0.993,-6.017,6.295,0.0,0.0,-0.316,0.642
76.65,-8.189,8.222,-0.0,-0.0,0.12,0.993,-6.016,6.295,0.0,0.0,-0.316,0.642
76.9,-8.189,8.222,-0.0,-0.0,0.121,0.993,-6.016,6.294,0.0,0.0,-0.316,0.642
77.15,-8.189,8.222,-0.0,-0.0,0.121,0.993,-6.016,6.294,0.0,0.0,-0.316,0.642
77.65,-8.19,8.222,-0.0,-0.0,0.122,0.992,-6.016,6.294,0.0,0.0,-0.316,0.642
77.9,-8.19,8.222,-0.0,-0.0,0.123,0.992,-6.016,6.294,0.0,0.0,-0.316,0.642
78.15,-8.19,8.222,-0.0,-0.0,0.124,0.992,-6.016,6.294,0.0,0.0,-0.316,0.642
78.4,-8.19,8.222,-0.0,-0.0,0.124,0.992,-6.016,6.294,0.0,0.0,-0.316,0.642
78.9,-8.19,8.222,-0.0,-0.0,0.125,0.992,-6.016,6.294,0.0,0.0,-0.316,0.642
79.15,-8.19,8.222,-0.0,-0.0,0.126,0.992,-6.016,6.294,0.0,0.0,-0.316,0.642
79.4,-8.19,8.222,-0.0,-0.0,0.126,0.992,-6.016,6.294,0.0,0.0,-0.316,0.642
79.9,-8.19,8.221,-0.0,-0.0,0.127,0.992,-6.016,6.294,0.0,0.0,-0.316,0.642
80.15,-8.19,8.221,-0.0,-0.0,0.128,0.992,-6.016,6.293,0.0,0.0,-0.316,0.642
80.65,-8.19,8.221,-0.0,-0.0,0.129,0.992,-6.015,6.293,0.0,0.0,-0.316,0.642
81.15,-8.19,8.221,-0.0,-0.0,0.13,0.992,-6.015,6.293,0.0,0.0,-0.316,0.642
81.4,-8.19,8.221,-0.0,-0.0,0.13,0.991,-6.015,6.293,0.0,0.0,-0.316,0.642
81.65,-8.19,8.221,-0.0,-0.0,0.131,0.991,-6.015,6.293,0.0,0.0,-0.316,0.642
81.9,-8.19,8.221,-0.0,-0.0,0.131,0.991,-6.015,6.293,0.0,0.0,-0.316,0.642
82.15,-8.191,8.221,-0.0,-0.0,0.132,0.991,-6.015,6.293,0.0,0.0,-0.316,0.642
82.4,-8.191,8.221,-0.0,-0.0,0.132,0.991,-6.015,6.293,0.0,0.0,-0.316,0.642
82.9,-8.191,8.221,-0.0,-0.0,0.133,0.991,-6.015,6.293,0.0,0.0,-0.316,0.642
83.15,-8.191,8.221,-0.0,-0.0,0.134,0.991,-6.015,6.293,0.0,0.0,-0.316,0.642
83.65,-8.191,8.221,-0.0,-0.0,0.134,0.991,-6.015,6.292,0.0,0.0,-0.316,0.642
83.9,-8.191,8.221,-0.0,-0.0,0.135,0.991,-6.015,6.292,0.0,0.0,-0.316,0.642
84.15,-8.191,8.221,-0.0,-0.0,0.135,0.991,-6.015,6.292,0.0,0.0,-0.316,0.642
84.65,-8.191,8.221,-0.0,-0.0,0.136,0.991,-6.014,6.292,0.0,0.0,-0.316,0.642
84.9,-8.191,8.221,-0.0,-0.0,0.136,0.991,-6.014,6.292,0.0,0.0,-0.316,0.642
85.4,-8.191,8.221,-0.0,-0.0,0.137,0.991,-6.014,6.292,0.0,0.0,-0.316,0.641
85.65,-8.191,8.221,-0.0,-0.0,0.138,0.99,-6.014,6.292,0.0,0.0,-0.316,0.641
85.9,-8.191,8.221,-0.0,-0.0,0.138,0.99,-6.014,6.292,0.0,0.0,-0.316,0.641
86.4,-8.191,8.221,-0.0,-0.0,0.139,0.99,-6.014,6.292,0.0,0.0,-0.316,0.641
86.65,-8.191,8.221,-0.0,-0.0,0.139,0.99,-6.014,6.292,0.0,0.0,-0.316,0.641
86.9,-8.191,8.221,-0.0,-0.0,0.14,0.99,-6.014,6.292,0.0,0.0,-0.316,0.641
87.15,-8.191,8.221,-0.0,-0.0,0.14,0.99,-6.014,6.292,0.0,0.0,-0.316,0.641
87.4,-8.191,8.221,-0.0,-0.0,0.14,0.99,-6.014,6.292,0.0,0.0,-0.316,0.641
87.65,-8.191,8.221,-0.0,-0.0,0.141,0.99,-6.014,6.291,0.0,0.0,-0.316,0.641
87.9,-8.191,8.221,-0.0,-0.0,0.141,0.99,-6.014,6.291,0.0,0.0,-0.316,0.641
88.65,-8.192,8.221,-0.0,-0.0,0.142,0.99,-6.014,6.291,0.0,0.0,-0.316,0.641
89.15,-8.192,8.221,-0.0,-0.0,0.143,0.99,-6.014,6.291,0.0,0.0,-0.316,0.641
89.65,-8.192,8.221,-0.0,-0.0,0.143,0.99,-6.014,6.291,0.0,0.0,-0.316,0.641
89.9,-8.192,8.221,-0.0,-0.0,0.144,0.99,-6.014,6.291,0.0,0.0,-0.316,0.641
90.15,-8.192,8.221,-0.0,-0.0,0.144,0.99,-6.014,6.291,0.0,0.0,-0.316,0.641
90.4,-8.192,8.221,-0.0,-0.0,0.144,0.99,-6.013,6.291,0.0,0.0,-0.316,0.641
90.9,-8.192,8.221,-0.0,-0.0,0.145,0.989,-6.013,6.291,0.0,0.0,-0.316,0.641
91.15,-8.192,8.221,-0.0,-0.0,0.145,0.989,-6.013,6.291,0.0,0.0,-0.316,0.641
91.4,-8.192,8.221,-0.0,-0.0,0.146,0.989,-6.013,6.291,0.0,0.0,-0.316,0.641
91.9,-8.192,8.221,-0.0,-0.0,0.146,0.989,-6.013,6.291,0.0,0.0,-0.316,0.641
92.15,-8.192,8.221,-0.0,-0.0,0.147,0.989,-6.013,6.291,0.0,0.0,-0.316,0.641
92.4,-8.192,8.221,-0.0,-0.0,0.147,0.989,-6.013,6.291,0.0,0.0,-0.316,0.641
92.65,-8.192,8.221,-0.0,-0.0,0.147,0.989,-6.013,6.291,0.0,0.0,-0.316,0.641
93.15,-8.192,8.221,-0.0,-0.0,0.148,0.989,-6.013,6.291,0.0,0.0,-0.316,0.641
93.4,-8.192,8.221,-0.0,-0.0,0.148,0.989,-6.013,6.291,0.0,0.0,-0.316,0.641
93.65,-8.192,8.221,-0.0,-0.0,0.148,0.989,-6.013,6.29,0.0,0.0,-0.316,0.641
94.15,-8.192,8.221,-0.0,-0.0,0.149,0.989,-6.013,6.29,0.0,0.0,-0.316,0.641
94.4,-8.192,8.221,-0.0,-0.0,0.149,0.989,-6.013,6.29,0.0,0.0,-0.316,0.641
94.65,-8.192,8.221,-0.0,-0.0,0.149,0.989,-6.013,6.29,0.0,0.0,-0.316,0.641
95.4,-8.192,8.221,-0.0,-0.0,0.15,0.989,-6.013,6.29,0.0,0.0,-0.316,0.641
95.65,-8.192,8.221,-0.0,-0.0,0.15,0.989,-6.013,6.29,0.0,0.0,-0.316,0.641
95.9,-8.192,8.221,-0.0,-0.0,0.151,0.989,-6.013,6.29,0.0,0.0,-0.316,0.641
96.15,-8.192,8.221,-0.0,-0.0,0.151,0.989,-6.013,6.29,0.0,0.0,-0.316,0.641
96.4,-8.192,8.221,-0.0,-0.0,0.151,0.989,-6.013,6.29,0.0,0.0,-0.316,0.641
96.65,-8.192,8.221,-0.0,-0.0,0.151,0.988,-6.013,6.29,0.0,0.0,-0.316,0.641
96.9,-8.192,8.221,-0.0,-0.0,0.152,0.988,-6.013,6.29,0.0,0.0,-0.316,0.641
97.4,-8.192,8.221,-0.0,-0.0,0.152,0.988,-6.013,6.29,0.0,0.0,-0.316,0.641
97.65,-8.192,8.221,-0.0,-0.0,0.152,0.988,-6.012,6.29,0.0,0.0,-0.316,0.641
97.9,-8.192,8.221,-0.0,-0.0,0.153,0.988,-6.012,6.29,0.0,0.0,-0.316,0.641
98.15,-8.192,8.221,-0.0,-0.0,0.153,0.988,-6.012,6.29,0.0,0.0,-0.316,0.641
98.4,-8.192,8.221,-0.0,-0.0,0.153,0.988,-6.012,6.29,0.0,0.0,-0.316,0.641
99.15,-8.193,8.221,-0.0,-0.0,0.154,0.988,-6.012,6.29,0.0,0.0,-0.316,0.641
99.4,-8.193,8.221,-0.0,-0.0,0.154,0.988,-6.012,6.29,0.0,0.0,-0.316,0.641
99.65,-8.193,8.221,-0.0,-0.0,0.154,0.988,-6.012,6.29,0.0,0.0,-0.316,0.641
99.9,-8.193,8.221,-0.0,-0.0,0.154,0.988,-6.012,6.29,0.0,0.0,-0.316,0.641
100.15,-8.193,8.221,-0.0,-0.0,0.155,0.988,-6.012,6.29,0.0,0.0,-0.316,0.641
100.4,-8.193,8.221,-0.0,-0.0,0.155,0.988,-6.012,6.29,0.0,0.0,-0.316,0.641
100.65,-8.193,8.221,-0.0,-0.0,0.155,0.988,-6.012,6.29,0.0,0.0,-0.316,0.641
101.15,-8.193,8.221,-0.0,-0.0,0.155,0.988,-6.012,6.29,0.0,0.0,-0.316,0.641
101.4,-8.193,8.221,-0.0,-0.0,0.156,0.988,-6.012,6.289,0.0,0.0,-0.316,0.641
101.65,-8.193,8.221,-0.0,-0.0,0.156,0.988,-6.012,6.289,0.0,0.0,-0.316,0.641
101.9,-8.193,8.221,-0.0,-0.0,0.156,0.988,-6.012,6.289,0.0,0.0,-0.316,0.641
102.15,-8.193,8.221,-0.0,-0.0,0.156,0.988,-6.012,6.289,0.0,0.0,-0.316,0.641
102.4,-8.193,8.221,-0.0,-0.0,0.156,0.988,-6.012,6.289,0.0,0.0,-0.316,0.641
128.3,-8.194,8.22,0.0,-0.0,0.17,0.985,-6.012,6.289,0.0,0.0,-0.316,0.641
128.55,-8.194,8.22,0.0,-0.0,0.17,0.985,-6.012,6.289,0.0,0.0,-0.316,0.641
128.8,-8.194,8.22,0.0,-0.0,0.17,0.985,-6.012,6.289,0.0,0.0,-0.316,0.641
129.05,-8.194,8.22,0.0,-0.0,0.17,0.985,-6.012,6.289,0.0,0.0,-0.316,0.641
129.3,-8.194,8.22,0.0,-0.0,0.171,0.985,-6.011,6.289,0.0,0.0,-0.316,0.641
129.55,-8.194,8.22,0.0,-0.0,0.171,0.985,-6.011,6.288,0.0,0.0,-0.316,0.641
130.05,-8.194,8.22,0.0,-0.0,0.171,0.985,-6.011,6.288,0.0,0.0,-0.316,0.641
130.3,-8.194,8.22,0.0,-0.0,0.171,0.985,-6.011,6.288,0.0,0.0,-0.316,0.641
130.55,-8.194,8.22,0.0,-0.0,0.171,0.985,-6.01,6.288,0.0,0.0,-0.316,0.641
130.8,-8.194,8.22,0.0,-0.0,0.171,0.985,-6.01,6.288,0.0,0.0,-0.316,0.641
131.05,-8.194,8.22,0.0,-0.0,0.171,0.985,-6.01,6.287,0.0,0.0,-0.316,0.641
131.3,-8.194,8.22,0.0,-0.0,0.171,0.985,-6.01,6.287,0.0,0.0,-0.316,0.641
131.8,-8.195,8.22,0.0,-0.0,0.171,0.985,-6.01,6.287,0.0,0.0,-0.316,0.641
132.05,-8.195,8.22,0.0,-0.0,0.171,0.985,-6.01,6.287,0.0,0.0,-0.316,0.641
132.3,-8.195,8.22,0.0,-0.0,0.171,0.985,-6.01,6.287,0.0,0.0,-0.316,0.641
134.3,-8.195,8.22,0.0,-0.0,0.172,0.985,-6.01,6.287,0.0,0.0,-0.316,0.641
134.55,-8.195,8.22,0.0,-0.0,0.172,0.985,-6.01,6.287,0.0,0.0,-0.316,0.641
134.8,-8.195,8.22,0.0,-0.0,0.172,0.985,-6.01,6.287,0.0,0.0,-0.316,0.641
135.05,-8.195,8.22,0.0,-0.0,0.172,0.985,-6.01,6.287,0.0,0.0,-0.316,0.641
135.55,-8.195,8.22,0.0,-0.0,0.172,0.985,-6.01,6.287,0.0,0.0,-0.316,0.641
135.8,-8.195,8.22,0.0,-0.0,0.172,0.985,-6.01,6.287,0.0,0.0,-0.316,0.641
136.3,-8.195,8.22,0.0,-0.0,0.173,0.985,-6.01,6.287,0.0,0.0,-0.316,0.641
136.55,-8.195,8.22,0.0,-0.0,0.173,0.985,-6.01,6.287,0.0,0.0,-0.316,0.641
136.8,-8.195,8.22,0.0,-0.0,0.173,0.985,-6.01,6.287,0.0,0.0,-0.316,0.641
137.05,-8.195,8.22,0.0,-0.0,0.173,0.985,-6.01,6.287,0.0,0.0,-0.316,0.641
137.55,-8.195,8.22,0.0,-0.0,0.173,0.985,-6.01,6.287,0.0,0.0,-0.316,0.641
137.8,-8.195,8.22,0.0,-0.0,0.173,0.985,-6.01,6.287,0.0,0.0,-0.316,0.641
138.05,-8.195,8.22,0.0,-0.0,0.173,0.985,-6.01,6.287,0.0,0.0,-0.316,0.641
138.3,-8.195,8.22,0.0,-0.0,0.173,0.985,-6.01,6.287,0.0,0.0,-0.316,0.641
138.55,-8.195,8.22,0.0,-0.0,0.173,0.985,-6.01,6.287,0.0,0.0,-0.316,0.641
138.8,-8.195,8.22,0.0,-0.0,0.173,0.985,-6.01,6.287,0.0,0.0,-0.316,0.641
139.05,-8.195,8.22,0.0,-0.0,0.173,0.985,-6.01,6.287,0.0,0.0,-0.316,0.641
139.3,-8.195,8.22,0.0,-0.0,0.173,0.985,-6.01,6.287,0.0,0.0,-0.316,0.641
139.55,-8.195,8.22,0.0,-0.0,0.173,0.985,-6.01,6.287,0.0,0.0,-0.316,0.641
139.8,-8.195,8.22,0.0,-0.0,0.173,0.985,-6.01,6.287,0.0,0.0,-0.316,0.641
140.3,-8.195,8.22,0.0,-0.0,0.173,0.985,-6.01,6.287,0.0,0.0,-0.316,0.641
140.55,-8.195,8.22,0.0,-0.0,0.174,0.985,-6.01,6.287,0.0,0.0,-0.316,0.641
140.8,-8.195,8.22,0.0,-0.0,0.174,0.985,-6.01,6.287,0.0,0.0,-0.316,0.641
141.05,-8.195,8.22,0.0,-0.0,0.174,0.985,-6.01,6.287,0.0,0.0,-0.316,0.641
141.3,-8.195,8.22,0.0,-0.0,0.174,0.985,-6.01,6.287,0.0,0.0,-0.316,0.641
142.05,-8.195,8.22,0.0,-0.0,0.174,0.985,-6.01,6.287,0.0,0.0,-0.316,0.641
142.3,-8.195,8.22,0.0,-0.0,0.174,0.985,-6.01,6.287,0.0,0.0,-0.316,0.641
142.55,-8.195,8.22,0.0,-0.0,0.174,0.985,-6.01,6.287,0.0,0.0,-0.316,0.641
142.8,-8.195,8.22,0.0,-0.0,0.174,0.985,-6.01,6.287,0.0,0.0,-0.316,0.641
143.3,-8.195,8.22,0.0,-0.0,0.174,0.985,-6.01,6.287,0.0,0.0,-0.316,0.641
143.55,-8.195,8.22,0.0,-0.0,0.174,0.985,-6.01,6.287,0.0,0.0,-0.316,0.641
143.8,-8.195,8.22,0.0,-0.0,0.174,0.985,-6.01,6.287,0.0,0.0,-0.316,0.641
144.05,-8.195,8.22,0.0,-0.0,0.174,0.985,-6.01,6.287,0.0,0.0,-0.316,0.641
144.8,-8.195,8.22,0.0,-0.0,0.174,0.985,-6.01,6.287,0.0,0.0,-0.316,0.641
145.05,-8.195,8.22,0.0,-0.0,0.174,0.985,-6.01,6.287,0.0,0.0,-0.316,0.641
145.3,-8.195,8.22,0.0,-0.0,0.175,0.985,-6.01,6.287,0.0,0.0,-0.316,0.641
145.55,-8.195,8.22,0.0,-0.0,0.175,0.985,-6.01,6.287,0.0,0.0,-0.316,0.641
145.8,-8.195,8.22,0.0,-0.0,0.175,0.985,-6.01,6.287,0.0,0.0,-0.316,0.641
146.05,-8.195,8.22,0.0,-0.0,0.175,0.985,-6.01,6.287,0.0,0.0,-0.316,0.641
146.3,-8.195,8.22,0.0,-0.0,0.175,0.985,-6.01,6.287,0.0,0.0,-0.316,0.641
146.55,-8.195,8.22,0.0,-0.0,0.175,0.985,-6.01,6.287,0.0,0.0,-0.316,0.641
146.8,-8.195,8.22,0.0,-0.0,0.175,0.985,-6.01,6.287,0.0,0.0,-0.316,0.641
147.3,-8.195,8.22,0.0,-0.0,0.175,0.985,-6.01,6.287,0.0,0.0,-0.316,0.641
147.55,-8.195,8.22,0.0,-0.0,0.175,0.985,-6.01,6.287,0.0,0.0,-0.316,0.641
147.8,-8.195,8.22,0.0,-0.0,0.175,0.985,-6.01,6.287,0.0,0.0,-0.316,0.641
148.05,-8.195,8.22,0.0,-0.0,0.175,0.985,-6.01,6.287,0.0,0.0,-0.316,0.641
148.3,-8.196,8.22,0.0,-0.0,0.175,0.985,-6.01,6.287,0.0,0.0,-0.316,0.641
148.55,-8.196,8.22,0.0,-0.0,0.175,0.985,-6.01,6.287,0.0,0.0,-0.316,0.641
148.8,-8.196,8.22,0.0,-0.0,0.175,0.985,-6.01,6.287,0.0,0.0,-0.316,0.641
149.55,-8.196,8.22,0.0,-0.0,0.175,0.985,-6.01,6.287,0.0,0.0,-0.316,0.641
149.8,-8.196,8.22,0.0,-0.0,0.175,0.985,-6.01,6.287,0.0,0.0,-0.316,0.641
150.05,-8.196,8.22,0.0,-0.0,0.175,0.985,-6.01,6.287,0.0,0.0,-0.316,0.641
150.3,-8.196,8.22,0.0,-0.0,0.175,0.985,-6.01,6.287,0.0,0.0,-0.316,0.641
150.55,-8.196,8.22,0.0,-0.0,0.175,0.984,-6.01,6.287,0.0,0.0,-0.316,0.641
150.8,-8.196,8.22,0.0,-0.0,0.175,0.984,-6.01,6.287,0.0,0.0,-0.316,0.641
151.05,-8.196,8.22,0.0,-0.0,0.175,0.984,-6.01,6.287,0.0,0.0,-0.316,0.641
151.3,-8.196,8.22,0.0,-0.0,0.176,0.984,-6.01,6.287,0.0,0.0,-0.316,0.641
151.55,-8.196,8.22,0.0,-0.0,0.176,0.984,-6.01,6.287,0.0,0.0,-0.316,0.641
151.8,-8.196,8.22,0.0,-0.0,0.176,0.984,-6.01,6.287,0.0,0.0,-0.316,0.641
152.05,-8.196,8.22,0.0,-0.0,0.176,0.984,-6.01,6.287,0.0,0.0,-0.316,0.641
152.3,-8.196,8.22,0.0,-0.0,0.176,0.984,-6.01,6.287,0.0,0.0,-0.316,0.641
152.55,-8.196,8.22,0.0,-0.0,0.176,0.984,-6.01,6.287,0.0,0.0,-0.316,0.641
152.8,-8.196,8.22,0.0,-0.0,0.176,0.984,-6.01,6.287,0.0,0.0,-0.316,0.641
153.3,-8.196,8.22,0.0,-0.0,0.176,0.984,-6.01,6.287,0.0,0.0,-0.316,0.641
153.55,-8.196,8.22,0.0,-0.0,0.176,0.984,-6.01,6.287,0.0,0.0,-0.316,0.641
153.8,-8.196,8.22,0.0,-0.0,0.176,0.984,-6.01,6.287,0.0,0.0,-0.316,0.641
154.3,-8.196,8.22,0.0,-0.0,0.176,0.984,-6.01,6.287,0.0,0.0,-0.316,0.641
154.55,-8.196,8.22,0.0,-0.0,0.176,0.984,-6.01,6.287,0.0,0.0,-0.316,0.641
155.3,-8.196,8.22,0.0,-0.0,0.176,0.984,-6.01,6.287,0.0,0.0,-0.316,0.641
155.55,-8.196,8.22,0.0,-0.0,0.176,0.984,-6.01,6.287,0.0,0.0,-0.316,0.641
155.8,-8.196,8.22,0.0,-0.0,0.176,0.984,-6.01,6.287,0.0,0.0,-0.316,0.641
156.3,-8.196,8.22,0.0,-0.0,0.176,0.984,-6.01,6.287,0.0,0.0,-0.316,0.641
156.55,-8.196,8.22,0.0,-0.0,0.176,0.984,-6.01,6.287,0.0,0.0,-0.316,0.641
157.3,-8.196,8.219,0.0,-0.0,0.176,0.984,-6.01,6.287,0.0,0.0,-0.316,0.641
157.8,-8.196,8.219,0.0,-0.0,0.176,0.984,-6.01,6.287,0.0,0.0,-0.316,0.641
158.05,-8.196,8.219,0.0,-0.0,0.176,0.984,-6.01,6.287,0.0,0.0,-0.316,0.641
158.3,-8.196,8.219,0.0,-0.0,0.176,0.984,-6.01,6.287,0.0,0.0,-0.316,0.641
159.05,-8.196,8.219,0.0,-0.0,0.177,0.984,-6.01,6.287,0.0,0.0,-0.316,0.641
159.55,-8.196,8.219,0.0,-0.0,0.177,0.984,-6.01,6.287,0.0,0.0,-0.316,0.641
159.8,-8.196,8.219,0.0,-0.0,0.177,0.984,-6.01,6.287,0.0,0.0,-0.316,0.641
160.05,-8.196,8.219,0.0,-0.0,0.177,0.984,-6.01,6.287,0.0,0.0,-0.316,0.641
160.3,-8.196,8.219,0.0,-0.0,0.177,0.984,-6.01,6.287,0.0,0.0,-0.316,0.641
160.55,-8.196,8.219,0.0,-0.0,0.177,0.984,-6.01,6.287,0.0,0.0,-0.316,0.641
161.05,-8.196,8.219,0.0,-0.0,0.177,0.984,-6.01,6.287,0.0,0.0,-0.316,0.641
161.3,-8.196,8.219,0.0,-0.0,0.177,0.984,-6.01,6.287,0.0,0.0,-0.316,0.641
161.55,-8.196,8.219,0.0,-0.0,0.177,0.984,-6.01,6.287,0.0,0.0,-0.316,0.641
161.8,-8.196,8.219,0.0,-0.0,0.177,0.984,-6.01,6.287,0.0,0.0,-0.316,0.641
162.05,-8.196,8.219,0.0,-0.0,0.177,0.984,-6.01,6.287,0.0,0.0,-0.316,0.641
162.3,-8.196,8.219,0.0,-0.0,0.177,0.984,-6.01,6.287,0.0,0.0,-0.316,0.641
162.8,-8.196,8.219,0.0,-0.0,0.177,0.984,-6.01,6.287,0.0,0.0,-0.316,0.641
163.05,-8.196,8.219,0.0,-0.0,0.177,0.984,-6.01,6.287,0.0,0.0,-0.316,0.641
163.3,-8.196,8.219,0.0,-0.0,0.177,0.984,-6.01,6.287,0.0,0.0,-0.316,0.641
164.05,-8.197,8.219,0.0,-0.0,0.177,0.984,-6.01,6.287,0.0,0.0,-0.316,0.641
164.55,-8.197,8.219,0.0,-0.0,0.177,0.984,-6.01,6.287,0.0,0.0,-0.316,0.641
164.8,-8.197,8.219,0.0,-0.0,0.177,0.984,-6.01,6.287,0.0,0.0,-0.316,0.641
165.05,-8.197,8.219,0.0,-0.0,0.177,0.984,-6.01,6.287,0.0,0.0,-0.316,0.641
165.3,-8.197,8.219,0.0,-0.0,0.177,0.984,-6.01,6.287,0.0,0.0,-0.316,0.641
165.55,-8.197,8.219,0.0,-0.0,0.177,0.984,-6.01,6.287,0.0,0.0,-0.316,0.641
165.8,-8.197,8.219,0.0,-0.0,0.177,0.984,-6.01,6.287,0.0,0.0,-0.316,0.641
166.05,-8.197,8.219,0.0,-0.0,0.177,0.984,-6.01,6.287,0.0,0.0,-0.316,0.641
166.3,-8.197,8.219,0.0,-0.0,0.177,0.984,-6.01,6.287,0.0,0.0,-0.316,0.641
166.55,-8.197,8.219,0.0,-0.0,0.177,0.984,-6.01,6.287,0.0,0.0,-0.316,0.641
166.8,-8.197,8.219,0.0,-0.0,0.177,0.984,-6.01,6.287,0.0,0.0,-0.316,0.641
167.05,-8.197,8.219,0.0,-0.0,0.177,0.984,-6.01,6.287,0.0,0.0,-0.316,0.641
167.3,-8.197,8.219,0.0,-0.0,0.177,0.984,-6.01,6.287,0.0,0.0,-0.316,0.641
167.55,-8.197,8.219,0.0,-0.0,0.177,0.984,-6.01,6.287,0.0,0.0,-0.316,0.641
167.8,-8.197,8.219,0.0,-0.0,0.177,0.984,-6.01,6.287,0.0,0.0,-0.316,0.641
168.05,-8.197,8.219,0.0,-0.0,0.177,0.984,-6.01,6.287,0.0,0.0,-0.316,0.641
168.3,-8.197,8.219,0.0,-0.0,0.178,0.984,-6.01,6.287,0.0,0.0,-0.316,0.641
168.8,-8.197,8.219,0.0,-0.0,0.178,0.984,-6.01,6.287,0.0,0.0,-0.316,0.641
169.05,-8.197,8.219,0.0,-0.0,0.178,0.984,-6.01,6.287,0.0,0.0,-0.316,0.641
169.3,-8.197,8.219,0.0,-0.0,0.178,0.984,-6.01,6.287,0.0,0.0,-0.316,0.641
169.55,-8.197,8.219,0.0,-0.0,0.178,0.984,-6.01,6.287,0.0,0.0,-0.316,0.641
169.8,-8.197,8.219,0.0,-0.0,0.178,0.984,-6.01,6.287,0.0,0.0,-0.316,0.641
170.05,-8.197,8.219,0.0,-0.0,0.178,0.984,-6.01,6.287,0.0,0.0,-0.316,0.641
170.3,-8.197,8.219,0.0,-0.0,0.178,0.984,-6.01,6.287,0.0,0.0,-0.316,0.641
170.55,-8.197,8.219,0.0,-0.0,0.178,0.984,-6.01,6.287,0.0,0.0,-0.316,0.641
170.8,-8.197,8.219,0.0,-0.0,0.178,0.984,-6.01,6.287,0.0,0.0,-0.316,0.641
171.05,-8.197,8.219,0.0,-0.0,0.178,0.984,-6.01,6.287,0.0,0.0,-0.316,0.641
171.3,-8.197,8.219,0.0,-0.0,0.178,0.984,-6.01,6.287,0.0,0.0,-0.316,0.641
171.55,-8.197,8.219,0.0,-0.0,0.178,0.984,-6.01,6.287,0.0,0.0,-0.316,0.641
171.8,-8.197,8.219,0.0,-0.0,0.178,0.984,-6.01,6.287,0.0,0.0,-0.316,0.641
172.05,-8.197,8.219,0.0,-0.0,0.178,0.984,-6.01,6.287,0.0,0.0,-0.316,0.641
172.55,-8.197,8.219,0.0,-0.0,0.178,0.984,-6.01,6.287,0.0,0.0,-0.316,0.641
173.05,-8.197,8.219,0.0,-0.0,0.178,0.984,-6.01,6.287,0.0,0.0,-0.316,0.641
173.3,-8.197,8.219,0.0,-0.0,0.178,0.984,-6.01,6.287,0.0,0.0,-0.316,0.641
173.55,-8.197,8.219,0.0,-0.0,0.178,0.984,-6.01,6.287,0.0,0.0,-0.316,0.641
174.05,-8.197,8.219,0.0,-0.0,0.178,0.984,-6.01,6.287,0.0,0.0,-0.316,0.641
174.55,-8.197,8.219,0.0,-0.0,0.178,0.984,-6.01,6.287,0.0,0.0,-0.316,0.641
175.05,-8.197,8.219,0.0,-0.0,0.178,0.984,-6.01,6.287,0.0,0.0,-0.316,0.641
176.05,-8.197,8.219,0.0,-0.0,0.178,0.984,-6.01,6.287,0.0,0.0,-0.316,0.641
176.8,-8.197,8.219,0.0,-0.0,0.178,0.984,-6.01,6.287,0.0,0.0,-0.316,0.641
177.05,-8.197,8.219,0.0,-0.0,0.178,0.984,-6.01,6.287,0.0,0.0,-0.316,0.641
178.05,-8.198,8.219,0.0,-0.0,0.178,0.984,-6.01,6.287,0.0,0.0,-0.316,0.641
178.3,-8.198,8.219,0.0,-0.0,0.178,0.984,-6.01,6.287,0.0,0.0,-0.316,0.641
178.8,-8.198,8.219,0.0,-0.0,0.178,0.984,-6.01,6.287,0.0,0.0,-0.316,0.641
179.05,-8.198,8.219,0.0,-0.0,0.178,0.984,-6.01,6.287,0.0,0.0,-0.316,0.641
179.3,-8.198,8.219,0.0,-0.0,0.178,0.984,-6.01,6.287,0.0,0.0,-0.316,0.641
179.55,-8.198,8.219,0.0,-0.0,0.178,0.984,-6.01,6.287,0.0,0.0,-0.316,0.641
179.8,-8.198,8.219,0.0,-0.0,0.178,0.984,-6.01,6.287,0.0,0.0,-0.316,0.641
180.05,-8.198,8.219,0.0,-0.0,0.178,0.984,-6.01,6.287,0.0,0.0,-0.316,0.641
180.3,-8.198,8.219,0.0,-0.0,0.178,0.984,-6.01,6.287,0.0,0.0,-0.316,0.641
180.55,-8.198,8.219,0.0,-0.0,0.178,0.984,-6.01,6.287,0.0,0.0,-0.316,0.641
181.05,-8.198,8.219,0.0,-0.0,0.178,0.984,-6.01,6.287,0.0,0.0,-0.316,0.641
181.55,-8.198,8.219,0.0,-0.0,0.178,0.984,-6.01,6.287,0.0,0.0,-0.316,0.641
181.8,-8.198,8.219,0.0,-0.0,0.178,0.984,-6.01,6.287,0.0,0.0,-0.316,0.641
182.05,-8.198,8.219,0.0,-0.0,0.178,0.984,-6.01,6.287,0.0,0.0,-0.316,0.641
182.55,-8.198,8.219,0.0,-0.0,0.179,0.984,-6.01,6.287,0.0,0.0,-0.316,0.641
182.8,-8.198,8.219,0.0,-0.0,0.179,0.984,-6.01,6.287,0.0,0.0,-0.316,0.641
183.05,-8.198,8.219,0.0,-0.0,0.179,0.984,-6.01,6.287,0.0,0.0,-0.316,0.641
183.3,-8.198,8.219,0.0,-0.0,0.179,0.984,-6.01,6.287,0.0,0.0,-0.316,0.641
184.3,-8.198,8.219,0.0,-0.0,0.179,0.984,-6.01,6.287,0.0,0.0,-0.316,0.641
184.55,-8.198,8.219,0.0,-0.0,0.179,0.984,-6.01,6.287,0.0,0.0,-0.316,0.641
184.8,-8.198,8.219,0.0,-0.0,0.179,0.984,-6.01,6.287,0.0,0.0,-0.316,0.641
185.05,-8.198,8.219,0.0,-0.0,0.179,0.984,-6.01,6.287,0.0,0.0,-0.316,0.641
185.3,-8.198,8.219,0.0,-0.0,0.179,0.984,-6.01,6.287,0.0,0.0,-0.316,0.641
185.55,-8.198,8.219,0.0,-0.0,0.179,0.984,-6.01,6.287,0.0,0.0,-0.316,0.641
185.8,-8.198,8.219,0.0,-0.0,0.179,0.984,-6.01,6.287,0.0,0.0,-0.316,0.641
186.05,-8.198,8.219,0.0,-0.0,0.179,0.984,-6.01,6.287,0.0,0.0,-0.316,0.641
186.3,-8.198,8.219,0.0,-0.0,0.179,0.984,-6.01,6.287,0.0,0.0,-0.316,0.641
186.55,-8.198,8.219,0.0,-0.0,0.179,0.984,-6.01,6.287,0.0,0.0,-0.316,0.641
186.8,-8.198,8.219,0.0,-0.0,0.179,0.984,-6.01,6.287,0.0,0.0,-0.316,0.641
187.05,-8.198,8.219,0.0,-0.0,0.179,0.984,-6.01,6.287,0.0,0.0,-0.316,0.641
187.55,-8.198,8.219,0.0,-0.0,0.179,0.984,-6.01,6.287,0.0,0.0,-0.316,0.641
188.05,-8.198,8.219,0.0,-0.0,0.179,0.984,-6.01,6.287,0.0,0.0,-0.316,0.641
188.3,-8.198,8.219,0.0,-0.0,0.179,0.984,-6.01,6.287,0.0,0.0,-0.316,0.641
188.55,-8.198,8.219,0.0,-0.0,0.179,0.984,-6.01,6.287,0.0,0.0,-0.316,0.641
188.8,-8.198,8.219,0.0,-0.0,0.179,0.984,-6.01,6.287,0.0,0.0,-0.316,0.641
189.3,-8.198,8.219,0.0,-0.0,0.179,0.984,-6.01,6.287,0.0,0.0,-0.316,0.641
189.55,-8.198,8.219,0.0,-0.0,0.179,0.984,-6.01,6.287,0.0,0.0,-0.316,0.641
189.8,-8.198,8.219,0.0,-0.0,0.179,0.984,-6.01,6.287,0.0,0.0,-0.316,0.641
190.05,-8.198,8.219,0.0,-0.0,0.179,0.984,-6.01,6.286,0.0,0.0,-0.316,0.641
190.8,-8.198,8.219,0.0,-0.0,0.179,0.984,-6.01,6.286,0.0,0.0,-0.316,0.641
191.05,-8.198,8.219,0.0,-0.0,0.179,0.984,-6.01,6.286,0.0,0.0,-0.316,0.641
191.55,-8.199,8.219,0.0,-0.0,0.179,0.984,-6.01,6.286,0.0,0.0,-0.316,0.641
191.8,-8.199,8.219,0.0,-0.0,0.179,0.984,-6.01,6.286,0.0,0.0,-0.316,0.641
192.05,-8.199,8.219,0.0,-0.0,0.179,0.984,-6.01,6.286,0.0,0.0,-0.316,0.641
192.3,-8.199,8.219,0.0,-0.0,0.179,0.984,-6.01,6.286,0.0,0.0,-0.316,0.641
192.55,-8.199,8.219,0.0,-0.0,0.179,0.984,-6.01,6.286,0.0,0.0,-0.316,0.641
192.8,-8.199,8.219,0.0,-0.0,0.179,0.984,-6.01,6.286,0.0,0.0,-0.316,0.641
193.05,-8.199,8.219,0.0,-0.0,0.179,0.984,-6.01,6.286,0.0,0.0,-0.316,0.641
193.3,-8.199,8.219,0.0,-0.0,0.179,0.984,-6.01,6.286,0.0,0.0,-0.316,0.641
194.3,-8.199,8.218,0.0,-0.0,0.179,0.984,-6.01,6.286,0.0,0.0,-0.316,0.641
194.55,-8.199,8.218,0.0,-0.0,0.179,0.984,-6.01,6.286,0.0,0.0,-0.316,0.641
194.8,-8.199,8.218,0.0,-0.0,0.179,0.984,-6.01,6.286,0.0,0.0,-0.316,0.641
195.3,-8.199,8.218,0.0,-0.0,0.179,0.984,-6.01,6.286,0.0,0.0,-0.316,0.641
195.55,-8.199,8.218,0.0,-0.0,0.179,0.984,-6.01,6.286,0.0,0.0,-0.316,0.641
195.8,-8.199,8.218,0.0,-0.0,0.179,0.984,-6.01,6.286,0.0,0.0,-0.316,0.641
196.05,-8.199,8.218,0.0,-0.0,0.179,0.984,-6.01,6.286,0.0,0.0,-0.316,0.641
196.55,-8.199,8.218,0.0,-0.0,0.179,0.984,-6.01,6.286,0.0,0.0,-0.316,0.641
196.8,-8.199,8.218,0.0,-0.0,0.179,0.984,-6.01,6.286,0.0,0.0,-0.316,0.641
197.05,-8.199,8.218,0.0,-0.0,0.179,0.984,-6.01,6.286,0.0,0.0,-0.316,0.641
197.55,-8.199,8.218,0.0,-0.0,0.179,0.984,-6.01,6.286,0.0,0.0,-0.316,0.641
198.05,-8.199,8.218,0.0,-0.0,0.179,0.984,-6.01,6.286,0.0,0.0,-0.316,0.641
198.3,-8.199,8.218,0.0,-0.0,0.179,0.984,-6.01,6.286,0.0,0.0,-0.316,0.641
198.55,-8.199,8.218,0.0,-0.0,0.179,0.984,-6.01,6.286,0.0,0.0,-0.316,0.641
198.8,-8.199,8.218,0.0,-0.0,0.179,0.984,-6.01,6.286,0.0,0.0,-0.316,0.641
199.05,-8.199,8.218,0.0,-0.0,0.179,0.984,-6.01,6.286,0.0,0.0,-0.316,0.641
199.3,-8.199,8.218,0.0,-0.0,0.179,0.984,-6.01,6.286,0.0,0.0,-0.316,0.641
199.55,-8.199,8.218,0.0,-0.0,0.179,0.984,-6.01,6.286,0.0,0.0,-0.316,0.641
199.8,-8.199,8.218,0.0,-0.0,0.179,0.984,-6.01,6.286,0.0,0.0,-0.316,0.641
200.05,-8.199,8.218,0.0,-0.0,0.179,0.984,-6.01,6.286,0.0,0.0,-0.316,0.641
200.3,-8.199,8.218,0.0,-0.0,0.179,0.984,-6.01,6.286,0.0,0.0,-0.316,0.641
200.55,-8.199,8.218,0.0,-0.0,0.179,0.984,-6.01,6.286,0.0,0.0,-0.316,0.641
201.05,-8.199,8.218,0.0,-0.0,0.179,0.984,-6.01,6.286,0.0,0.0,-0.316,0.641
201.3,-8.199,8.218,0.0,-0.0,0.179,0.984,-6.01,6.286,0.0,0.0,-0.316,0.641
202.3,-8.199,8.218,0.0,-0.0,0.179,0.984,-6.01,6.286,0.0,0.0,-0.316,0.641
202.8,-8.199,8.218,0.0,-0.0,0.179,0.984,-6.01,6.286,0.0,0.0,-0.316,0.641
203.3,-8.199,8.218,0.0,-0.0,0.179,0.984,-6.01,6.286,0.0,0.0,-0.316,0.641
203.8,-8.199,8.218,0.0,-0.0,0.179,0.984,-6.01,6.286,0.0,0.0,-0.316,0.641
204.05,-8.199,8.218,0.0,-0.0,0.179,0.984,-6.01,6.286,0.0,0.0,-0.316,0.641
204.3,-8.199,8.218,0.0,-0.0,0.179,0.984,-6.01,6.286,0.0,0.0,-0.316,0.641
204.55,-8.2,8.218,0.0,-0.0,0.179,0.984,-6.01,6.286,0.0,0.0,-0.316,0.641
256.1,-8.204,8.217,0.0,-0.0,0.18,0.984,-6.01,6.287,0.0,0.0,-0.316,0.641
256.35,-8.204,8.217,0.0,-0.0,0.18,0.984,-6.011,6.287,0.0,0.0,-0.316,0.641
257.1,-8.204,8.217,0.0,-0.0,0.18,0.984,-6.011,6.287,0.0,0.0,-0.316,0.641
257.6,-8.204,8.217,0.0,-0.0,0.18,0.984,-6.011,6.287,0.0,0.0,-0.316,0.641
258.1,-8.204,8.217,0.0,-0.0,0.18,0.984,-6.011,6.287,0.0,0.0,-0.316,0.641
258.85,-8.204,8.217,0.0,-0.0,0.18,0.984,-6.011,6.286,0.0,0.0,-0.316,0.641
259.1,-8.204,8.217,0.0,-0.0,0.18,0.984,-6.01,6.286,0.0,0.0,-0.316,0.641
259.35,-8.204,8.217,0.0,-0.0,0.18,0.984,-6.01,6.286,0.0,0.0,-0.316,0.641
259.6,-8.204,8.217,0.0,-0.0,0.18,0.984,-6.011,6.286,0.0,0.0,-0.316,0.641
259.85,-8.204,8.217,0.0,-0.0,0.18,0.984,-6.011,6.286,0.0,0.0,-0.316,0.641
260.1,-8.204,8.217,0.0,-0.0,0.18,0.984,-6.011,6.286,0.0,0.0,-0.316,0.641
260.35,-8.204,8.217,0.0,-0.0,0.18,0.984,-6.011,6.286,0.0,0.0,-0.316,0.641
260.6,-8.204,8.217,0.0,-0.0,0.18,0.984,-6.011,6.286,0.0,0.0,-0.316,0.641
260.85,-8.204,8.217,0.0,-0.0,0.18,0.984,-6.011,6.286,0.0,0.0,-0.316,0.641
261.35,-8.204,8.216,0.0,-0.0,0.18,0.984,-6.011,6.286,0.0,0.0,-0.316,0.641
261.85,-8.204,8.216,0.0,-0.0,0.18,0.984,-6.011,6.286,0.0,0.0,-0.316,0.641
262.1,-8.204,8.216,0.0,-0.0,0.18,0.984,-6.011,6.286,0.0,0.0,-0.316,0.641
262.35,-8.204,8.216,0.0,-0.0,0.18,0.984,-6.011,6.286,0.0,0.0,-0.316,0.641
262.6,-8.204,8.216,0.0,-0.0,0.18,0.984,-6.011,6.286,0.0,0.0,-0.316,0.641
262.85,-8.204,8.216,0.0,-0.0,0.18,0.984,-6.011,6.286,0.0,0.0,-0.316,0.641
263.35,-8.204,8.216,0.0,-0.0,0.18,0.984,-6.011,6.286,0.0,0.0,-0.316,0.641
263.6,-8.204,8.216,0.0,-0.0,0.18,0.984,-6.011,6.286,0.0,0.0,-0.316,0.641
263.85,-8.204,8.216,0.0,-0.0,0.18,0.984,-6.011,6.286,0.0,0.0,-0.316,0.641
264.1,-8.204,8.216,0.0,-0.0,0.18,0.984,-6.011,6.286,0.0,0.0,-0.316,0.641
264.6,-8.204,8.216,0.0,-0.0,0.18,0.984,-6.011,6.286,0.0,0.0,-0.316,0.641
264.85,-8.204,8.216,0.0,-0.0,0.18,0.984,-6.011,6.286,0.0,0.0,-0.316,0.641
265.1,-8.204,8.216,0.0,-0.0,0.18,0.984,-6.011,6.286,0.0,0.0,-0.316,0.641
265.35,-8.204,8.216,0.0,-0.0,0.18,0.984,-6.011,6.286,0.0,0.0,-0.316,0.641
265.6,-8.204,8.216,0.0,-0.0,0.18,0.984,-6.011,6.286,0.0,0.0,-0.316,0.641
265.85,-8.204,8.216,0.0,-0.0,0.18,0.984,-6.011,6.286,0.0,0.0,-0.316,0.641
266.1,-8.204,8.216,0.0,-0.0,0.18,0.984,-6.011,6.286,0.0,0.0,-0.316,0.641
266.35,-8.204,8.216,0.0,-0.0,0.18,0.984,-6.011,6.286,0.0,0.0,-0.316,0.641
266.6,-8.204,8.216,0.0,-0.0,0.18,0.984,-6.011,6.286,0.0,0.0,-0.316,0.641
266.85,-8.204,8.216,0.0,-0.0,0.18,0.984,-6.011,6.286,0.0,0.0,-0.316,0.641
267.1,-8.204,8.216,0.0,-0.0,0.18,0.984,-6.011,6.286,0.0,0.0,-0.316,0.641
267.35,-8.204,8.216,0.0,-0.0,0.18,0.984,-6.011,6.286,0.0,0.0,-0.316,0.641
267.6,-8.205,8.216,0.0,-0.0,0.18,0.984,-6.011,6.286,0.0,0.0,-0.316,0.641
267.85,-8.205,8.216,0.0,-0.0,0.18,0.984,-6.011,6.286,0.0,0.0,-0.316,0.641
268.1,-8.205,8.216,0.0,-0.0,0.18,0.984,-6.011,6.286,0.0,0.0,-0.316,0.641
268.35,-8.205,8.216,0.0,-0.0,0.18,0.984,-6.011,6.286,0.0,0.0,-0.316,0.641
268.6,-8.205,8.216,0.0,-0.0,0.18,0.984,-6.011,6.286,0.0,0.0,-0.316,0.641
268.85,-8.205,8.216,0.0,-0.0,0.18,0.984,-6.011,6.286,0.0,0.0,-0.316,0.641
269.1,-8.205,8.216,0.0,-0.0,0.18,0.984,-6.011,6.286,0.0,0.0,-0.316,0.641
269.35,-8.205,8.216,0.0,-0.0,0.18,0.984,-6.011,6.286,0.0,0.0,-0.316,0.641
269.6,-8.205,8.216,0.0,-0.0,0.18,0.984,-6.011,6.286,0.0,0.0,-0.316,0.641
269.85,-8.205,8.216,0.0,-0.0,0.18,0.984,-6.011,6.286,0.0,0.0,-0.316,0.641
270.35,-8.205,8.216,0.0,-0.0,0.18,0.984,-6.011,6.286,0.0,0.0,-0.316,0.641
270.6,-8.205,8.216,0.0,-0.0,0.18,0.984,-6.011,6.286,0.0,0.0,-0.316,0.641
271.1,-8.205,8.216,0.0,-0.0,0.18,0.984,-6.011,6.286,0.0,0.0,-0.316,0.641
271.35,-8.205,8.216,0.0,-0.0,0.18,0.984,-6.011,6.286,0.0,0.0,-0.316,0.641
271.85,-8.205,8.216,0.0,-0.0,0.18,0.984,-6.011,6.286,0.0,0.0,-0.316,0.641
272.1,-8.205,8.216,0.0,-0.0,0.18,0.984,-6.011,6.286,0.0,0.0,-0.316,0.641
272.35,-8.205,8.216,0.0,-0.0,0.18,0.984,-6.011,6.286,0.0,0.0,-0.316,0.641
272.6,-8.205,8.216,0.0,-0.0,0.18,0.984,-6.011,6.286,0.0,0.0,-0.316,0.641
273.1,-8.205,8.216,0.0,-0.0,0.18,0.984,-6.011,6.286,0.0,0.0,-0.316,0.641
273.35,-8.205,8.216,0.0,-0.0,0.18,0.984,-6.011,6.286,0.0,0.0,-0.316,0.641
273.6,-8.205,8.216,0.0,-0.0,0.18,0.984,-6.011,6.286,0.0,0.0,-0.316,0.641
273.85,-8.205,8.216,0.0,-0.0,0.18,0.984,-6.011,6.286,0.0,0.0,-0.316,0.641
274.6,-8.205,8.216,0.0,-0.0,0.18,0.984,-6.011,6.286,0.0,0.0,-0.316,0.641
275.1,-8.205,8.216,0.0,-0.0,0.18,0.984,-6.011,6.286,0.0,0.0,-0.316,0.641
275.35,-8.205,8.216,0.0,-0.0,0.18,0.984,-6.011,6.286,0.0,0.0,-0.316,0.641
275.85,-8.205,8.216,0.0,-0.0,0.18,0.984,-6.011,6.286,0.0,0.0,-0.316,0.641
276.1,-8.205,8.216,0.0,-0.0,0.18,0.984,-6.011,6.286,0.0,0.0,-0.316,0.641
276.35,-8.205,8.216,0.0,-0.0,0.18,0.984,-6.011,6.286,0.0,0.0,-0.316,0.641
276.6,-8.205,8.216,0.0,-0.0,0.18,0.984,-6.011,6.286,0.0,0.0,-0.316,0.641
276.85,-8.205,8.216,0.0,-0.0,0.18,0.984,-6.011,6.286,0.0,0.0,-0.316,0.641
277.1,-8.205,8.216,0.0,-0.0,0.18,0.984,-6.011,6.286,0.0,0.0,-0.316,0.641
277.35,-8.205,8.216,0.0,-0.0,0.18,0.984,-6.011,6.286,0.0,0.0,-0.316,0.641
277.6,-8.205,8.216,0.0,-0.0,0.18,0.984,-6.011,6.286,0.0,0.0,-0.316,0.641
277.85,-8.205,8.216,0.0,-0.0,0.18,0.984,-6.011,6.286,0.0,0.0,-0.316,0.641
278.1,-8.205,8.216,0.0,-0.0,0.18,0.984,-6.011,6.286,0.0,0.0,-0.316,0.641
278.6,-8.205,8.216,0.0,-0.0,0.18,0.984,-6.011,6.286,0.0,0.0,-0.316,0.641
278.85,-8.205,8.216,0.0,-0.0,0.18,0.984,-6.011,6.286,0.0,0.0,-0.316,0.641
279.1,-8.205,8.216,0.0,-0.0,0.18,0.984,-6.011,6.286,0.0,0.0,-0.316,0.641
279.35,-8.205,8.216,0.0,-0.0,0.18,0.984,-6.011,6.286,0.0,0.0,-0.316,0.641
279.6,-8.205,8.216,0.0,-0.0,0.18,0.984,-6.011,6.286,0.0,0.0,-0.316,0.641
280.1,-8.206,8.216,0.0,-0.0,0.18,0.984,-6.011,6.286,0.0,0.0,-0.316,0.641
280.35,-8.206,8.216,0.0,-0.0,0.18,0.984,-6.011,6.286,0.0,0.0,-0.316,0.641
280.6,-8.206,8.216,0.0,-0.0,0.18,0.984,-6.011,6.286,0.0,0.0,-0.316,0.641
280.85,-8.206,8.216,0.0,-0.0,0.18,0.984,-6.011,6.286,0.0,0.0,-0.316,0.641
281.35,-8.206,8.216,0.0,-0.0,0.18,0.984,-6.011,6.286,0.0,0.0,-0.316,0.641
281.6,-8.206,8.216,0.0,-0.0,0.18,0.984,-6.011,6.286,0.0,0.0,-0.316,0.641
281.85,-8.206,8.216,0.0,-0.0,0.18,0.984,-6.011,6.286,0.0,0.0,-0.316,0.641
282.1,-8.206,8.216,0.0,-0.0,0.18,0.984,-6.011,6.286,0.0,0.0,-0.316,0.641
282.35,-8.206,8.216,0.0,-0.0,0.18,0.984,-6.011,6.286,0.0,0.0,-0.316,0.641
282.6,-8.206,8.216,0.0,-0.0,0.18,0.984,-6.011,6.286,0.0,0.0,-0.316,0.641
282.85,-8.206,8.216,0.0,-0.0,0.18,0.984,-6.011,6.286,0.0,0.0,-0.316,0.641
283.1,-8.206,8.216,0.0,-0.0,0.18,0.984,-6.011,6.286,0.0,0.0,-0.316,0.641
283.35,-8.206,8.216,0.0,-0.0,0.18,0.984,-6.011,6.286,0.0,0.0,-0.316,0.641
283.6,-8.206,8.216,0.0,-0.0,0.18,0.984,-6.011,6.286,0.0,0.0,-0.316,0.641
283.85,-8.206,8.216,0.0,-0.0,0.18,0.984,-6.011,6.286,0.0,0.0,-0.316,0.641
284.1,-8.206,8.216,0.0,-0.0,0.18,0.984,-6.011,6.286,0.0,0.0,-0.316,0.641
284.35,-8.206,8.216,0.0,-0.0,0.18,0.984,-6.011,6.286,0.0,0.0,-0.316,0.641
284.6,-8.206,8.216,0.0,-0.0,0.18,0.984,-6.011,6.286,0.0,0.0,-0.316,0.641
284.85,-8.206,8.216,0.0,-0.0,0.18,0.984,-6.011,6.286,0.0,0.0,-0.316,0.641
285.1,-8.206,8.216,0.0,-0.0,0.18,0.984,-6.011,6.286,0.0,0.0,-0.316,0.641
285.35,-8.206,8.216,0.0,-0.0,0.18,0.984,-6.011,6.286,0.0,0.0,-0.316,0.641
285.6,-8.206,8.216,0.0,-0.0,0.18,0.984,-6.011,6.286,0.0,0.0,-0.316,0.641
286.85,-8.206,8.216,0.0,-0.0,0.18,0.984,-6.011,6.286,0.0,0.0,-0.316,0.641
287.1,-8.206,8.216,0.0,-0.0,0.18,0.984,-6.011,6.286,0.0,0.0,-0.316,0.641
287.6,-8.206,8.216,0.0,-0.0,0.18,0.984,-6.011,6.286,0.0,0.0,-0.316,0.641
287.85,-8.206,8.216,0.0,-0.0,0.18,0.984,-6.011,6.286,0.0,0.0,-0.316,0.641
288.1,-8.206,8.216,0.0,-0.0,0.18,0.984,-6.011,6.286,0.0,0.0,-0.316,0.641
288.35,-8.206,8.216,0.0,-0.0,0.18,0.984,-6.011,6.286,0.0,0.0,-0.316,0.641
288.6,-8.206,8.216,0.0,-0.0,0.18,0.984,-6.011,6.286,0.0,0.0,-0.316,0.641
288.85,-8.206,8.216,0.0,-0.0,0.18,0.984,-6.011,6.286,0.0,0.0,-0.316,0.641
289.1,-8.206,8.216,0.0,-0.0,0.18,0.984,-6.011,6.286,0.0,0.0,-0.316,0.641
289.35,-8.206,8.216,0.0,-0.0,0.18,0.984,-6.011,6.286,0.0,0.0,-0.316,0.641
289.6,-8.206,8.216,0.0,-0.0,0.18,0.984,-6.011,6.286,0.0,0.0,-0.316,0.641
289.85,-8.206,8.216,0.0,-0.0,0.18,0.984,-6.011,6.286,0.0,0.0,-0.316,0.641
290.35,-8.206,8.216,0.0,-0.0,0.18,0.984,-6.011,6.286,0.0,0.0,-0.316,0.641
290.85,-8.206,8.216,0.0,-0.0,0.18,0.984,-6.011,6.286,0.0,0.0,-0.316,0.641
291.1,-8.206,8.216,0.0,-0.0,0.18,0.984,-6.011,6.286,0.0,0.0,-0.316,0.641
291.35,-8.206,8.216,0.0,-0.0,0.181,0.984,-6.011,6.286,0.0,0.0,-0.316,0.641
291.6,-8.206,8.216,0.0,-0.0,0.181,0.984,-6.011,6.286,0.0,0.0,-0.316,0.641
291.85,-8.206,8.216,0.0,-0.0,0.181,0.984,-6.011,6.286,0.0,0.0,-0.316,0.641
292.1,-8.207,8.216,0.0,-0.0,0.181,0.984,-6.011,6.286,0.0,0.0,-0.316,0.641
292.35,-8.207,8.216,0.0,-0.0,0.181,0.984,-6.011,6.286,0.0,0.0,-0.316,0.641
292.6,-8.207,8.216,0.0,-0.0,0.181,0.984,-6.011,6.286,0.0,0.0,-0.316,0.641
292.85,-8.207,8.216,0.0,-0.0,0.181,0.984,-6.011,6.286,0.0,0.0,-0.316,0.641
293.1,-8.207,8.216,0.0,-0.0,0.181,0.984,-6.011,6.286,0.0,0.0,-0.316,0.641
293.35,-8.207,8.215,0.0,-0.0,0.181,0.984,-6.011,6.286,0.0,0.0,-0.316,0.641
293.6,-8.207,8.215,0.0,-0.0,0.181,0.984,-6.011,6.286,0.0,0.0,-0.316,0.641
293.85,-8.207,8.215,0.0,-0.0,0.181,0.984,-6.011,6.286,0.0,0.0,-0.316,0.641
294.1,-8.207,8.215,0.0,-0.0,0.181,0.984,-6.011,6.286,0.0,0.0,-0.316,0.641
294.85,-8.207,8.215,0.0,-0.0,0.181,0.984,-6.011,6.286,0.0,0.0,-0.316,0.641
295.1,-8.207,8.215,0.0,-0.0,0.181,0.984,-6.011,6.286,0.0,0.0,-0.316,0.641
295.35,-8.207,8.215,0.0,-0.0,0.181,0.984,-6.011,6.286,0.0,0.0,-0.316,0.641
295.6,-8.207,8.215,0.0,-0.0,0.181,0.984,-6.011,6.286,0.0,0.0,-0.316,0.641
295.85,-8.207,8.215,0.0,-0.0,0.181,0.984,-6.011,6.286,0.0,0.0,-0.316,0.641
296.35,-8.207,8.215,0.0,-0.0,0.181,0.984,-6.011,6.286,0.0,0.0,-0.316,0.641
296.6,-8.207,8.215,0.0,-0.0,0.181,0.984,-6.011,6.286,0.0,0.0,-0.316,0.641
296.85,-8.207,8.215,0.0,-0.0,0.181,0.984,-6.011,6.286,0.0,0.0,-0.316,0.641
297.1,-8.207,8.215,0.0,-0.0,0.181,0.984,-6.011,6.286,0.0,0.0,-0.316,0.641
297.35,-8.207,8.215,0.0,-0.0,0.181,0.984,-6.011,6.286,0.0,0.0,-0.316,0.641
297.6,-8.207,8.215,0.0,-0.0,0.181,0.984,-6.011,6.286,0.0,0.0,-0.316,0.641
297.85,-8.207,8.215,0.0,-0.0,0.181,0.984,-6.011,6.286,0.0,0.0,-0.316,0.641
298.1,-8.207,8.215,0.0,-0.0,0.181,0.984,-6.011,6.286,0.0,0.0,-0.316,0.641
298.35,-8.207,8.215,0.0,-0.0,0.181,0.984,-6.011,6.286,0.0,0.0,-0.316,0.641
298.6,-8.207,8.215,0.0,-0.0,0.181,0.984,-6.011,6.286,0.0,0.0,-0.316,0.641
298.85,-8.207,8.215,0.0,-0.0,0.181,0.984,-6.011,6.286,0.0,0.0,-0.316,0.641
299.35,-8.207,8.215,0.0,-0.0,0.181,0.984,-6.011,6.286,0.0,0.0,-0.316,0.641
299.6,-8.207,8.215,0.0,-0.0,0.181,0.984,-6.011,6.286,0.0,0.0,-0.316,0.641
299.85,-8.207,8.215,0.0,-0.0,0.181,0.984,-6.011,6.286,0.0,0.0,-0.316,0.641
300.1,-8.207,8.215,0.0,-0.0,0.181,0.984,-6.011,6.286,0.0,0.0,-0.316,0.641
300.35,-8.207,8.215,0.0,-0.0,0.181,0.984,-6.011,6.286,0.0,0.0,-0.316,0.641
300.6,-8.207,8.215,0.0,-0.0,0.181,0.984,-6.011,6.286,0.0,0.0,-0.316,0.641
300.85,-8.207,8.215,0.0,-0.0,0.181,0.984,-6.011,6.286,0.0,0.0,-0.316,0.641
301.35,-8.207,8.215,0.0,-0.0,0.181,0.984,-6.011,6.286,0.0,0.0,-0.316,0.641
301.85,-8.207,8.215,0.0,-0.0,0.181,0.984,-6.011,6.286,0.0,0.0,-0.316,0.641
302.35,-8.207,8.215,0.0,-0.0,0.181,0.984,-6.011,6.286,0.0,0.0,-0.316,0.641
302.6,-8.207,8.215,0.0,-0.0,0.181,0.984,-6.011,6.286,0.0,0.0,-0.316,0.641
302.85,-8.207,8.215,0.0,-0.0,0.181,0.984,-6.011,6.286,0.0,0.0,-0.316,0.641
303.1,-8.207,8.215,0.0,-0.0,0.181,0.984,-6.011,6.286,0.0,0.0,-0.316,0.641
303.35,-8.207,8.215,0.0,-0.0,0.181,0.984,-6.011,6.286,0.0,0.0,-0.316,0.641
303.6,-8.207,8.215,0.0,-0.0,0.181,0.984,-6.011,6.286,0.0,0.0,-0.316,0.641
303.85,-8.207,8.215,0.0,-0.0,0.181,0.984,-6.011,6.286,0.0,0.0,-0.316,0.641
304.1,-8.207,8.215,0.0,-0.0,0.181,0.984,-6.011,6.286,0.0,0.0,-0.316,0.641
304.35,-8.208,8.215,0.0,-0.0,0.181,0.984,-6.011,6.286,0.0,0.0,-0.316,0.641
304.6,-8.208,8.215,0.0,-0.0,0.181,0.984,-6.011,6.286,0.0,0.0,-0.316,0.641
305.1,-8.208,8.215,0.0,-0.0,0.181,0.984,-6.011,6.286,0.0,0.0,-0.316,0.641
305.35,-8.208,8.215,0.0,-0.0,0.181,0.984,-6.011,6.286,0.0,0.0,-0.316,0.641
305.6,-8.208,8.215,0.0,-0.0,0.181,0.984,-6.011,6.286,0.0,0.0,-0.316,0.641
305.85,-8.208,8.215,0.0,-0.0,0.181,0.984,-6.011,6.286,0.0,0.0,-0.316,0.641
306.1,-8.208,8.215,0.0,-0.0,0.181,0.984,-6.011,6.286,0.0,0.0,-0.316,0.641
306.35,-8.208,8.215,0.0,-0.0,0.181,0.984,-6.011,6.286,0.0,0.0,-0.316,0.641
306.6,-8.208,8.215,0.0,-0.0,0.181,0.984,-6.011,6.286,0.0,0.0,-0.316,0.641
306.85,-8.208,8.215,0.0,-0.0,0.181,0.984,-6.011,6.286,0.0,0.0,-0.316,0.641
307.1,-8.208,8.215,0.0,-0.0,0.181,0.984,-6.011,6.286,0.0,0.0,-0.316,0.641
307.35,-8.208,8.215,0.0,-0.0,0.181,0.984,-6.011,6.286,0.0,0.0,-0.316,0.641
307.6,-8.208,8.215,0.0,-0.0,0.181,0.984,-6.011,6.286,0.0,0.0,-0.316,0.641
308.1,-8.208,8.215,0.0,-0.0,0.181,0.984,-6.011,6.286,0.0,0.0,-0.316,0.641
308.6,-8.208,8.215,0.0,-0.0,0.181,0.984,-6.011,6.286,0.0,0.0,-0.316,0.641
309.1,-8.208,8.215,0.0,-0.0,0.181,0.984,-6.011,6.286,0.0,0.0,-0.316,0.641
309.85,-8.208,8.215,0.0,-0.0,0.181,0.984,-6.011,6.286,0.0,0.0,-0.316,0.641
310.1,-8.208,8.215,0.0,-0.0,0.181,0.984,-6.011,6.286,0.0,0.0,-0.316,0.641
310.6,-8.208,8.215,0.0,-0.0,0.181,0.984,-6.011,6.286,0.0,0.0,-0.316,0.641
311.35,-8.208,8.215,0.0,-0.0,0.181,0.984,-6.011,6.286,0.0,0.0,-0.316,0.641
311.6,-8.208,8.215,0.0,-0.0,0.181,0.984,-6.011,6.286,0.0,0.0,-0.316,0.641
311.85,-8.208,8.215,0.0,-0.0,0.181,0.984,-6.011,6.286,0.0,0.0,-0.316,0.641
312.1,-8.208,8.215,0.0,-0.0,0.181,0.984,-6.011,6.286,0.0,0.0,-0.316,0.641
312.35,-8.208,8.215,0.0,-0.0,0.181,0.984,-6.011,6.286,0.0,0.0,-0.316,0.641
312.6,-8.208,8.215,0.0,-0.0,0.181,0.984,-6.011,6.286,0.0,0.0,-0.316,0.641
312.85,-8.208,8.215,0.0,-0.0,0.181,0.984,-6.011,6.286,0.0,0.0,-0.316,0.641
313.1,-8.208,8.215,0.0,-0.0,0.181,0.984,-6.011,6.286,0.0,0.0,-0.316,0.641
313.35,-8.208,8.215,0.0,-0.0,0.181,0.984,-6.011,6.286,0.0,0.0,-0.316,0.641
313.6,-8.208,8.215,0.0,-0.0,0.181,0.984,-6.011,6.286,0.0,0.0,-0.316,0.641
313.85,-8.208,8.215,0.0,-0.0,0.181,0.984,-6.011,6.286,0.0,0.0,-0.316,0.641
314.1,-8.208,8.215,0.0,-0.0,0.181,0.984,-6.011,6.286,0.0,0.0,-0.316,0.641
314.35,-8.208,8.215,0.0,-0.0,0.181,0.984,-6.011,6.286,0.0,0.0,-0.316,0.641
314.6,-8.208,8.215,0.0,-0.0,0.181,0.984,-6.011,6.286,0.0,0.0,-0.316,0.641
315.1,-8.208,8.215,0.0,-0.0,0.181,0.984,-6.011,6.286,0.0,0.0,-0.316,0.641
315.35,-8.208,8.215,0.0,-0.0,0.181,0.984,-6.011,6.286,0.0,0.0,-0.316,0.641
315.85,-8.208,8.215,0.0,-0.0,0.181,0.984,-6.011,6.286,0.0,0.0,-0.316,0.641
316.35,-8.208,8.215,0.0,-0.0,0.181,0.984,-6.011,6.286,0.0,0.0,-0.316,0.641
316.6,-8.209,8.215,0.0,-0.0,0.181,0.984,-6.011,6.286,0.0,0.0,-0.316,0.641
316.85,-8.209,8.215,0.0,-0.0,0.181,0.984,-6.011,6.286,0.0,0.0,-0.316,0.641
317.1,-8.209,8.215,0.0,-0.0,0.181,0.984,-6.011,6.286,0.0,0.0,-0.316,0.641
317.35,-8.209,8.215,0.0,-0.0,0.181,0.984,-6.011,6.286,0.0,0.0,-0.316,0.641
317.6,-8.209,8.215,0.0,-0.0,0.181,0.984,-6.011,6.286,0.0,0.0,-0.316,0.641
318.35,-8.209,8.215,0.0,-0.0,0.181,0.984,-6.011,6.286,0.0,0.0,-0.316,0.641
318.6,-8.209,8.215,0.0,-0.0,0.181,0.984,-6.011,6.286,0.0,0.0,-0.316,0.641
318.85,-8.209,8.215,0.0,-0.0,0.181,0.984,-6.011,6.286,0.0,0.0,-0.316,0.641
319.1,-8.209,8.215,0.0,-0.0,0.181,0.984,-6.011,6.286,0.0,0.0,-0.316,0.641
319.6,-8.209,8.215,0.0,-0.0,0.181,0.984,-6.011,6.286,0.0,0.0,-0.316,0.641
319.85,-8.209,8.215,0.0,-0.0,0.181,0.984,-6.011,6.286,0.0,0.0,-0.316,0.641
320.1,-8.209,8.215,0.0,-0.0,0.181,0.984,-6.011,6.286,0.0,0.0,-0.316,0.641
320.35,-8.209,8.215,0.0,-0.0,0.181,0.984,-6.011,6.286,0.0,0.0,-0.316,0.641
320.6,-8.209,8.215,0.0,-0.0,0.181,0.984,-6.011,6.286,0.0,0.0,-0.316,0.641
320.85,-8.209,8.215,0.0,-0.0,0.181,0.984,-6.011,6.286,0.0,0.0,-0.316,0.641
321.1,-8.209,8.215,0.0,-0.0,0.181,0.984,-6.011,6.286,0.0,0.0,-0.316,0.641
321.35,-8.209,8.215,0.0,-0.0,0.181,0.984,-6.011,6.286,0.0,0.0,-0.316,0.641
321.85,-8.209,8.215,0.0,-0.0,0.181,0.984,-6.011,6.286,0.0,0.0,-0.316,0.641
322.1,-8.209,8.215,0.0,-0.0,0.181,0.984,-6.011,6.286,0.0,0.0,-0.316,0.641
322.35,-8.209,8.215,0.0,-0.0,0.181,0.984,-6.011,6.286,0.0,0.0,-0.316,0.641
322.6,-8.209,8.215,0.0,-0.0,0.181,0.984,-6.011,6.286,0.0,0.0,-0.316,0.641
323.1,-8.209,8.215,0.0,-0.0,0.181,0.984,-6.011,6.286,0.0,0.0,-0.316,0.641
323.35,-8.209,8.215,0.0,-0.0,0.181,0.984,-6.011,6.286,0.0,0.0,-0.316,0.641
323.6,-8.209,8.215,0.0,-0.0,0.181,0.984,-6.011,6.286,0.0,0.0,-0.316,0.641
324.1,-8.209,8.215,0.0,-0.0,0.181,0.984,-6.011,6.286,0.0,0.0,-0.316,0.641
324.35,-8.209,8.215,0.0,-0.0,0.181,0.984,-6.011,6.286,0.0,0.0,-0.316,0.641
324.85,-8.209,8.215,0.0,-0.0,0.181,0.984,-6.011,6.286,0.0,0.0,-0.316,0.641
325.1,-8.209,8.215,0.0,-0.0,0.181,0.984,-6.011,6.286,0.0,0.0,-0.316,0.641
325.35,-8.209,8.214,0.0,-0.0,0.181,0.984,-6.011,6.286,0.0,0.0,-0.316,0.641
325.85,-8.209,8.214,0.0,-0.0,0.181,0.984,-6.011,6.286,0.0,0.0,-0.316,0.641
326.1,-8.209,8.214,0.0,-0.0,0.181,0.984,-6.011,6.286,0.0,0.0,-0.316,0.641
326.35,-8.209,8.214,0.0,-0.0,0.181,0.984,-6.011,6.286,0.0,0.0,-0.316,0.641
326.6,-8.209,8.214,0.0,-0.0,0.181,0.984,-6.011,6.286,0.0,0.0,-0.316,0.641
326.85,-8.209,8.214,0.0,-0.0,0.181,0.984,-6.011,6.286,0.0,0.0,-0.316,0.641
327.1,-8.209,8.214,0.0,-0.0,0.181,0.984,-6.011,6.286,0.0,0.0,-0.316,0.641
327.35,-8.209,8.214,0.0,-0.0,0.181,0.984,-6.011,6.286,0.0,0.0,-0.316,0.641
327.6,-8.209,8.214,0.0,-0.0,0.181,0.984,-6.011,6.286,0.0,0.0,-0.316,0.641
328.1,-8.209,8.214,0.0,-0.0,0.181,0.984,-6.011,6.286,0.0,0.0,-0.316,0.641
328.35,-8.209,8.214,0.0,-0.0,0.181,0.984,-6.011,6.286,0.0,0.0,-0.316,0.641
328.6,-8.209,8.214,0.0,-0.0,0.181,0.984,-6.011,6.286,0.0,0.0,-0.316,0.641
328.85,-8.21,8.214,0.0,-0.0,0.181,0.984,-6.011,6.286,0.0,0.0,-0.316,0.641
329.1,-8.21,8.214,0.0,-0.0,0.181,0.984,-6.011,6.286,0.0,0.0,-0.316,0.641
329.6,-8.21,8.214,0.0,-0.0,0.181,0.984,-6.011,6.286,0.0,0.0,-0.316,0.641
329.85,-8.21,8.214,0.0,-0.0,0.181,0.984,-6.011,6.286,0.0,0.0,-0.316,0.641
330.1,-8.21,8.214,0.0,-0.0,0.181,0.984,-6.011,6.286,0.0,0.0,-0.316,0.641
330.35,-8.21,8.214,0.0,-0.0,0.181,0.984,-6.011,6.286,0.0,0.0,-0.316,0.641
330.6,-8.21,8.214,0.0,-0.0,0.181,0.984,-6.011,6.286,0.0,0.0,-0.316,0.641
330.85,-8.21,8.214,0.0,-0.0,0.181,0.984,-6.011,6.286,0.0,0.0,-0.316,0.641
331.1,-8.21,8.214,0.0,-0.0,0.181,0.984,-6.011,6.286,0.0,0.0,-0.316,0.641
331.35,-8.21,8.214,0.0,-0.0,0.181,0.984,-6.011,6.286,0.0,0.0,-0.316,0.641
331.6,-8.21,8.214,0.0,-0.0,0.181,0.984,-6.011,6.286,0.0,0.0,-0.316,0.641
331.85,-8.21,8.214,0.0,-0.0,0.181,0.984,-6.011,6.286,0.0,0.0,-0.316,0.641
332.1,-8.21,8.214,0.0,-0.0,0.181,0.984,-6.011,6.286,0.0,0.0,-0.316,0.641
332.35,-8.21,8.214,0.0,-0.0,0.181,0.984,-6.011,6.286,0.0,0.0,-0.316,0.641
332.6,-8.21,8.214,0.0,-0.0,0.181,0.984,-6.011,6.286,0.0,0.0,-0.316,0.641
332.85,-8.21,8.214,0.0,-0.0,0.181,0.984,-6.011,6.286,0.0,0.0,-0.316,0.641
333.1,-8.21,8.214,0.0,-0.0,0.181,0.984,-6.011,6.286,0.0,0.0,-0.316,0.641
333.35,-8.21,8.214,0.0,-0.0,0.181,0.984,-6.011,6.286,0.0,0.0,-0.316,0.641
333.6,-8.21,8.214,0.0,-0.0,0.181,0.984,-6.011,6.286,0.0,0.0,-0.316,0.641
333.85,-8.21,8.214,0.0,-0.0,0.181,0.984,-6.011,6.286,0.0,0.0,-0.316,0.641
334.85,-8.21,8.214,0.0,-0.0,0.181,0.984,-6.011,6.286,0.0,0.0,-0.316,0.641
335.85,-8.21,8.214,0.0,-0.0,0.181,0.984,-6.011,6.286,0.0,0.0,-0.316,0.641
336.1,-8.21,8.214,0.0,-0.0,0.181,0.984,-6.011,6.286,0.0,0.0,-0.316,0.641
336.35,-8.21,8.214,0.0,-0.0,0.181,0.984,-6.011,6.286,0.0,0.0,-0.316,0.641
336.85,-8.21,8.214,0.0,-0.0,0.181,0.984,-6.011,6.286,0.0,0.0,-0.316,0.641
337.1,-8.21,8.214,0.0,-0.0,0.181,0.984,-6.011,6.286,0.0,0.0,-0.316,0.641
337.35,-8.21,8.214,0.0,-0.0,0.181,0.984,-6.011,6.286,0.0,0.0,-0.316,0.641
337.85,-8.21,8.214,0.0,-0.0,0.181,0.984,-6.011,6.286,0.0,0.0,-0.316,0.641
338.1,-8.21,8.214,0.0,-0.0,0.181,0.984,-6.011,6.286,0.0,0.0,-0.316,0.641
338.35,-8.21,8.214,0.0,-0.0,0.181,0.984,-6.011,6.286,0.0,0.0,-0.316,0.641
338.6,-8.21,8.214,0.0,-0.0,0.181,0.984,-6.011,6.286,0.0,0.0,-0.316,0.641
339.35,-8.21,8.214,0.0,-0.0,0.181,0.984,-6.011,6.286,0.0,0.0,-0.316,0.641
340.1,-8.21,8.214,0.0,-0.0,0.181,0.984,-6.011,6.286,0.0,0.0,-0.316,0.641
340.35,-8.21,8.214,0.0,-0.0,0.181,0.984,-6.011,6.286,0.0,0.0,-0.316,0.641
340.6,-8.21,8.214,0.0,-0.0,0.181,0.984,-6.011,6.286,0.0,0.0,-0.316,0.641
340.85,-8.211,8.214,0.0,-0.0,0.181,0.984,-6.011,6.286,0.0,0.0,-0.316,0.641
341.1,-8.211,8.214,0.0,-0.0,0.181,0.984,-6.011,6.286,0.0,0.0,-0.316,0.641
341.85,-8.211,8.214,0.0,-0.0,0.181,0.984,-6.011,6.286,0.0,0.0,-0.316,0.641
342.35,-8.211,8.214,0.0,-0.0,0.181,0.984,-6.011,6.286,0.0,0.0,-0.316,0.641
343.35,-8.211,8.214,0.0,-0.0,0.181,0.984,-6.011,6.286,0.0,0.0,-0.316,0.641
343.85,-8.211,8.214,0.0,-0.0,0.181,0.984,-6.011,6.286,0.0,0.0,-0.316,0.641
344.1,-8.211,8.214,0.0,-0.0,0.181,0.984,-6.011,6.286,0.0,0.0,-0.316,0.641
344.35,-8.211,8.214,0.0,-0.0,0.181,0.984,-6.011,6.286,0.0,0.0,-0.316,0.641
344.6,-8.211,8.214,0.0,-0.0,0.181,0.984,-6.011,6.286,0.0,0.0,-0.316,0.641
344.85,-8.211,8.214,0.0,-0.0,0.181,0.984,-6.011,6.286,0.0,0.0,-0.316,0.641
345.1,-8.211,8.214,0.0,-0.0,0.181,0.984,-6.011,6.286,0.0,0.0,-0.316,0.641
345.35,-8.211,8.214,0.0,-0.0,0.181,0.984,-6.011,6.286,0.0,0.0,-0.316,0.641
345.6,-8.211,8.214,0.0,-0.0,0.181,0.984,-6.011,6.286,0.0,0.0,-0.316,0.641
346.1,-8.211,8.214,0.0,-0.0,0.181,0.984,-6.011,6.286,0.0,0.0,-0.316,0.641
346.35,-8.211,8.214,0.0,-0.0,0.181,0.984,-6.011,6.286,0.0,0.0,-0.316,0.641
346.85,-8.211,8.214,0.0,-0.0,0.181,0.984,-6.011,6.286,0.0,0.0,-0.316,0.641
347.1,-8.211,8.214,0.0,-0.0,0.181,0.984,-6.011,6.286,0.0,0.0,-0.316,0.641
347.35,-8.211,8.214,0.0,-0.0,0.181,0.984,-6.011,6.286,0.0,0.0,-0.316,0.641
347.6,-8.211,8.214,0.0,-0.0,0.181,0.984,-6.011,6.286,0.0,0.0,-0.316,0.641
348.1,-8.211,8.214,0.0,-0.0,0.181,0.984,-6.011,6.286,0.0,0.0,-0.316,0.641
348.35,-8.211,8.214,0.0,-0.0,0.181,0.984,-6.011,6.286,0.0,0.0,-0.316,0.641
348.6,-8.211,8.214,0.0,-0.0,0.181,0.984,-6.011,6.286,0.0,0.0,-0.316,0.641
348.85,-8.211,8.214,0.0,-0.0,0.181,0.984,-6.011,6.286,0.0,0.0,-0.316,0.641
349.1,-8.211,8.214,0.0,-0.0,0.181,0.984,-6.011,6.286,0.0,0.0,-0.316,0.641
349.35,-8.211,8.214,0.0,-0.0,0.181,0.984,-6.011,6.286,0.0,0.0,-0.316,0.641
349.6,-8.211,8.214,0.0,-0.0,0.181,0.984,-6.011,6.286,0.0,0.0,-0.316,0.641
349.85,-8.211,8.214,0.0,-0.0,0.181,0.984,-6.011,6.286,0.0,0.0,-0.316,0.641
350.1,-8.211,8.214,0.0,-0.0,0.181,0.984,-6.011,6.286,0.0,0.0,-0.316,0.641
350.35,-8.211,8.214,0.0,-0.0,0.181,0.984,-6.011,6.286,0.0,0.0,-0.316,0.641
350.85,-8.211,8.214,0.0,-0.0,0.181,0.984,-6.011,6.286,0.0,0.0,-0.316,0.641
351.6,-8.211,8.214,0.0,-0.0,0.181,0.984,-6.011,6.286,0.0,0.0,-0.316,0.641
351.85,-8.211,8.214,0.0,-0.0,0.181,0.984,-6.011,6.286,0.0,0.0,-0.316,0.641
352.35,-8.211,8.214,0.0,-0.0,0.181,0.984,-6.011,6.286,0.0,0.0,-0.316,0.641
352.6,-8.211,8.214,0.0,-0.0,0.181,0.984,-6.011,6.286,0.0,0.0,-0.316,0.641
352.85,-8.212,8.214,0.0,-0.0,0.181,0.984,-6.011,6.286,0.0,0.0,-0.316,0.641
353.1,-8.212,8.214,0.0,-0.0,0.181,0.984,-6.011,6.286,0.0,0.0,-0.316,0.641
353.35,-8.212,8.214,0.0,-0.0,0.181,0.984,-6.011,6.286,0.0,0.0,-0.316,0.641
353.6,-8.212,8.214,0.0,-0.0,0.181,0.984,-6.011,6.286,0.0,0.0,-0.316,0.641
353.85,-8.212,8.214,0.0,-0.0,0.181,0.984,-6.011,6.286,0.0,0.0,-0.316,0.641
354.35,-8.212,8.214,0.0,-0.0,0.181,0.984,-6.012,6.286,0.0,0.0,-0.316,0.641
354.85,-8.212,8.214,0.0,-0.0,0.181,0.984,-6.012,6.286,0.0,0.0,-0.316,0.641
355.35,-8.212,8.214,0.0,-0.0,0.181,0.984,-6.012,6.286,0.0,0.0,-0.316,0.641
355.85,-8.212,8.214,0.0,-0.0,0.181,0.984,-6.012,6.286,0.0,0.0,-0.316,0.641
356.1,-8.212,8.214,0.0,-0.0,0.181,0.984,-6.012,6.286,0.0,0.0,-0.316,0.641
356.35,-8.212,8.214,0.0,-0.0,0.181,0.984,-6.012,6.286,0.0,0.0,-0.316,0.641
356.6,-8.212,8.214,0.0,-0.0,0.181,0.984,-6.012,6.286,0.0,0.0,-0.316,0.641
356.85,-8.212,8.214,0.0,-0.0,0.181,0.984,-6.012,6.286,0.0,0.0,-0.316,0.641
357.1,-8.212,8.213,0.0,-0.0,0.181,0.984,-6.012,6.286,0.0,0.0,-0.316,0.641
357.35,-8.212,8.213,0.0,-0.0,0.181,0.984,-6.012,6.286,0.0,0.0,-0.316,0.641
357.85,-8.212,8.213,0.0,-0.0,0.181,0.984,-6.012,6.286,0.0,0.0,-0.316,0.641
358.1,-8.212,8.213,0.0,-0.0,0.181,0.984,-6.012,6.286,0.0,0.0,-0.316,0.641
358.85,-8.212,8.213,0.0,-0.0,0.181,0.984,-6.012,6.286,0.0,0.0,-0.316,0.641
359.1,-8.212,8.213,0.0,-0.0,0.181,0.984,-6.012,6.286,0.0,0.0,-0.316,0.641
359.35,-8.212,8.213,0.0,-0.0,0.181,0.984,-6.012,6.286,0.0,0.0,-0.316,0.641
359.6,-8.212,8.213,0.0,-0.0,0.181,0.984,-6.012,6.286,0.0,0.0,-0.316,0.641
359.85,-8.212,8.213,0.0,-0.0,0.181,0.984,-6.012,6.286,0.0,0.0,-0.316,0.641
360.1,-8.212,8.213,0.0,-0.0,0.181,0.984,-6.012,6.286,0.0,0.0,-0.316,0.641
360.35,-8.212,8.213,0.0,-0.0,0.181,0.984,-6.012,6.286,0.0,0.0,-0.316,0.641
360.6,-8.212,8.213,0.0,-0.0,0.181,0.984,-6.012,6.286,0.0,0.0,-0.316,0.641
360.85,-8.212,8.213,0.0,-0.0,0.181,0.984,-6.012,6.286,0.0,0.0,-0.316,0.641
361.1,-8.212,8.213,0.0,-0.0,0.181,0.984,-6.012,6.286,0.0,0.0,-0.316,0.641
361.6,-8.212,8.213,0.0,-0.0,0.181,0.984,-6.012,6.286,0.0,0.0,-0.316,0.641
361.85,-8.212,8.213,0.0,-0.0,0.181,0.984,-6.012,6.286,0.0,0.0,-0.316,0.641
362.1,-8.212,8.213,0.0,-0.0,0.181,0.984,-6.012,6.286,0.0,0.0,-0.316,0.641
362.35,-8.212,8.213,0.0,-0.0,0.181,0.984,-6.012,6.286,0.0,0.0,-0.316,0.641
362.6,-8.212,8.213,0.0,-0.0,0.181,0.984,-6.012,6.286,0.0,0.0,-0.316,0.641
362.85,-8.212,8.213,0.0,-0.0,0.181,0.984,-6.012,6.286,0.0,0.0,-0.316,0.641
363.85,-8.212,8.213,0.0,-0.0,0.181,0.984,-6.012,6.286,0.0,0.0,-0.316,0.641
364.35,-8.212,8.213,0.0,-0.0,0.181,0.984,-6.012,6.286,0.0,0.0,-0.316,0.641
364.6,-8.212,8.213,0.0,-0.0,0.181,0.984,-6.012,6.286,0.0,0.0,-0.316,0.641
364.85,-8.213,8.213,0.0,-0.0,0.181,0.984,-6.012,6.286,0.0,0.0,-0.316,0.641
365.35,-8.213,8.213,0.0,-0.0,0.181,0.984,-6.012,6.286,0.0,0.0,-0.316,0.641
365.6,-8.213,8.213,0.0,-0.0,0.181,0.984,-6.012,6.286,0.0,0.0,-0.316,0.641
365.85,-8.213,8.213,0.0,-0.0,0.181,0.984,-6.012,6.286,0.0,0.0,-0.316,0.641
366.35,-8.213,8.213,0.0,-0.0,0.181,0.984,-6.012,6.286,0.0,0.0,-0.316,0.641
366.85,-8.213,8.213,0.0,-0.0,0.181,0.984,-6.012,6.286,0.0,0.0,-0.316,0.641
367.1,-8.213,8.213,0.0,-0.0,0.181,0.984,-6.012,6.286,0.0,0.0,-0.316,0.641
367.35,-8.213,8.213,0.0,-0.0,0.181,0.984,-6.012,6.286,0.0,0.0,-0.316,0.641
367.6,-8.213,8.213,0.0,-0.0,0.181,0.984,-6.012,6.286,0.0,0.0,-0.316,0.641
367.85,-8.213,8.213,0.0,-0.0,0.181,0.984,-6.012,6.286,0.0,0.0,-0.316,0.641
368.35,-8.213,8.213,0.0,-0.0,0.181,0.984,-6.012,6.286,0.0,0.0,-0.316,0.641
368.6,-8.213,8.213,0.0,-0.0,0.181,0.984,-6.012,6.286,0.0,0.0,-0.316,0.641
368.85,-8.213,8.213,0.0,-0.0,0.181,0.984,-6.012,6.286,0.0,0.0,-0.316,0.641
369.1,-8.213,8.213,0.0,-0.0,0.181,0.984,-6.012,6.286,0.0,0.0,-0.316,0.641
369.35,-8.213,8.213,0.0,-0.0,0.181,0.984,-6.012,6.286,0.0,0.0,-0.316,0.641
369.6,-8.213,8.213,0.0,-0.0,0.181,0.984,-6.012,6.286,0.0,0.0,-0.316,0.641
369.85,-8.213,8.213,0.0,-0.0,0.181,0.984,-6.012,6.286,0.0,0.0,-0.316,0.641
370.1,-8.213,8.213,0.0,-0.0,0.181,0.984,-6.012,6.286,0.0,0.0,-0.316,0.641
370.35,-8.213,8.213,0.0,-0.0,0.181,0.984,-6.012,6.286,0.0,0.0,-0.316,0.641
371.1,-8.213,8.213,0.0,-0.0,0.181,0.984,-6.012,6.286,0.0,0.0,-0.316,0.641
371.6,-8.213,8.213,0.0,-0.0,0.181,0.984,-6.012,6.286,0.0,0.0,-0.316,0.641
372.1,-8.213,8.213,0.0,-0.0,0.181,0.984,-6.012,6.286,0.0,0.0,-0.316,0.641
372.35,-8.213,8.213,0.0,-0.0,0.181,0.984,-6.012,6.286,0.0,0.0,-0.316,0.641
372.6,-8.213,8.213,0.0,-0.0,0.181,0.984,-6.012,6.286,0.0,0.0,-0.316,0.641
372.85,-8.213,8.213,0.0,-0.0,0.181,0.984,-6.012,6.286,0.0,0.0,-0.316,0.641
373.1,-8.213,8.213,0.0,-0.0,0.181,0.984,-6.012,6.286,0.0,0.0,-0.316,0.641
373.35,-8.213,8.213,0.0,-0.0,0.181,0.984,-6.012,6.286,0.0,0.0,-0.316,0.641
373.6,-8.213,8.213,0.0,-0.0,0.181,0.984,-6.012,6.286,0.0,0.0,-0.316,0.641
373.85,-8.213,8.213,0.0,-0.0,0.181,0.984,-6.012,6.286,0.0,0.0,-0.316,0.641
374.35,-8.213,8.213,0.0,-0.0,0.181,0.984,-6.012,6.286,0.0,0.0,-0.316,0.641
374.6,-8.213,8.213,0.0,-0.0,0.181,0.984,-6.012,6.286,0.0,0.0,-0.316,0.641
374.85,-8.213,8.213,0.0,-0.0,0.181,0.984,-6.012,6.286,0.0,0.0,-0.316,0.641
375.1,-8.213,8.213,0.0,-0.0,0.181,0.984,-6.012,6.286,0.0,0.0,-0.316,0.641
375.6,-8.213,8.213,0.0,-0.0,0.181,0.984,-6.012,6.286,0.0,0.0,-0.316,0.641
375.85,-8.213,8.213,0.0,-0.0,0.181,0.984,-6.012,6.286,0.0,0.0,-0.316,0.641
376.1,-8.213,8.213,0.0,-0.0,0.181,0.984,-6.012,6.286,0.0,0.0,-0.316,0.641
376.85,-8.214,8.213,0.0,-0.0,0.181,0.984,-6.012,6.286,0.0,0.0,-0.316,0.641
377.35,-8.214,8.213,0.0,-0.0,0.181,0.984,-6.012,6.286,0.0,0.0,-0.316,0.641
377.85,-8.214,8.213,0.0,-0.0,0.181,0.984,-6.012,6.286,0.0,0.0,-0.316,0.641
378.6,-8.214,8.213,0.0,-0.0,0.181,0.984,-6.012,6.286,0.0,0.0,-0.316,0.641
378.85,-8.214,8.213,0.0,-0.0,0.181,0.984,-6.012,6.286,0.0,0.0,-0.316,0.641
379.1,-8.214,8.213,0.0,-0.0,0.181,0.984,-6.012,6.286,0.0,0.0,-0.316,0.641
379.35,-8.214,8.213,0.0,-0.0,0.181,0.984,-6.012,6.286,0.0,0.0,-0.316,0.641
379.6,-8.214,8.213,0.0,-0.0,0.181,0.984,-6.012,6.286,0.0,0.0,-0.316,0.641
379.85,-8.214,8.213,0.0,-0.0,0.181,0.984,-6.012,6.286,0.0,0.0,-0.316,0.641
380.1,-8.214,8.213,0.0,-0.0,0.181,0.984,-6.012,6.286,0.0,0.0,-0.316,0.641
380.35,-8.214,8.213,0.0,-0.0,0.181,0.984,-6.012,6.286,0.0,0.0,-0.316,0.641
380.6,-8.214,8.213,0.0,-0.0,0.181,0.984,-6.012,6.286,0.0,0.0,-0.316,0.641
381.1,-8.214,8.213,0.0,-0.0,0.181,0.984,-6.012,6.286,0.0,0.0,-0.316,0.641
381.35,-8.214,8.213,0.0,-0.0,0.181,0.984,-6.012,6.286,0.0,0.0,-0.316,0.641
381.6,-8.214,8.213,0.0,-0.0,0.181,0.984,-6.012,6.286,0.0,0.0,-0.316,0.641
381.85,-8.214,8.213,0.0,-0.0,0.181,0.984,-6.012,6.286,0.0,0.0,-0.316,0.641
382.35,-8.214,8.213,0.0,-0.0,0.181,0.984,-6.012,6.286,0.0,0.0,-0.316,0.641
382.6,-8.214,8.213,0.0,-0.0,0.181,0.984,-6.012,6.286,0.0,0.0,-0.316,0.641
382.85,-8.214,8.213,0.0,-0.0,0.181,0.984,-6.012,6.286,0.0,0.0,-0.316,0.641
383.1,-8.214,8.213,0.0,-0.0,0.181,0.984,-6.012,6.286,0.0,0.0,-0.316,0.641
383.35,-8.214,8.213,0.0,-0.0,0.181,0.984,-6.012,6.286,0.0,0.0,-0.316,0.641
383.6,-8.214,8.213,0.0,-0.0,0.181,0.984,-6.012,6.286,0.0,0.0,-0.316,0.641
384.1,-8.214,8.213,0.0,-0.0,0.181,0.984,-6.012,6.286,0.0,0.0,-0.316,0.641
385.35,-8.214,8.213,0.0,-0.0,0.181,0.984,-6.012,6.286,0.0,0.0,-0.316,0.641
385.85,-8.214,8.213,0.0,-0.0,0.181,0.984,-6.012,6.286,0.0,0.0,-0.316,0.641
386.35,-8.214,8.213,0.0,-0.0,0.181,0.984,-6.012,6.286,0.0,0.0,-0.316,0.641
386.6,-8.214,8.213,0.0,-0.0,0.181,0.984,-6.012,6.286,0.0,0.0,-0.316,0.641
387.1,-8.214,8.213,0.0,-0.0,0.181,0.984,-6.012,6.286,0.0,0.0,-0.316,0.641
387.35,-8.214,8.213,0.0,-0.0,0.181,0.984,-6.012,6.286,0.0,0.0,-0.316,0.641
387.85,-8.214,8.213,0.0,-0.0,0.181,0.984,-6.012,6.286,0.0,0.0,-0.316,0.641
388.1,-8.214,8.213,0.0,-0.0,0.181,0.984,-6.012,6.286,0.0,0.0,-0.316,0.641
388.35,-8.214,8.213,0.0,-0.0,0.181,0.984,-6.012,6.286,0.0,0.0,-0.316,0.641
388.85,-8.215,8.212,0.0,-0.0,0.181,0.984,-6.012,6.286,0.0,0.0,-0.316,0.642
389.1,-8.215,8.212,0.0,-0.0,0.181,0.984,-6.012,6.286,0.0,0.0,-0.316,0.642
389.35,-8.215,8.212,0.0,-0.0,0.181,0.984,-6.012,6.286,0.0,0.0,-0.316,0.642
389.6,-8.215,8.212,0.0,-0.0,0.181,0.984,-6.012,6.286,0.0,0.0,-0.316,0.642
389.85,-8.215,8.212,0.0,-0.0,0.181,0.984,-6.012,6.286,0.0,0.0,-0.316,0.642
390.1,-8.215,8.212,0.0,-0.0,0.181,0.984,-6.012,6.286,0.0,0.0,-0.316,0.642
390.6,-8.215,8.212,0.0,-0.0,0.181,0.984,-6.012,6.286,0.0,0.0,-0.316,0.642
390.85,-8.215,8.212,0.0,-0.0,0.181,0.984,-6.012,6.286,0.0,0.0,-0.316,0.642
391.1,-8.215,8.212,0.0,-0.0,0.181,0.984,-6.012,6.286,0.0,0.0,-0.316,0.642
391.35,-8.215,8.212,0.0,-0.0,0.181,0.984,-6.012,6.286,0.0,0.0,-0.316,0.642
391.85,-8.215,8.212,0.0,-0.0,0.181,0.984,-6.012,6.286,0.0,0.0,-0.316,0.642
392.1,-8.215,8.212,0.0,-0.0,0.181,0.984,-6.012,6.286,0.0,0.0,-0.316,0.642
392.6,-8.215,8.212,0.0,-0.0,0.181,0.984,-6.012,6.286,0.0,0.0,-0.316,0.642
392.85,-8.215,8.212,0.0,-0.0,0.181,0.984,-6.012,6.286,0.0,0.0,-0.316,0.642
393.6,-8.215,8.212,0.0,-0.0,0.181,0.984,-6.012,6.286,0.0,0.0,-0.316,0.642
393.85,-8.215,8.212,0.0,-0.0,0.181,0.984,-6.012,6.286,0.0,0.0,-0.316,0.642
394.1,-8.215,8.212,0.0,-0.0,0.181,0.984,-6.012,6.286,0.0,0.0,-0.316,0.642
394.35,-8.215,8.212,0.0,-0.0,0.181,0.984,-6.012,6.286,0.0,0.0,-0.316,0.642
394.85,-8.215,8.212,0.0,-0.0,0.181,0.984,-6.012,6.286,0.0,0.0,-0.316,0.642
395.1,-8.215,8.212,0.0,-0.0,0.181,0.984,-6.012,6.286,0.0,0.0,-0.316,0.642
395.35,-8.215,8.212,0.0,-0.0,0.181,0.984,-6.012,6.286,0.0,0.0,-0.316,0.642
395.6,-8.215,8.212,0.0,-0.0,0.181,0.984,-6.012,6.286,0.0,0.0,-0.316,0.642
395.85,-8.215,8.212,0.0,-0.0,0.181,0.984,-6.012,6.286,0.0,0.0,-0.316,0.642
396.1,-8.215,8.212,0.0,-0.0,0.181,0.984,-6.012,6.286,0.0,0.0,-0.316,0.642
396.35,-8.215,8.212,0.0,-0.0,0.181,0.984,-6.012,6.286,0.0,0.0,-0.316,0.642
396.6,-8.215,8.212,0.0,-0.0,0.181,0.984,-6.012,6.286,0.0,0.0,-0.316,0.642
397.1,-8.215,8.212,0.0,-0.0,0.181,0.984,-6.012,6.286,0.0,0.0,-0.316,0.642
397.35,-8.215,8.212,0.0,-0.0,0.181,0.984,-6.012,6.286,0.0,0.0,-0.316,0.642
397.6,-8.215,8.212,0.0,-0.0,0.181,0.984,-6.012,6.286,0.0,0.0,-0.316,0.642
397.85,-8.215,8.212,0.0,-0.0,0.181,0.984,-6.012,6.286,0.0,0.0,-0.316,0.642
398.1,-8.215,8.212,0.0,-0.0,0.181,0.984,-6.012,6.286,0.0,0.0,-0.316,0.642
398.35,-8.215,8.212,0.0,-0.0,0.181,0.984,-6.012,6.286,0.0,0.0,-0.316,0.642
398.85,-8.215,8.212,0.0,-0.0,0.181,0.984,-6.012,6.286,0.0,0.0,-0.316,0.642
399.1,-8.215,8.212,0.0,-0.0,0.181,0.984,-6.012,6.286,0.0,0.0,-0.316,0.642
399.6,-8.215,8.212,0.0,-0.0,0.181,0.984,-6.012,6.286,0.0,0.0,-0.316,0.642
399.85,-8.215,8.212,0.0,-0.0,0.181,0.984,-6.012,6.286,0.0,0.0,-0.316,0.642
400.1,-8.215,8.212,0.0,-0.0,0.181,0.984,-6.012,6.286,0.0,0.0,-0.316,0.642
400.6,-8.215,8.212,0.0,-0.0,0.181,0.984,-6.012,6.286,0.0,0.0,-0.316,0.642
400.85,-8.216,8.212,0.0,-0.0,0.181,0.984,-6.012,6.286,0.0,0.0,-0.316,0.642
401.35,-8.216,8.212,0.0,-0.0,0.181,0.984,-6.012,6.286,0.0,0.0,-0.316,0.642
401.6,-8.216,8.212,0.0,-0.0,0.181,0.984,-6.012,6.286,0.0,0.0,-0.316,0.642
401.85,-8.216,8.212,0.0,-0.0,0.181,0.984,-6.012,6.286,0.0,0.0,-0.316,0.642
402.1,-8.216,8.212,0.0,-0.0,0.181,0.984,-6.012,6.286,0.0,0.0,-0.316,0.642
402.35,-8.216,8.212,0.0,-0.0,0.181,0.984,-6.012,6.286,0.0,0.0,-0.316,0.642
402.6,-8.216,8.212,0.0,-0.0,0.181,0.984,-6.012,6.286,0.0,0.0,-0.316,0.642
403.1,-8.216,8.212,0.0,-0.0,0.181,0.984,-6.012,6.286,0.0,0.0,-0.316,0.642
403.35,-8.216,8.212,0.0,-0.0,0.181,0.984,-6.012,6.286,0.0,0.0,-0.316,0.642
403.6,-8.216,8.212,0.0,-0.0,0.181,0.984,-6.012,6.286,0.0,0.0,-0.316,0.642
403.85,-8.216,8.212,0.0,-0.0,0.181,0.984,-6.012,6.286,0.0,0.0,-0.316,0.642
404.1,-8.216,8.212,0.0,-0.0,0.181,0.984,-6.012,6.286,0.0,0.0,-0.316,0.642
404.35,-8.216,8.212,0.0,-0.0,0.181,0.984,-6.012,6.286,0.0,0.0,-0.316,0.642
404.85,-8.216,8.212,0.0,-0.0,0.181,0.984,-6.012,6.286,0.0,0.0,-0.316,0.642
405.1,-8.216,8.212,0.0,-0.0,0.181,0.984,-6.012,6.286,0.0,0.0,-0.316,0.642
405.6,-8.216,8.212,0.0,-0.0,0.181,0.984,-6.012,6.286,0.0,0.0,-0.316,0.642
405.85,-8.216,8.212,0.0,-0.0,0.181,0.984,-6.012,6.286,0.0,0.0,-0.316,0.642
406.1,-8.216,8.212,0.0,-0.0,0.181,0.984,-6.012,6.286,0.0,0.0,-0.316,0.642
406.35,-8.216,8.212,0.0,-0.0,0.181,0.984,-6.012,6.286,0.0,0.0,-0.316,0.642
406.6,-8.216,8.212,0.0,-0.0,0.181,0.984,-6.012,6.286,0.0,0.0,-0.316,0.642
407.1,-8.216,8.212,0.0,-0.0,0.181,0.984,-6.012,6.286,0.0,0.0,-0.316,0.642
407.35,-8.216,8.212,0.0,-0.0,0.181,0.984,-6.012,6.286,0.0,0.0,-0.316,0.642
407.6,-8.216,8.212,0.0,-0.0,0.181,0.984,-6.012,6.286,0.0,0.0,-0.316,0.642
407.85,-8.216,8.212,0.0,-0.0,0.181,0.984,-6.012,6.286,0.0,0.0,-0.316,0.642
408.1,-8.216,8.212,0.0,-0.0,0.181,0.984,-6.012,6.286,0.0,0.0,-0.316,0.642
408.35,-8.216,8.212,0.0,-0.0,0.181,0.984,-6.012,6.286,0.0,0.0,-0.316,0.642
408.6,-8.216,8.212,0.0,-0.0,0.181,0.984,-6.012,6.286,0.0,0.0,-0.316,0.642
408.85,-8.216,8.212,0.0,-0.0,0.181,0.984,-6.012,6.286,0.0,0.0,-0.316,0.642
409.1,-8.216,8.212,0.0,-0.0,0.181,0.984,-6.012,6.286,0.0,0.0,-0.316,0.642
512.45,-8.225,8.209,0.0,-0.0,0.18,0.984,-6.013,6.286,0.0,0.0,-0.316,0.642
512.7,-8.225,8.209,0.0,-0.0,0.18,0.984,-6.013,6.287,0.0,0.0,-0.316,0.642
512.95,-8.225,8.208,0.0,-0.0,0.18,0.984,-6.013,6.287,0.0,0.0,-0.316,0.642
513.2,-8.225,8.208,0.0,-0.0,0.18,0.984,-6.013,6.286,0.0,0.0,-0.316,0.642
513.45,-8.225,8.208,0.0,-0.0,0.18,0.984,-6.013,6.286,0.0,0.0,-0.316,0.642
513.7,-8.225,8.208,0.0,-0.0,0.18,0.984,-6.013,6.286,0.0,0.0,-0.316,0.642
513.95,-8.225,8.208,0.0,-0.0,0.18,0.984,-6.013,6.286,0.0,0.0,-0.316,0.642
514.2,-8.225,8.208,0.0,-0.0,0.18,0.984,-6.013,6.286,0.0,0.0,-0.316,0.642
514.45,-8.225,8.208,0.0,-0.0,0.18,0.984,-6.013,6.286,0.0,0.0,-0.316,0.642
514.7,-8.225,8.208,0.0,-0.0,0.18,0.984,-6.013,6.286,0.0,0.0,-0.316,0.642
514.95,-8.225,8.208,0.0,-0.0,0.18,0.984,-6.013,6.286,0.0,0.0,-0.316,0.642
515.45,-8.225,8.208,0.0,-0.0,0.18,0.984,-6.013,6.286,0.0,0.0,-0.316,0.642
515.7,-8.225,8.208,0.0,-0.0,0.18,0.984,-6.013,6.286,0.0,0.0,-0.316,0.642
516.45,-8.225,8.208,0.0,-0.0,0.18,0.984,-6.013,6.286,0.0,0.0,-0.316,0.642
516.95,-8.225,8.208,0.0,-0.0,0.18,0.984,-6.013,6.286,0.0,0.0,-0.316,0.642
517.2,-8.225,8.208,0.0,-0.0,0.18,0.984,-6.013,6.286,0.0,0.0,-0.316,0.642
517.7,-8.225,8.208,0.0,-0.0,0.18,0.984,-6.013,6.286,0.0,0.0,-0.316,0.642
517.95,-8.225,8.208,0.0,-0.0,0.18,0.984,-6.013,6.286,0.0,0.0,-0.316,0.642
518.2,-8.225,8.208,0.0,-0.0,0.18,0.984,-6.013,6.286,0.0,0.0,-0.316,0.642
518.45,-8.225,8.208,0.0,-0.0,0.18,0.984,-6.013,6.286,0.0,0.0,-0.316,0.642
518.95,-8.226,8.208,0.0,-0.0,0.18,0.984,-6.013,6.286,0.0,0.0,-0.316,0.642
519.7,-8.226,8.208,0.0,-0.0,0.18,0.984,-6.013,6.286,0.0,0.0,-0.316,0.642
520.2,-8.226,8.208,0.0,-0.0,0.18,0.984,-6.013,6.286,0.0,0.0,-0.316,0.642
520.45,-8.226,8.208,0.0,-0.0,0.18,0.984,-6.013,6.286,0.0,0.0,-0.316,0.642
520.7,-8.226,8.208,0.0,-0.0,0.18,0.984,-6.013,6.286,0.0,0.0,-0.316,0.642
520.95,-8.226,8.208,0.0,-0.0,0.18,0.984,-6.013,6.286,0.0,0.0,-0.316,0.642
521.2,-8.226,8.208,0.0,-0.0,0.18,0.984,-6.013,6.286,0.0,0.0,-0.316,0.642
521.45,-8.226,8.208,0.0,-0.0,0.18,0.984,-6.013,6.286,0.0,0.0,-0.316,0.642
521.7,-8.226,8.208,0.0,-0.0,0.18,0.984,-6.013,6.286,0.0,0.0,-0.316,0.642
521.95,-8.226,8.208,0.0,-0.0,0.18,0.984,-6.013,6.286,0.0,0.0,-0.316,0.642
522.45,-8.226,8.208,0.0,-0.0,0.18,0.984,-6.013,6.286,0.0,0.0,-0.316,0.642
522.7,-8.226,8.208,0.0,-0.0,0.18,0.984,-6.013,6.286,0.0,0.0,-0.316,0.642
523.2,-8.226,8.208,0.0,-0.0,0.18,0.984,-6.013,6.286,0.0,0.0,-0.316,0.642
523.7,-8.226,8.208,0.0,-0.0,0.18,0.984,-6.013,6.286,0.0,0.0,-0.316,0.642
523.95,-8.226,8.208,0.0,-0.0,0.18,0.984,-6.013,6.286,0.0,0.0,-0.316,0.642
524.2,-8.226,8.208,0.0,-0.0,0.18,0.984,-6.013,6.286,0.0,0.0,-0.316,0.642
524.45,-8.226,8.208,0.0,-0.0,0.18,0.984,-6.013,6.286,0.0,0.0,-0.316,0.642
524.7,-8.226,8.208,0.0,-0.0,0.18,0.984,-6.013,6.286,0.0,0.0,-0.316,0.642
525.2,-8.226,8.208,0.0,-0.0,0.18,0.984,-6.013,6.286,0.0,0.0,-0.316,0.642
525.45,-8.226,8.208,0.0,-0.0,0.18,0.984,-6.013,6.286,0.0,0.0,-0.316,0.642
525.7,-8.226,8.208,0.0,-0.0,0.18,0.984,-6.013,6.286,0.0,0.0,-0.316,0.642
525.95,-8.226,8.208,0.0,-0.0,0.18,0.984,-6.013,6.286,0.0,0.0,-0.316,0.642
526.2,-8.226,8.208,0.0,-0.0,0.18,0.984,-6.013,6.286,0.0,0.0,-0.316,0.642
526.45,-8.226,8.208,0.0,-0.0,0.18,0.984,-6.013,6.286,0.0,0.0,-0.316,0.642
526.7,-8.226,8.208,0.0,-0.0,0.18,0.984,-6.013,6.286,0.0,0.0,-0.316,0.642
527.45,-8.226,8.208,0.0,-0.0,0.18,0.984,-6.013,6.286,0.0,0.0,-0.316,0.642
527.7,-8.226,8.208,0.0,-0.0,0.18,0.984,-6.013,6.286,0.0,0.0,-0.316,0.642
528.2,-8.226,8.208,0.0,-0.0,0.18,0.984,-6.013,6.286,0.0,0.0,-0.316,0.642
528.45,-8.226,8.208,0.0,-0.0,0.18,0.984,-6.013,6.286,0.0,0.0,-0.316,0.642
528.7,-8.226,8.208,0.0,-0.0,0.18,0.984,-6.013,6.286,0.0,0.0,-0.316,0.642
528.95,-8.226,8.208,0.0,-0.0,0.18,0.984,-6.013,6.286,0.0,0.0,-0.316,0.642
529.7,-8.226,8.208,0.0,-0.0,0.18,0.984,-6.013,6.286,0.0,0.0,-0.316,0.642
529.95,-8.226,8.208,0.0,-0.0,0.18,0.984,-6.013,6.286,0.0,0.0,-0.316,0.642
530.2,-8.226,8.208,0.0,-0.0,0.18,0.984,-6.013,6.286,0.0,0.0,-0.316,0.642
530.45,-8.227,8.208,0.0,-0.0,0.18,0.984,-6.013,6.286,0.0,0.0,-0.316,0.642
530.7,-8.227,8.208,0.0,-0.0,0.18,0.984,-6.013,6.286,0.0,0.0,-0.316,0.642
530.95,-8.227,8.208,0.0,-0.0,0.18,0.984,-6.014,6.286,0.0,0.0,-0.316,0.642
531.2,-8.227,8.208,0.0,-0.0,0.18,0.984,-6.014,6.286,0.0,0.0,-0.316,0.642
531.45,-8.227,8.208,0.0,-0.0,0.18,0.984,-6.014,6.286,0.0,0.0,-0.316,0.642
531.7,-8.227,8.208,0.0,-0.0,0.18,0.984,-6.014,6.286,0.0,0.0,-0.316,0.642
531.95,-8.227,8.208,0.0,-0.0,0.18,0.984,-6.014,6.286,0.0,0.0,-0.316,0.642
532.45,-8.227,8.208,0.0,-0.0,0.18,0.984,-6.014,6.286,0.0,0.0,-0.316,0.642
532.7,-8.227,8.208,0.0,-0.0,0.18,0.984,-6.014,6.286,0.0,0.0,-0.316,0.642
532.95,-8.227,8.208,0.0,-0.0,0.18,0.984,-6.014,6.286,0.0,0.0,-0.316,0.642
533.45,-8.227,8.208,0.0,-0.0,0.18,0.984,-6.014,6.286,0.0,0.0,-0.316,0.642
533.7,-8.227,8.208,0.0,-0.0,0.18,0.984,-6.014,6.286,0.0,0.0,-0.316,0.642
533.95,-8.227,8.208,0.0,-0.0,0.18,0.984,-6.014,6.286,0.0,0.0,-0.316,0.642
534.2,-8.227,8.208,0.0,-0.0,0.18,0.984,-6.014,6.286,0.0,0.0,-0.316,0.642
534.45,-8.227,8.208,0.0,-0.0,0.18,0.984,-6.014,6.286,0.0,0.0,-0.316,0.642
534.7,-8.227,8.208,0.0,-0.0,0.18,0.984,-6.014,6.286,0.0,0.0,-0.316,0.642
534.95,-8.227,8.208,0.0,-0.0,0.18,0.984,-6.014,6.286,0.0,0.0,-0.316,0.642
535.2,-8.227,8.208,0.0,-0.0,0.18,0.984,-6.014,6.286,0.0,0.0,-0.316,0.642
535.45,-8.227,8.208,0.0,-0.0,0.18,0.984,-6.014,6.286,0.0,0.0,-0.316,0.642
535.7,-8.227,8.208,0.0,-0.0,0.18,0.984,-6.014,6.286,0.0,0.0,-0.316,0.642
535.95,-8.227,8.208,0.0,-0.0,0.18,0.984,-6.014,6.286,0.0,0.0,-0.316,0.642
536.2,-8.227,8.208,0.0,-0.0,0.18,0.984,-6.014,6.286,0.0,0.0,-0.316,0.642
536.45,-8.227,8.208,0.0,-0.0,0.18,0.984,-6.014,6.286,0.0,0.0,-0.316,0.642
536.7,-8.227,8.208,0.0,-0.0,0.18,0.984,-6.014,6.286,0.0,0.0,-0.316,0.642
537.2,-8.227,8.208,0.0,-0.0,0.18,0.984,-6.014,6.286,0.0,0.0,-0.316,0.642
537.45,-8.227,8.208,0.0,-0.0,0.18,0.984,-6.014,6.286,0.0,0.0,-0.316,0.642
537.95,-8.227,8.208,0.0,-0.0,0.18,0.984,-6.014,6.286,0.0,0.0,-0.316,0.642
538.2,-8.227,8.208,0.0,-0.0,0.18,0.984,-6.014,6.286,0.0,0.0,-0.316,0.642
538.7,-8.227,8.208,0.0,-0.0,0.18,0.984,-6.014,6.286,0.0,0.0,-0.316,0.642
538.95,-8.227,8.208,0.0,-0.0,0.18,0.984,-6.014,6.286,0.0,0.0,-0.316,0.642
539.2,-8.227,8.208,0.0,-0.0,0.18,0.984,-6.014,6.286,0.0,0.0,-0.316,0.642
539.95,-8.227,8.208,0.0,-0.0,0.18,0.984,-6.014,6.286,0.0,0.0,-0.316,0.642
540.7,-8.227,8.208,0.0,-0.0,0.18,0.984,-6.014,6.286,0.0,0.0,-0.316,0.642
540.95,-8.227,8.208,0.0,-0.0,0.18,0.984,-6.014,6.286,0.0,0.0,-0.316,0.642
541.2,-8.227,8.208,0.0,-0.0,0.18,0.984,-6.014,6.286,0.0,0.0,-0.316,0.642
541.45,-8.227,8.208,0.0,-0.0,0.18,0.984,-6.014,6.286,0.0,0.0,-0.316,0.642
541.7,-8.227,8.208,0.0,-0.0,0.18,0.984,-6.014,6.286,0.0,0.0,-0.316,0.642
541.95,-8.228,8.208,0.0,-0.0,0.18,0.984,-6.014,6.286,0.0,0.0,-0.316,0.642
542.2,-8.228,8.208,0.0,-0.0,0.18,0.984,-6.014,6.286,0.0,0.0,-0.316,0.642
542.7,-8.228,8.208,0.0,-0.0,0.18,0.984,-6.014,6.286,0.0,0.0,-0.316,0.642
543.45,-8.228,8.208,0.0,-0.0,0.18,0.984,-6.014,6.286,0.0,0.0,-0.316,0.642
543.7,-8.228,8.207,0.0,-0.0,0.18,0.984,-6.014,6.286,0.0,0.0,-0.316,0.642
543.95,-8.228,8.207,0.0,-0.0,0.18,0.984,-6.014,6.286,0.0,0.0,-0.316,0.642
544.2,-8.228,8.207,0.0,-0.0,0.18,0.984,-6.014,6.286,0.0,0.0,-0.316,0.642
544.45,-8.228,8.207,0.0,-0.0,0.18,0.984,-6.014,6.286,0.0,0.0,-0.316,0.642
544.95,-8.228,8.207,0.0,-0.0,0.18,0.984,-6.014,6.286,0.0,0.0,-0.316,0.642
545.2,-8.228,8.207,0.0,-0.0,0.18,0.984,-6.014,6.286,0.0,0.0,-0.316,0.642
545.45,-8.228,8.207,0.0,-0.0,0.18,0.984,-6.014,6.286,0.0,0.0,-0.316,0.642
545.95,-8.228,8.207,0.0,-0.0,0.18,0.984,-6.014,6.286,0.0,0.0,-0.316,0.642
546.2,-8.228,8.207,0.0,-0.0,0.18,0.984,-6.014,6.286,0.0,0.0,-0.316,0.642
546.45,-8.228,8.207,0.0,-0.0,0.18,0.984,-6.014,6.286,0.0,0.0,-0.316,0.642
546.95,-8.228,8.207,0.0,-0.0,0.18,0.984,-6.014,6.286,0.0,0.0,-0.316,0.642
547.2,-8.228,8.207,0.0,-0.0,0.18,0.984,-6.014,6.286,0.0,0.0,-0.316,0.642
547.7,-8.228,8.207,0.0,-0.0,0.18,0.984,-6.014,6.286,0.0,0.0,-0.316,0.642
547.95,-8.228,8.207,0.0,-0.0,0.18,0.984,-6.014,6.286,0.0,0.0,-0.316,0.642
548.45,-8.228,8.207,0.0,-0.0,0.18,0.984,-6.014,6.286,0.0,0.0,-0.316,0.642
548.7,-8.228,8.207,0.0,-0.0,0.18,0.984,-6.014,6.286,0.0,0.0,-0.316,0.642
549.2,-8.228,8.207,0.0,-0.0,0.18,0.984,-6.014,6.286,0.0,0.0,-0.316,0.642
549.45,-8.228,8.207,0.0,-0.0,0.18,0.984,-6.014,6.286,0.0,0.0,-0.316,0.642
549.7,-8.228,8.207,0.0,-0.0,0.18,0.984,-6.014,6.286,0.0,0.0,-0.316,0.642
550.2,-8.228,8.207,0.0,-0.0,0.18,0.984,-6.014,6.286,0.0,0.0,-0.316,0.642
550.45,-8.228,8.207,0.0,-0.0,0.18,0.984,-6.014,6.286,0.0,0.0,-0.316,0.642
550.7,-8.228,8.207,0.0,-0.0,0.18,0.984,-6.014,6.286,0.0,0.0,-0.316,0.642
550.95,-8.228,8.207,0.0,-0.0,0.18,0.984,-6.014,6.286,0.0,0.0,-0.316,0.642
551.2,-8.228,8.207,0.0,-0.0,0.18,0.984,-6.014,6.286,0.0,0.0,-0.316,0.642
551.7,-8.228,8.207,0.0,-0.0,0.18,0.984,-6.014,6.286,0.0,0.0,-0.316,0.642
551.95,-8.228,8.207,0.0,-0.0,0.18,0.984,-6.014,6.286,0.0,0.0,-0.316,0.642
552.2,-8.228,8.207,0.0,-0.0,0.18,0.984,-6.014,6.286,0.0,0.0,-0.316,0.642
552.45,-8.228,8.207,0.0,-0.0,0.18,0.984,-6.014,6.286,0.0,0.0,-0.316,0.642
552.7,-8.228,8.207,0.0,-0.0,0.18,0.984,-6.014,6.286,0.0,0.0,-0.316,0.642
552.95,-8.228,8.207,0.0,-0.0,0.18,0.984,-6.014,6.286,0.0,0.0,-0.316,0.642
553.2,-8.228,8.207,0.0,-0.0,0.18,0.984,-6.014,6.286,0.0,0.0,-0.316,0.642
553.45,-8.229,8.207,0.0,-0.0,0.18,0.984,-6.014,6.286,0.0,0.0,-0.316,0.642
553.7,-8.229,8.207,0.0,-0.0,0.18,0.984,-6.014,6.286,0.0,0.0,-0.316,0.642
553.95,-8.229,8.207,0.0,-0.0,0.18,0.984,-6.014,6.286,0.0,0.0,-0.316,0.642
554.2,-8.229,8.207,0.0,-0.0,0.18,0.984,-6.014,6.286,0.0,0.0,-0.316,0.642
554.7,-8.229,8.207,0.0,-0.0,0.18,0.984,-6.014,6.286,0.0,0.0,-0.316,0.642
555.2,-8.229,8.207,0.0,-0.0,0.18,0.984,-6.014,6.286,0.0,0.0,-0.316,0.642
555.45,-8.229,8.207,0.0,-0.0,0.18,0.984,-6.014,6.286,0.0,0.0,-0.316,0.642
555.95,-8.229,8.207,0.0,-0.0,0.18,0.984,-6.014,6.286,0.0,0.0,-0.316,0.642
556.2,-8.229,8.207,0.0,-0.0,0.18,0.984,-6.014,6.286,0.0,0.0,-0.316,0.642
556.45,-8.229,8.207,0.0,-0.0,0.18,0.984,-6.014,6.286,0.0,0.0,-0.316,0.642
556.7,-8.229,8.207,0.0,-0.0,0.18,0.984,-6.014,6.286,0.0,0.0,-0.316,0.642
556.95,-8.229,8.207,0.0,-0.0,0.18,0.984,-6.014,6.286,0.0,0.0,-0.316,0.642
557.45,-8.229,8.207,0.0,-0.0,0.18,0.984,-6.014,6.286,0.0,0.0,-0.316,0.642
557.7,-8.229,8.207,0.0,-0.0,0.18,0.984,-6.014,6.286,0.0,0.0,-0.316,0.642
558.2,-8.229,8.207,0.0,-0.0,0.18,0.984,-6.014,6.286,0.0,0.0,-0.316,0.642
558.45,-8.229,8.207,0.0,-0.0,0.18,0.984,-6.014,6.286,0.0,0.0,-0.316,0.642
558.7,-8.229,8.207,0.0,-0.0,0.18,0.984,-6.014,6.286,0.0,0.0,-0.316,0.642
558.95,-8.229,8.207,0.0,-0.0,0.18,0.984,-6.014,6.286,0.0,0.0,-0.316,0.642
559.2,-8.229,8.207,0.0,-0.0,0.18,0.984,-6.014,6.286,0.0,0.0,-0.316,0.642
559.45,-8.229,8.207,0.0,-0.0,0.18,0.984,-6.014,6.286,0.0,0.0,-0.316,0.642
559.95,-8.229,8.207,0.0,-0.0,0.18,0.984,-6.014,6.286,0.0,0.0,-0.316,0.642
560.2,-8.229,8.207,0.0,-0.0,0.18,0.984,-6.014,6.286,0.0,0.0,-0.316,0.642
560.45,-8.229,8.207,0.0,-0.0,0.18,0.984,-6.014,6.286,0.0,0.0,-0.316,0.642
560.7,-8.229,8.207,0.0,-0.0,0.18,0.984,-6.014,6.286,0.0,0.0,-0.316,0.642
560.95,-8.229,8.207,0.0,-0.0,0.18,0.984,-6.014,6.286,0.0,0.0,-0.316,0.642
561.2,-8.229,8.207,0.0,-0.0,0.18,0.984,-6.014,6.286,0.0,0.0,-0.316,0.642
561.45,-8.229,8.207,0.0,-0.0,0.18,0.984,-6.014,6.286,0.0,0.0,-0.316,0.642
561.7,-8.229,8.207,0.0,-0.0,0.18,0.984,-6.014,6.286,0.0,0.0,-0.316,0.642
561.95,-8.229,8.207,0.0,-0.0,0.18,0.984,-6.014,6.286,0.0,0.0,-0.316,0.642
562.2,-8.229,8.207,0.0,-0.0,0.18,0.984,-6.014,6.286,0.0,0.0,-0.316,0.642
562.7,-8.229,8.207,0.0,-0.0,0.179,0.984,-6.014,6.286,0.0,0.0,-0.316,0.642
562.95,-8.229,8.207,0.0,-0.0,0.179,0.984,-6.014,6.286,0.0,0.0,-0.316,0.642
563.45,-8.229,8.207,0.0,-0.0,0.179,0.984,-6.014,6.286,0.0,0.0,-0.316,0.642
563.95,-8.229,8.207,0.0,-0.0,0.179,0.984,-6.014,6.286,0.0,0.0,-0.316,0.642
564.2,-8.229,8.207,0.0,-0.0,0.179,0.984,-6.014,6.286,0.0,0.0,-0.316,0.642
564.45,-8.229,8.207,0.0,-0.0,0.179,0.984,-6.014,6.286,0.0,0.0,-0.316,0.642
564.7,-8.229,8.207,0.0,-0.0,0.179,0.984,-6.014,6.286,0.0,0.0,-0.316,0.642
564.95,-8.229,8.207,0.0,-0.0,0.179,0.984,-6.014,6.286,0.0,0.0,-0.316,0.642
565.45,-8.23,8.207,0.0,-0.0,0.179,0.984,-6.014,6.286,0.0,0.0,-0.316,0.642
565.7,-8.23,8.207,0.0,-0.0,0.179,0.984,-6.014,6.286,0.0,0.0,-0.316,0.642
565.95,-8.23,8.207,0.0,-0.0,0.179,0.984,-6.014,6.286,0.0,0.0,-0.316,0.642
566.2,-8.23,8.207,0.0,-0.0,0.179,0.984,-6.014,6.286,0.0,0.0,-0.316,0.642
566.45,-8.23,8.207,0.0,-0.0,0.179,0.984,-6.014,6.286,0.0,0.0,-0.316,0.642
566.95,-8.23,8.207,0.0,-0.0,0.179,0.984,-6.014,6.286,0.0,0.0,-0.316,0.642
567.2,-8.23,8.207,0.0,-0.0,0.179,0.984,-6.014,6.286,0.0,0.0,-0.316,0.642
567.7,-8.23,8.207,0.0,-0.0,0.179,0.984,-6.014,6.286,0.0,0.0,-0.316,0.642
567.95,-8.23,8.207,0.0,-0.0,0.179,0.984,-6.014,6.286,0.0,0.0,-0.316,0.642
568.2,-8.23,8.207,0.0,-0.0,0.179,0.984,-6.014,6.286,0.0,0.0,-0.316,0.642
568.7,-8.23,8.207,0.0,-0.0,0.179,0.984,-6.014,6.286,0.0,0.0,-0.316,0.642
569.2,-8.23,8.207,0.0,-0.0,0.179,0.984,-6.014,6.286,0.0,0.0,-0.316,0.642
569.7,-8.23,8.207,0.0,-0.0,0.179,0.984,-6.014,6.286,0.0,0.0,-0.316,0.642
569.95,-8.23,8.207,0.0,-0.0,0.179,0.984,-6.014,6.286,0.0,0.0,-0.316,0.642
570.2,-8.23,8.207,0.0,-0.0,0.179,0.984,-6.014,6.286,0.0,0.0,-0.316,0.642
570.45,-8.23,8.207,0.0,-0.0,0.179,0.984,-6.014,6.286,0.0,0.0,-0.316,0.642
570.7,-8.23,8.207,0.0,-0.0,0.179,0.984,-6.014,6.286,0.0,0.0,-0.316,0.642
570.95,-8.23,8.207,0.0,-0.0,0.179,0.984,-6.014,6.286,0.0,0.0,-0.316,0.642
571.45,-8.23,8.207,0.0,-0.0,0.179,0.984,-6.014,6.286,0.0,0.0,-0.316,0.642
571.7,-8.23,8.207,0.0,-0.0,0.179,0.984,-6.014,6.286,0.0,0.0,-0.316,0.642
571.95,-8.23,8.207,0.0,-0.0,0.179,0.984,-6.014,6.286,0.0,0.0,-0.316,0.642
572.45,-8.23,8.207,0.0,-0.0,0.179,0.984,-6.014,6.286,0.0,0.0,-0.316,0.642
572.7,-8.23,8.207,0.0,-0.0,0.179,0.984,-6.014,6.286,0.0,0.0,-0.316,0.642
572.95,-8.23,8.207,0.0,-0.0,0.179,0.984,-6.014,6.286,0.0,0.0,-0.316,0.642
573.2,-8.23,8.207,0.0,-0.0,0.179,0.984,-6.014,6.286,0.0,0.0,-0.316,0.642
573.7,-8.23,8.207,0.0,-0.0,0.179,0.984,-6.014,6.286,0.0,0.0,-0.316,0.642
573.95,-8.23,8.207,0.0,-0.0,0.179,0.984,-6.014,6.286,0.0,0.0,-0.316,0.642
574.2,-8.23,8.206,0.0,-0.0,0.179,0.984,-6.014,6.286,0.0,0.0,-0.316,0.642
574.45,-8.23,8.206,0.0,-0.0,0.179,0.984,-6.014,6.286,0.0,0.0,-0.316,0.642
574.7,-8.23,8.206,0.0,-0.0,0.179,0.984,-6.014,6.286,0.0,0.0,-0.316,0.642
575.2,-8.23,8.206,0.0,-0.0,0.179,0.984,-6.014,6.286,0.0,0.0,-0.316,0.642
575.45,-8.23,8.206,0.0,-0.0,0.179,0.984,-6.014,6.286,0.0,0.0,-0.316,0.642
576.2,-8.23,8.206,0.0,-0.0,0.179,0.984,-6.014,6.286,0.0,0.0,-0.316,0.642
576.45,-8.23,8.206,0.0,-0.0,0.179,0.984,-6.014,6.286,0.0,0.0,-0.316,0.642
576.7,-8.231,8.206,0.0,-0.0,0.179,0.984,-6.014,6.286,0.0,0.0,-0.316,0.642
577.2,-8.231,8.206,0.0,-0.0,0.179,0.984,-6.014,6.286,0.0,0.0,-0.316,0.642
577.45,-8.231,8.206,0.0,-0.0,0.179,0.984,-6.014,6.286,0.0,0.0,-0.316,0.642
577.7,-8.231,8.206,0.0,-0.0,0.179,0.984,-6.014,6.286,0.0,0.0,-0.316,0.642
577.95,-8.231,8.206,0.0,-0.0,0.179,0.984,-6.014,6.286,0.0,0.0,-0.316,0.642
578.2,-8.231,8.206,0.0,-0.0,0.179,0.984,-6.014,6.286,0.0,0.0,-0.316,0.642
578.45,-8.231,8.206,0.0,-0.0,0.179,0.984,-6.014,6.286,0.0,0.0,-0.316,0.642
578.7,-8.231,8.206,0.0,-0.0,0.179,0.984,-6.014,6.286,0.0,0.0,-0.316,0.642
579.2,-8.231,8.206,0.0,-0.0,0.179,0.984,-6.014,6.286,0.0,0.0,-0.316,0.642
579.45,-8.231,8.206,0.0,-0.0,0.179,0.984,-6.014,6.286,0.0,0.0,-0.316,0.642
579.95,-8.231,8.206,0.0,-0.0,0.179,0.984,-6.014,6.286,0.0,0.0,-0.316,0.642
580.2,-8.231,8.206,0.0,-0.0,0.179,0.984,-6.014,6.286,0.0,0.0,-0.316,0.642
580.45,-8.231,8.206,0.0,-0.0,0.179,0.984,-6.014,6.286,0.0,0.0,-0.316,0.642
580.7,-8.231,8.206,0.0,-0.0,0.179,0.984,-6.014,6.286,0.0,0.0,-0.316,0.642
580.95,-8.231,8.206,0.0,-0.0,0.179,0.984,-6.014,6.286,0.0,0.0,-0.316,0.642
581.2,-8.231,8.206,0.0,-0.0,0.179,0.984,-6.014,6.286,0.0,0.0,-0.316,0.642
581.45,-8.231,8.206,0.0,-0.0,0.179,0.984,-6.014,6.286,0.0,0.0,-0.316,0.642
581.7,-8.231,8.206,0.0,-0.0,0.179,0.984,-6.014,6.286,0.0,0.0,-0.316,0.642
581.95,-8.231,8.206,0.0,-0.0,0.179,0.984,-6.014,6.286,0.0,0.0,-0.316,0.642
582.45,-8.231,8.206,0.0,-0.0,0.179,0.984,-6.014,6.286,0.0,0.0,-0.316,0.642
582.95,-8.231,8.206,0.0,-0.0,0.179,0.984,-6.014,6.286,0.0,0.0,-0.316,0.642
583.2,-8.231,8.206,0.0,-0.0,0.179,0.984,-6.014,6.286,0.0,0.0,-0.316,0.642
583.7,-8.231,8.206,0.0,-0.0,0.179,0.984,-6.014,6.286,0.0,0.0,-0.316,0.642
584.2,-8.231,8.206,0.0,-0.0,0.179,0.984,-6.014,6.286,0.0,0.0,-0.316,0.642
584.45,-8.231,8.206,0.0,-0.0,0.179,0.984,-6.014,6.286,0.0,0.0,-0.316,0.642
584.95,-8.231,8.206,0.0,-0.0,0.179,0.984,-6.014,6.286,0.0,0.0,-0.316,0.642
585.2,-8.231,8.206,0.0,-0.0,0.179,0.984,-6.014,6.286,0.0,0.0,-0.316,0.642
585.95,-8.231,8.206,0.0,-0.0,0.179,0.984,-6.014,6.286,0.0,0.0,-0.316,0.642
586.2,-8.231,8.206,0.0,-0.0,0.179,0.984,-6.014,6.286,0.0,0.0,-0.316,0.642
586.45,-8.231,8.206,0.0,-0.0,0.179,0.984,-6.014,6.286,0.0,0.0,-0.316,0.642
586.7,-8.231,8.206,0.0,-0.0,0.179,0.984,-6.014,6.286,0.0,0.0,-0.316,0.642
586.95,-8.231,8.206,0.0,-0.0,0.179,0.984,-6.014,6.286,0.0,0.0,-0.316,0.642
587.2,-8.231,8.206,0.0,-0.0,0.179,0.984,-6.014,6.286,0.0,0.0,-0.316,0.642
587.45,-8.231,8.206,0.0,-0.0,0.179,0.984,-6.014,6.286,0.0,0.0,-0.316,0.642
587.7,-8.231,8.206,0.0,-0.0,0.179,0.984,-6.014,6.286,0.0,0.0,-0.316,0.642
587.95,-8.231,8.206,0.0,-0.0,0.179,0.984,-6.014,6.286,0.0,0.0,-0.316,0.642
588.45,-8.232,8.206,0.0,-0.0,0.179,0.984,-6.014,6.286,0.0,0.0,-0.316,0.642
588.95,-8.232,8.206,0.0,-0.0,0.179,0.984,-6.014,6.286,0.0,0.0,-0.316,0.642
589.2,-8.232,8.206,0.0,-0.0,0.179,0.984,-6.014,6.286,0.0,0.0,-0.316,0.642
589.7,-8.232,8.206,0.0,-0.0,0.179,0.984,-6.014,6.286,0.0,0.0,-0.316,0.642
589.95,-8.232,8.206,0.0,-0.0,0.179,0.984,-6.014,6.286,0.0,0.0,-0.316,0.642
590.2,-8.232,8.206,0.0,-0.0,0.179,0.984,-6.014,6.286,0.0,0.0,-0.316,0.642
590.7,-8.232,8.206,0.0,-0.0,0.179,0.984,-6.014,6.286,0.0,0.0,-0.316,0.642
590.95,-8.232,8.206,0.0,-0.0,0.179,0.984,-6.014,6.286,0.0,0.0,-0.316,0.642
591.2,-8.232,8.206,0.0,-0.0,0.179,0.984,-6.014,6.286,0.0,0.0,-0.316,0.642
591.45,-8.232,8.206,0.0,-0.0,0.179,0.984,-6.014,6.286,0.0,0.0,-0.316,0.642
591.7,-8.232,8.206,0.0,-0.0,0.179,0.984,-6.014,6.286,0.0,0.0,-0.316,0.642
592.45,-8.232,8.206,0.0,-0.0,0.179,0.984,-6.014,6.286,0.0,0.0,-0.316,0.642
592.7,-8.232,8.206,0.0,-0.0,0.179,0.984,-6.014,6.286,0.0,0.0,-0.316,0.642
592.95,-8.232,8.206,0.0,-0.0,0.179,0.984,-6.014,6.286,0.0,0.0,-0.316,0.642
593.2,-8.232,8.206,0.0,-0.0,0.179,0.984,-6.014,6.286,0.0,0.0,-0.316,0.642
593.45,-8.232,8.206,0.0,-0.0,0.179,0.984,-6.014,6.286,0.0,0.0,-0.316,0.642
593.7,-8.232,8.206,0.0,-0.0,0.179,0.984,-6.014,6.286,0.0,0.0,-0.316,0.642
593.95,-8.232,8.206,0.0,-0.0,0.179,0.984,-6.014,6.286,0.0,0.0,-0.316,0.642
594.2,-8.232,8.206,0.0,-0.0,0.179,0.984,-6.014,6.286,0.0,0.0,-0.316,0.642
594.45,-8.232,8.206,0.0,-0.0,0.179,0.984,-6.014,6.286,0.0,0.0,-0.316,0.642
594.95,-8.232,8.206,0.0,-0.0,0.179,0.984,-6.014,6.286,0.0,0.0,-0.316,0.642
595.2,-8.232,8.206,0.0,-0.0,0.179,0.984,-6.014,6.286,0.0,0.0,-0.316,0.642
595.7,-8.232,8.206,0.0,-0.0,0.179,0.984,-6.014,6.286,0.0,0.0,-0.316,0.642
595.95,-8.232,8.206,0.0,-0.0,0.179,0.984,-6.014,6.286,0.0,0.0,-0.316,0.642
596.2,-8.232,8.206,0.0,-0.0,0.179,0.984,-6.014,6.286,0.0,0.0,-0.316,0.642
596.7,-8.232,8.206,0.0,-0.0,0.179,0.984,-6.014,6.286,0.0,0.0,-0.316,0.642
596.95,-8.232,8.206,0.0,-0.0,0.179,0.984,-6.014,6.286,0.0,0.0,-0.316,0.642
597.45,-8.232,8.206,0.0,-0.0,0.179,0.984,-6.014,6.286,0.0,0.0,-0.316,0.642
598.2,-8.232,8.206,0.0,-0.0,0.179,0.984,-6.014,6.286,0.0,0.0,-0.316,0.642
598.45,-8.232,8.206,0.0,-0.0,0.179,0.984,-6.014,6.286,0.0,0.0,-0.316,0.642
599.2,-8.232,8.206,0.0,-0.0,0.179,0.984,-6.014,6.286,0.0,0.0,-0.316,0.642
599.7,-8.233,8.206,0.0,-0.0,0.179,0.984,-6.014,6.286,0.0,0.0,-0.316,0.642
599.95,-8.233,8.206,0.0,-0.0,0.179,0.984,-6.014,6.286,0.0,0.0,-0.316,0.642
600.45,-8.233,8.206,0.0,-0.0,0.179,0.984,-6.014,6.286,0.0,0.0,-0.316,0.642
600.7,-8.233,8.206,0.0,-0.0,0.179,0.984,-6.014,6.286,0.0,0.0,-0.316,0.642
601.2,-8.233,8.206,0.0,-0.0,0.179,0.984,-6.014,6.286,0.0,0.0,-0.316,0.642
601.95,-8.233,8.206,0.0,-0.0,0.179,0.984,-6.014,6.286,0.0,0.0,-0.316,0.642
602.2,-8.233,8.206,0.0,-0.0,0.179,0.984,-6.014,6.286,0.0,0.0,-0.316,0.642
602.7,-8.233,8.206,0.0,-0.0,0.179,0.984,-6.014,6.286,0.0,0.0,-0.316,0.642
602.95,-8.233,8.206,0.0,-0.0,0.179,0.984,-6.014,6.286,0.0,0.0,-0.316,0.642
603.45,-8.233,8.206,0.0,-0.0,0.179,0.984,-6.014,6.286,0.0,0.0,-0.316,0.642
603.7,-8.233,8.206,0.0,-0.0,0.179,0.984,-6.014,6.286,0.0,0.0,-0.316,0.642
604.2,-8.233,8.206,0.0,-0.0,0.179,0.984,-6.014,6.286,0.0,0.0,-0.316,0.642
604.45,-8.233,8.206,0.0,-0.0,0.179,0.984,-6.014,6.286,0.0,0.0,-0.316,0.642
604.7,-8.233,8.206,0.0,-0.0,0.179,0.984,-6.014,6.286,0.0,0.0,-0.316,0.642
605.2,-8.233,8.205,0.0,-0.0,0.179,0.984,-6.014,6.286,0.0,0.0,-0.316,0.642
605.45,-8.233,8.205,0.0,-0.0,0.179,0.984,-6.014,6.286,0.0,0.0,-0.316,0.642
605.7,-8.233,8.205,0.0,-0.0,0.179,0.984,-6.014,6.286,0.0,0.0,-0.316,0.642
606.2,-8.233,8.205,0.0,-0.0,0.179,0.984,-6.014,6.286,0.0,0.0,-0.316,0.642
606.45,-8.233,8.205,0.0,-0.0,0.179,0.984,-6.014,6.286,0.0,0.0,-0.316,0.642
606.7,-8.233,8.205,0.0,-0.0,0.179,0.984,-6.014,6.286,0.0,0.0,-0.316,0.642
606.95,-8.233,8.205,0.0,-0.0,0.179,0.984,-6.014,6.286,0.0,0.0,-0.316,0.642
607.2,-8.233,8.205,0.0,-0.0,0.179,0.984,-6.014,6.286,0.0,0.0,-0.316,0.642
607.45,-8.233,8.205,0.0,-0.0,0.179,0.984,-6.014,6.286,0.0,0.0,-0.316,0.642
607.7,-8.233,8.205,0.0,-0.0,0.179,0.984,-6.014,6.286,0.0,0.0,-0.316,0.642
608.2,-8.233,8.205,0.0,-0.0,0.179,0.984,-6.014,6.286,0.0,0.0,-0.316,0.642
608.45,-8.233,8.205,0.0,-0.0,0.179,0.984,-6.014,6.286,0.0,0.0,-0.316,0.642
608.7,-8.233,8.205,0.0,-0.0,0.179,0.984,-6.014,6.286,0.0,0.0,-0.316,0.642
609.2,-8.233,8.205,0.0,-0.0,0.179,0.984,-6.014,6.286,0.0,0.0,-0.316,0.642
609.45,-8.233,8.205,0.0,-0.0,0.179,0.984,-6.014,6.286,0.0,0.0,-0.316,0.642
609.7,-8.233,8.205,0.0,-0.0,0.179,0.984,-6.014,6.286,0.0,0.0,-0.316,0.642
610.2,-8.233,8.205,0.0,-0.0,0.179,0.984,-6.014,6.286,0.0,0.0,-0.316,0.642
610.45,-8.233,8.205,0.0,-0.0,0.179,0.984,-6.014,6.286,0.0,0.0,-0.316,0.642
610.7,-8.233,8.205,0.0,-0.0,0.179,0.984,-6.014,6.286,0.0,0.0,-0.316,0.642
610.95,-8.233,8.205,0.0,-0.0,0.179,0.984,-6.014,6.286,0.0,0.0,-0.316,0.642
611.45,-8.234,8.205,0.0,-0.0,0.179,0.984,-6.014,6.286,0.0,0.0,-0.316,0.642
612.2,-8.234,8.205,0.0,-0.0,0.179,0.984,-6.014,6.286,0.0,0.0,-0.316,0.642
612.45,-8.234,8.205,0.0,-0.0,0.179,0.984,-6.014,6.286,0.0,0.0,-0.316,0.642
613.2,-8.234,8.205,0.0,-0.0,0.179,0.984,-6.014,6.286,0.0,0.0,-0.316,0.642
613.7,-8.234,8.205,0.0,-0.0,0.179,0.984,-6.015,6.286,0.0,0.0,-0.316,0.642
613.95,-8.234,8.205,0.0,-0.0,0.179,0.984,-6.015,6.286,0.0,0.0,-0.316,0.642
614.2,-8.234,8.205,0.0,-0.0,0.179,0.984,-6.015,6.286,0.0,0.0,-0.316,0.642
614.7,-8.234,8.205,0.0,-0.0,0.179,0.984,-6.015,6.286,0.0,0.0,-0.316,0.642
614.95,-8.234,8.205,0.0,-0.0,0.179,0.984,-6.015,6.286,0.0,0.0,-0.316,0.642
615.45,-8.234,8.205,0.0,-0.0,0.179,0.984,-6.015,6.286,0.0,0.0,-0.316,0.642
615.7,-8.234,8.205,0.0,-0.0,0.179,0.984,-6.015,6.286,0.0,0.0,-0.316,0.642
616.2,-8.234,8.205,0.0,-0.0,0.179,0.984,-6.015,6.286,0.0,0.0,-0.316,0.642
616.7,-8.234,8.205,0.0,-0.0,0.179,0.984,-6.015,6.286,0.0,0.0,-0.316,0.642
616.95,-8.234,8.205,0.0,-0.0,0.179,0.984,-6.015,6.286,0.0,0.0,-0.316,0.642
617.2,-8.234,8.205,0.0,-0.0,0.179,0.984,-6.015,6.286,0.0,0.0,-0.316,0.642
617.45,-8.234,8.205,0.0,-0.0,0.179,0.984,-6.015,6.286,0.0,0.0,-0.316,0.642
617.7,-8.234,8.205,0.0,-0.0,0.179,0.984,-6.015,6.286,0.0,0.0,-0.316,0.642
618.2,-8.234,8.205,0.0,-0.0,0.179,0.984,-6.015,6.286,0.0,0.0,-0.316,0.642
618.45,-8.234,8.205,0.0,-0.0,0.179,0.984,-6.015,6.286,0.0,0.0,-0.316,0.642
618.95,-8.234,8.205,0.0,-0.0,0.179,0.984,-6.015,6.286,0.0,0.0,-0.316,0.642
619.7,-8.234,8.205,0.0,-0.0,0.179,0.984,-6.015,6.286,0.0,0.0,-0.316,0.642
620.45,-8.234,8.205,0.0,-0.0,0.179,0.984,-6.015,6.286,0.0,0.0,-0.316,0.642
620.95,-8.234,8.205,0.0,-0.0,0.179,0.984,-6.015,6.286,0.0,0.0,-0.316,0.642
621.2,-8.234,8.205,0.0,-0.0,0.179,0.984,-6.015,6.286,0.0,0.0,-0.316,0.642
622.2,-8.234,8.205,0.0,-0.0,0.179,0.984,-6.015,6.286,0.0,0.0,-0.316,0.642
622.45,-8.234,8.205,0.0,-0.0,0.179,0.984,-6.015,6.286,0.0,0.0,-0.316,0.642
622.95,-8.235,8.205,0.0,-0.0,0.179,0.984,-6.015,6.286,0.0,0.0,-0.316,0.642
623.2,-8.235,8.205,0.0,-0.0,0.179,0.984,-6.015,6.286,0.0,0.0,-0.316,0.642
623.45,-8.235,8.205,0.0,-0.0,0.179,0.984,-6.015,6.286,0.0,0.0,-0.316,0.642
623.7,-8.235,8.205,0.0,-0.0,0.179,0.984,-6.015,6.286,0.0,0.0,-0.316,0.642
623.95,-8.235,8.205,0.0,-0.0,0.179,0.984,-6.015,6.286,0.0,0.0,-0.316,0.642
624.2,-8.235,8.205,0.0,-0.0,0.179,0.984,-6.015,6.286,0.0,0.0,-0.316,0.642
624.45,-8.235,8.205,0.0,-0.0,0.179,0.984,-6.015,6.286,0.0,0.0,-0.316,0.642
624.7,-8.235,8.205,0.0,-0.0,0.179,0.984,-6.015,6.286,0.0,0.0,-0.316,0.642
624.95,-8.235,8.205,0.0,-0.0,0.179,0.984,-6.015,6.286,0.0,0.0,-0.316,0.642
625.2,-8.235,8.205,0.0,-0.0,0.179,0.984,-6.015,6.286,0.0,0.0,-0.316,0.642
625.95,-8.235,8.205,0.0,-0.0,0.179,0.984,-6.015,6.286,0.0,0.0,-0.316,0.642
626.45,-8.235,8.205,0.0,-0.0,0.179,0.984,-6.015,6.286,0.0,0.0,-0.316,0.642
626.7,-8.235,8.205,0.0,-0.0,0.179,0.984,-6.015,6.286,0.0,0.0,-0.316,0.642
626.95,-8.235,8.205,0.0,-0.0,0.179,0.984,-6.015,6.286,0.0,0.0,-0.316,0.642
627.2,-8.235,8.205,0.0,-0.0,0.179,0.984,-6.015,6.286,0.0,0.0,-0.316,0.642
627.95,-8.235,8.205,0.0,-0.0,0.179,0.984,-6.015,6.286,0.0,0.0,-0.316,0.642
628.2,-8.235,8.205,0.0,-0.0,0.179,0.984,-6.015,6.286,0.0,0.0,-0.316,0.642
628.7,-8.235,8.205,0.0,-0.0,0.179,0.984,-6.015,6.286,0.0,0.0,-0.316,0.642
629.45,-8.235,8.205,0.0,-0.0,0.179,0.984,-6.015,6.286,0.0,0.0,-0.316,0.642
629.95,-8.235,8.205,0.0,-0.0,0.179,0.984,-6.015,6.286,0.0,0.0,-0.316,0.642
630.2,-8.235,8.205,0.0,-0.0,0.179,0.984,-6.015,6.286,0.0,0.0,-0.316,0.642
630.7,-8.235,8.205,0.0,-0.0,0.179,0.984,-6.015,6.286,0.0,0.0,-0.316,0.642
630.95,-8.235,8.205,0.0,-0.0,0.179,0.984,-6.015,6.286,0.0,0.0,-0.316,0.642
631.2,-8.235,8.205,0.0,-0.0,0.179,0.984,-6.015,6.286,0.0,0.0,-0.316,0.642
631.45,-8.235,8.205,0.0,-0.0,0.179,0.984,-6.015,6.286,0.0,0.0,-0.316,0.642
631.7,-8.235,8.205,0.0,-0.0,0.179,0.984,-6.015,6.286,0.0,0.0,-0.316,0.642
631.95,-8.235,8.205,0.0,-0.0,0.179,0.984,-6.015,6.286,0.0,0.0,-0.316,0.642
632.2,-8.235,8.205,0.0,-0.0,0.179,0.984,-6.015,6.286,0.0,0.0,-0.316,0.642
632.45,-8.235,8.205,0.0,-0.0,0.179,0.984,-6.015,6.286,0.0,0.0,-0.316,0.642
632.95,-8.235,8.205,0.0,-0.0,0.179,0.984,-6.015,6.286,0.0,0.0,-0.316,0.642
633.2,-8.235,8.205,0.0,-0.0,0.179,0.984,-6.015,6.286,0.0,0.0,-0.316,0.642
633.7,-8.235,8.205,0.0,-0.0,0.179,0.984,-6.015,6.286,0.0,0.0,-0.316,0.642
633.95,-8.235,8.205,0.0,-0.0,0.179,0.984,-6.015,6.286,0.0,0.0,-0.316,0.642
634.2,-8.236,8.205,0.0,-0.0,0.179,0.984,-6.015,6.286,0.0,0.0,-0.316,0.642
634.45,-8.236,8.205,0.0,-0.0,0.179,0.984,-6.015,6.286,0.0,0.0,-0.316,0.642
634.95,-8.236,8.205,0.0,-0.0,0.179,0.984,-6.015,6.286,0.0,0.0,-0.316,0.642
635.2,-8.236,8.205,0.0,-0.0,0.179,0.984,-6.015,6.286,0.0,0.0,-0.316,0.642
635.45,-8.236,8.204,0.0,-0.0,0.179,0.984,-6.015,6.286,0.0,0.0,-0.316,0.642
635.7,-8.236,8.204,0.0,-0.0,0.179,0.984,-6.015,6.286,0.0,0.0,-0.316,0.642
636.45,-8.236,8.204,0.0,-0.0,0.179,0.984,-6.015,6.286,0.0,0.0,-0.316,0.642
636.7,-8.236,8.204,0.0,-0.0,0.179,0.984,-6.015,6.286,0.0,0.0,-0.316,0.642
636.95,-8.236,8.204,0.0,-0.0,0.179,0.984,-6.015,6.286,0.0,0.0,-0.316,0.642
637.2,-8.236,8.204,0.0,-0.0,0.179,0.984,-6.015,6.286,0.0,0.0,-0.316,0.642
637.45,-8.236,8.204,0.0,-0.0,0.179,0.984,-6.015,6.286,0.0,0.0,-0.316,0.642
637.7,-8.236,8.204,0.0,-0.0,0.179,0.984,-6.015,6.286,0.0,0.0,-0.316,0.642
637.95,-8.236,8.204,0.0,-0.0,0.179,0.984,-6.015,6.286,0.0,0.0,-0.316,0.642
638.2,-8.236,8.204,0.0,-0.0,0.179,0.984,-6.015,6.286,0.0,0.0,-0.316,0.642
638.45,-8.236,8.204,0.0,-0.0,0.179,0.984,-6.015,6.286,0.0,0.0,-0.316,0.642
638.7,-8.236,8.204,0.0,-0.0,0.179,0.984,-6.015,6.286,0.0,0.0,-0.316,0.642
638.95,-8.236,8.204,0.0,-0.0,0.179,0.984,-6.015,6.286,0.0,0.0,-0.316,0.642
639.45,-8.236,8.204,0.0,-0.0,0.179,0.984,-6.015,6.286,0.0,0.0,-0.316,0.642
639.95,-8.236,8.204,0.0,-0.0,0.179,0.984,-6.015,6.286,0.0,0.0,-0.316,0.642
640.7,-8.236,8.204,0.0,-0.0,0.179,0.984,-6.015,6.286,0.0,0.0,-0.316,0.642
640.95,-8.236,8.204,0.0,-0.0,0.179,0.984,-6.015,6.286,0.0,0.0,-0.316,0.642
641.2,-8.236,8.204,0.0,-0.0,0.179,0.984,-6.015,6.286,0.0,0.0,-0.316,0.642
641.45,-8.236,8.204,0.0,-0.0,0.179,0.984,-6.015,6.286,0.0,0.0,-0.316,0.642
641.95,-8.236,8.204,0.0,-0.0,0.179,0.984,-6.015,6.286,0.0,0.0,-0.316,0.642
642.45,-8.236,8.204,0.0,-0.0,0.179,0.984,-6.015,6.286,0.0,0.0,-0.316,0.642
642.7,-8.236,8.204,0.0,-0.0,0.179,0.984,-6.015,6.286,0.0,0.0,-0.316,0.642
642.95,-8.236,8.204,0.0,-0.0,0.179,0.984,-6.015,6.286,0.0,0.0,-0.316,0.642
643.45,-8.236,8.204,0.0,-0.0,0.179,0.984,-6.015,6.286,0.0,0.0,-0.316,0.642
643.7,-8.236,8.204,0.0,-0.0,0.179,0.984,-6.015,6.286,0.0,0.0,-0.316,0.642
643.95,-8.236,8.204,0.0,-0.0,0.179,0.984,-6.015,6.286,0.0,0.0,-0.316,0.642
644.2,-8.236,8.204,0.0,-0.0,0.179,0.984,-6.015,6.286,0.0,0.0,-0.316,0.642
644.45,-8.236,8.204,0.0,-0.0,0.179,0.984,-6.015,6.286,0.0,0.0,-0.316,0.642
644.7,-8.236,8.204,0.0,-0.0,0.179,0.984,-6.015,6.286,0.0,0.0,-0.316,0.642
644.95,-8.236,8.204,0.0,-0.0,0.179,0.984,-6.015,6.286,0.0,0.0,-0.316,0.642
645.2,-8.236,8.204,0.0,-0.0,0.179,0.984,-6.015,6.286,0.0,0.0,-0.316,0.642
645.45,-8.236,8.204,0.0,-0.0,0.179,0.984,-6.015,6.286,0.0,0.0,-0.316,0.642
645.95,-8.237,8.204,0.0,-0.0,0.179,0.984,-6.015,6.286,0.0,0.0,-0.316,0.642
646.2,-8.237,8.204,0.0,-0.0,0.179,0.984,-6.015,6.286,0.0,0.0,-0.316,0.642
646.45,-8.237,8.204,0.0,-0.0,0.179,0.984,-6.015,6.286,0.0,0.0,-0.316,0.642
646.7,-8.237,8.204,0.0,-0.0,0.179,0.984,-6.015,6.286,0.0,0.0,-0.316,0.642
646.95,-8.237,8.204,0.0,-0.0,0.179,0.984,-6.015,6.286,0.0,0.0,-0.316,0.642
647.2,-8.237,8.204,0.0,-0.0,0.179,0.984,-6.015,6.286,0.0,0.0,-0.316,0.642
647.45,-8.237,8.204,0.0,-0.0,0.179,0.984,-6.015,6.286,0.0,0.0,-0.316,0.642
647.7,-8.237,8.204,0.0,-0.0,0.179,0.984,-6.015,6.286,0.0,0.0,-0.316,0.642
647.95,-8.237,8.204,0.0,-0.0,0.179,0.984,-6.015,6.286,0.0,0.0,-0.316,0.642
648.2,-8.237,8.204,0.0,-0.0,0.179,0.984,-6.015,6.286,0.0,0.0,-0.316,0.642
648.45,-8.237,8.204,0.0,-0.0,0.179,0.984,-6.015,6.286,0.0,0.0,-0.316,0.642
648.7,-8.237,8.204,0.0,-0.0,0.179,0.984,-6.015,6.286,0.0,0.0,-0.316,0.642
648.95,-8.237,8.204,0.0,-0.0,0.179,0.984,-6.015,6.286,0.0,0.0,-0.316,0.642
649.2,-8.237,8.204,0.0,-0.0,0.179,0.984,-6.015,6.286,0.0,0.0,-0.316,0.642
649.45,-8.237,8.204,0.0,-0.0,0.179,0.984,-6.015,6.286,0.0,0.0,-0.316,0.642
