ayah05/MobileRobot/results/predictions_3.csv
timestamp,actual_x,actual_y,actual_qx,actual_qy,actual_qz,actual_qw,predicted_x,predicted_y,predicted_qx,predicted_qy,predicted_qz,predicted_qw
19.35,-0.001,-0.0,-0.0,-0.0,0.0,1.0,-0.118,0.175,-0.0,-0.0,-0.123,0.39
19.6,-0.001,-0.0,-0.0,-0.0,0.0,1.0,-0.118,0.175,-0.0,-0.0,-0.123,0.39
20.35,-0.001,-0.0,-0.0,-0.0,0.0,1.0,-0.118,0.175,-0.0,-0.0,-0.123,0.39
21.35,-0.001,-0.0,-0.0,-0.0,0.0,1.0,-0.118,0.175,-0.0,-0.0,-0.123,0.39
21.6,-0.001,-0.0,-0.0,-0.0,0.0,1.0,-0.118,0.175,-0.0,-0.0,-0.123,0.39
22.1,-0.001,-0.0,-0.0,-0.0,0.0,1.0,-0.118,0.175,-0.0,-0.0,-0.123,0.39
22.35,-0.001,-0.0,-0.0,-0.0,0.0,1.0,-0.118,0.175,-0.0,-0.0,-0.123,0.39
23.35,-0.002,-0.0,-0.0,-0.0,0.0,1.0,-0.118,0.175,-0.0,-0.0,-0.123,0.39
23.6,-0.002,-0.0,-0.0,-0.0,0.0,1.0,-0.118,0.175,-0.0,-0.0,-0.123,0.39
23.85,-0.002,-0.0,-0.0,-0.0,0.0,1.0,-0.118,0.175,-0.0,-0.0,-0.123,0.39
24.6,-0.002,-0.0,-0.0,-0.0,0.0,1.0,-0.118,0.175,-0.0,-0.0,-0.123,0.39
25.1,-0.002,-0.0,-0.0,-0.0,0.0,1.0,-0.118,0.175,-0.0,-0.0,-0.123,0.39
25.35,-0.002,-0.0,-0.0,-0.0,0.0,1.0,-0.118,0.175,-0.0,-0.0,-0.123,0.39
32.2,-0.002,-0.0,-0.0,-0.0,0.0,1.0,-0.118,0.175,-0.0,-0.0,-0.123,0.39
32.7,-0.002,-0.0,-0.0,-0.0,0.0,1.0,-0.118,0.175,-0.0,-0.0,-0.123,0.39
32.95,-0.002,-0.0,-0.0,-0.0,0.0,1.0,-0.119,0.175,-0.0,-0.0,-0.123,0.39
33.2,-0.002,-0.0,-0.0,-0.0,0.0,1.0,-0.119,0.175,-0.0,-0.0,-0.123,0.39
33.7,-0.002,-0.0,-0.0,-0.0,0.0,1.0,-0.119,0.175,-0.0,-0.0,-0.123,0.39
34.45,-0.002,-0.0,-0.0,-0.0,0.0,1.0,-0.119,0.175,-0.0,-0.0,-0.123,0.39
34.7,-0.002,-0.0,-0.0,-0.0,0.0,1.0,-0.119,0.175,-0.0,-0.0,-0.123,0.39
34.95,-0.002,-0.0,-0.0,-0.0,0.0,1.0,-0.119,0.175,-0.0,-0.0,-0.123,0.39
35.2,-0.002,-0.0,-0.0,-0.0,0.0,1.0,-0.119,0.175,-0.0,-0.0,-0.123,0.39
35.45,-0.002,-0.0,-0.0,-0.0,0.0,1.0,-0.119,0.175,-0.0,-0.0,-0.123,0.39
35.7,-0.002,-0.0,-0.0,-0.0,0.0,1.0,-0.119,0.175,-0.0,-0.0,-0.123,0.39
36.2,-0.002,-0.0,-0.0,-0.0,0.0,1.0,-0.119,0.175,-0.0,-0.0,-0.123,0.39
36.45,-0.002,-0.0,-0.0,-0.0,0.0,1.0,-0.119,0.175,-0.0,-0.0,-0.123,0.39
36.7,-0.002,-0.0,-0.0,-0.0,0.0,1.0,-0.119,0.175,-0.0,-0.0,-0.123,0.39
37.7,-0.003,-0.0,-0.0,-0.0,0.0,1.0,-0.119,0.175,-0.0,-0.0,-0.123,0.39
38.2,-0.003,-0.0,-0.0,-0.0,0.0,1.0,-0.119,0.175,-0.0,-0.0,-0.123,0.39
38.7,-0.003,-0.0,-0.0,-0.0,0.0,1.0,-0.119,0.175,-0.0,-0.0,-0.123,0.39
39.95,-0.003,-0.0,-0.0,-0.0,0.0,1.0,-0.119,0.175,-0.0,-0.0,-0.123,0.39
40.7,-0.003,-0.0,-0.0,-0.0,0.0,1.0,-0.119,0.175,-0.0,-0.0,-0.123,0.39
41.45,-0.003,-0.0,-0.0,-0.0,0.0,1.0,-0.119,0.175,-0.0,-0.0,-0.123,0.39
41.7,-0.003,-0.0,-0.0,-0.0,0.0,1.0,-0.119,0.175,-0.0,-0.0,-0.123,0.39
42.2,-0.003,-0.0,-0.0,-0.0,0.0,1.0,-0.119,0.175,-0.0,-0.0,-0.123,0.39
42.7,-0.003,-0.0,-0.0,-0.0,0.0,1.0,-0.119,0.175,-0.0,-0.0,-0.123,0.39
42.95,-0.003,-0.0,-0.0,-0.0,0.0,1.0,-0.119,0.175,-0.0,-0.0,-0.123,0.39
43.2,-0.003,-0.0,-0.0,-0.0,0.0,1.0,-0.119,0.175,-0.0,-0.0,-0.123,0.39
44.2,-0.003,-0.0,-0.0,-0.0,0.0,1.0,-0.119,0.175,-0.0,-0.0,-0.123,0.39
44.7,-0.003,-0.0,-0.0,-0.0,0.0,1.0,-0.119,0.175,-0.0,-0.0,-0.123,0.39
44.95,0.015,-0.0,-0.0,-0.0,-0.01,1.0,-0.111,0.173,-0.0,-0.0,-0.123,0.39
45.2,0.143,-0.012,-0.0,-0.0,-0.088,0.996,-0.053,0.148,-0.0,-0.0,-0.122,0.393
45.45,0.332,-0.07,-0.0,0.0,-0.208,0.978,0.046,0.091,-0.0,-0.0,-0.122,0.4
45.7,0.506,-0.17,-0.0,0.0,-0.308,0.951,0.156,0.03,-0.0,-0.0,-0.12,0.408
45.95,0.657,-0.301,-0.0,-0.0,-0.39,0.921,0.268,-0.053,-0.0,0.0,-0.119,0.41
46.45,0.882,-0.629,-0.0,-0.0,-0.548,0.837,0.459,-0.307,-0.0,0.0,-0.123,0.37
46.7,0.942,-0.819,-0.0,-0.0,-0.635,0.773,0.565,-0.647,-0.0,0.0,-0.136,0.285
46.95,0.961,-1.017,-0.0,-0.0,-0.714,0.7,0.583,-0.954,-0.0,0.0,-0.153,0.227
47.2,0.938,-1.202,-0.0,-0.0,-0.785,0.619,0.563,-1.221,-0.0,0.0,-0.164,0.186
47.7,0.772,-1.562,-0.0,-0.0,-0.883,0.469,0.411,-1.562,-0.0,0.0,-0.171,0.164
47.95,0.652,-1.72,-0.0,-0.0,-0.908,0.42,0.261,-1.838,-0.0,0.0,-0.175,0.16
48.45,0.374,-2.008,-0.0,-0.0,-0.928,0.372,-0.007,-2.146,-0.0,0.0,-0.175,0.171
48.7,0.229,-2.145,-0.0,-0.0,-0.929,0.37,-0.164,-2.404,-0.0,0.0,-0.176,0.181
48.95,0.083,-2.284,-0.0,-0.0,-0.929,0.369,-0.266,-2.634,-0.0,0.0,-0.178,0.189
49.45,-0.208,-2.557,-0.0,-0.0,-0.93,0.367,-0.462,-2.894,-0.0,0.0,-0.178,0.203
49.7,-0.354,-2.693,-0.0,-0.0,-0.931,0.366,-0.564,-3.104,-0.0,0.0,-0.18,0.213
50.45,-0.773,-3.103,-0.0,-0.0,-0.922,0.388,-0.897,-3.406,0.0,0.0,-0.175,0.232
50.95,-1.052,-3.387,-0.0,-0.0,-0.923,0.385,-1.184,-3.704,0.0,0.0,-0.172,0.255
51.2,-1.194,-3.53,-0.0,-0.0,-0.924,0.383,-1.29,-3.935,0.0,0.0,-0.174,0.269
64.4,-8.962,-9.035,-0.0,0.0,-0.961,-0.276,-5.204,-6.246,0.0,0.0,0.109,0.505
64.65,-8.968,-9.032,-0.0,0.0,-0.957,-0.289,-7.899,-7.867,0.0,0.0,0.339,0.694
64.9,-8.968,-9.032,-0.0,0.0,-0.93,-0.369,-8.578,-8.341,0.0,0.0,0.388,0.711
65.15,-8.968,-9.032,-0.0,0.0,-0.882,-0.472,-8.711,-8.422,0.0,0.0,0.398,0.714
65.65,-8.968,-9.032,-0.0,0.0,-0.796,-0.605,-8.715,-8.421,0.0,0.0,0.398,0.715
65.9,-8.967,-9.033,-0.0,0.0,-0.771,-0.637,-8.685,-8.399,0.0,0.0,0.396,0.716
66.15,-8.967,-9.033,-0.0,0.0,-0.756,-0.654,-8.635,-8.363,0.0,0.0,0.393,0.718
66.65,-8.967,-9.033,-0.0,0.0,-0.737,-0.676,-8.57,-8.321,0.0,0.0,0.388,0.72
67.15,-8.967,-9.033,-0.0,0.0,-0.715,-0.699,-8.498,-8.275,0.0,0.0,0.383,0.723
68.15,-8.967,-9.033,-0.0,0.0,-0.713,-0.701,-8.444,-8.241,0.0,0.0,0.379,0.725
68.4,-8.967,-9.033,-0.0,0.0,-0.713,-0.701,-8.456,-8.249,0.0,0.0,0.38,0.724
68.65,-8.967,-9.033,-0.0,0.0,-0.713,-0.701,-8.463,-8.253,0.0,0.0,0.381,0.724
68.9,-8.967,-9.033,-0.0,0.0,-0.713,-0.701,-8.465,-8.254,0.0,0.0,0.381,0.723
69.4,-8.967,-9.033,-0.0,0.0,-0.714,-0.7,-8.466,-8.254,0.0,0.0,0.381,0.723
69.9,-8.967,-9.034,-0.0,0.0,-0.714,-0.7,-8.467,-8.255,0.0,0.0,0.381,0.723
70.4,-8.967,-9.034,-0.0,0.0,-0.715,-0.699,-8.466,-8.254,0.0,0.0,0.381,0.723
70.65,-8.967,-9.034,-0.0,0.0,-0.715,-0.699,-8.466,-8.254,0.0,0.0,0.381,0.723
70.9,-8.967,-9.034,-0.0,0.0,-0.715,-0.699,-8.465,-8.253,0.0,0.0,0.381,0.723
71.15,-8.967,-9.034,-0.0,0.0,-0.716,-0.698,-8.465,-8.253,0.0,0.0,0.381,0.723
71.4,-8.967,-9.034,-0.0,0.0,-0.716,-0.698,-8.465,-8.253,0.0,0.0,0.381,0.723
71.65,-8.967,-9.034,-0.0,0.0,-0.716,-0.698,-8.464,-8.253,0.0,0.0,0.381,0.723
72.65,-8.967,-9.034,-0.0,0.0,-0.717,-0.697,-8.464,-8.253,0.0,0.0,0.381,0.723
73.15,-8.967,-9.034,-0.0,0.0,-0.718,-0.696,-8.464,-8.252,0.0,0.0,0.381,0.723
73.9,-8.967,-9.034,-0.0,0.0,-0.719,-0.695,-8.463,-8.252,0.0,0.0,0.381,0.723
74.15,-8.967,-9.034,-0.0,0.0,-0.719,-0.695,-8.463,-8.252,0.0,0.0,0.381,0.723
74.4,-8.967,-9.034,-0.0,0.0,-0.72,-0.694,-8.462,-8.252,0.0,0.0,0.381,0.723
74.65,-8.967,-9.034,-0.0,0.0,-0.72,-0.694,-8.462,-8.251,0.0,0.0,0.381,0.723
74.9,-8.967,-9.034,-0.0,0.0,-0.72,-0.694,-8.461,-8.251,0.0,0.0,0.381,0.723
75.15,-8.967,-9.034,-0.0,0.0,-0.721,-0.693,-8.461,-8.251,0.0,0.0,0.38,0.723
75.4,-8.968,-9.027,-0.0,0.0,-0.718,-0.696,-8.461,-8.251,0.0,0.0,0.38,0.723
75.65,-8.965,-8.924,-0.0,0.0,-0.673,-0.739,-8.46,-8.25,0.0,0.0,0.38,0.723
76.4,-8.745,-8.421,-0.0,0.0,-0.416,-0.909,-8.403,-8.206,0.0,0.0,0.377,0.723
76.9,-8.437,-8.169,-0.0,0.0,-0.261,-0.965,-8.309,-8.141,0.0,0.0,0.37,0.725
77.65,-7.874,-7.97,-0.0,0.0,-0.127,-0.992,-8.013,-7.971,0.0,0.0,0.344,0.722
77.9,-7.681,-7.919,-0.0,0.0,-0.129,-0.992,-7.728,-7.842,0.0,0.0,0.316,0.718
78.15,-7.486,-7.867,-0.0,0.0,-0.132,-0.991,-7.426,-7.73,0.0,0.0,0.285,0.723
78.4,-7.295,-7.812,-0.0,0.0,-0.151,-0.989,-7.147,-7.651,0.0,0.0,0.256,0.72
78.65,-7.105,-7.748,-0.0,0.0,-0.177,-0.984,-6.89,-7.584,0.0,0.0,0.228,0.716
79.15,-6.738,-7.59,-0.0,0.0,-0.221,-0.975,-6.57,-7.478,0.0,0.0,0.195,0.705
79.65,-6.381,-7.409,-0.0,0.0,-0.238,-0.971,-6.251,-7.369,0.0,0.0,0.161,0.692
79.9,-6.204,-7.317,-0.0,0.0,-0.231,-0.973,-6.05,-7.304,0.0,0.0,0.139,0.683
80.15,-6.024,-7.227,-0.0,0.0,-0.23,-0.973,-5.894,-7.247,0.0,0.0,0.123,0.676
81.15,-5.313,-6.863,-0.0,0.0,-0.239,-0.971,-5.481,-7.033,0.0,0.0,0.082,0.662
81.4,-5.135,-6.772,-0.0,0.0,-0.229,-0.973,-5.29,-6.942,0.0,0.0,0.063,0.656
81.65,-4.956,-6.683,-0.0,0.0,-0.231,-0.973,-5.144,-6.859,0.0,0.0,0.049,0.652
81.9,-4.777,-6.593,-0.0,0.0,-0.233,-0.972,-5.024,-6.783,0.0,0.0,0.039,0.648
82.15,-4.6,-6.502,-0.0,0.0,-0.235,-0.972,-4.903,-6.702,0.0,0.0,0.028,0.646
82.4,-4.422,-6.41,-0.0,0.0,-0.242,-0.97,-4.777,-6.616,0.0,0.0,0.017,0.643
82.65,-4.248,-6.309,-0.0,0.0,-0.283,-0.959,-4.639,-6.522,0.0,0.0,0.005,0.641
82.9,-4.087,-6.192,-0.0,0.0,-0.341,-0.94,-4.492,-6.421,0.0,0.0,-0.008,0.638
83.65,-3.701,-5.736,-0.0,0.0,-0.504,-0.864,-4.15,-6.164,0.0,0.0,-0.036,0.634
84.15,-3.548,-5.367,-0.0,0.0,-0.607,-0.795,-3.856,-5.972,0.0,0.0,-0.062,0.623
84.4,-3.507,-5.171,-0.0,0.0,-0.653,-0.757,-3.569,-5.849,0.0,0.0,-0.083,0.6
84.65,-3.487,-4.972,-0.0,0.0,-0.689,-0.724,-3.281,-5.755,0.0,0.0,-0.104,0.555
85.4,-3.503,-4.372,-0.0,0.0,-0.721,-0.693,-3.012,-5.614,0.0,0.0,-0.12,0.503
85.9,-3.512,-3.972,-0.0,0.0,-0.715,-0.699,-2.95,-5.502,0.0,0.0,-0.121,0.466
86.15,-3.517,-3.772,-0.0,0.0,-0.715,-0.699,-2.975,-5.413,0.0,0.0,-0.115,0.448
86.4,-3.521,-3.573,-0.0,0.0,-0.715,-0.699,-2.975,-5.315,0.0,0.0,-0.11,0.436
86.65,-3.526,-3.372,-0.0,0.0,-0.716,-0.698,-2.934,-5.198,0.0,0.0,-0.108,0.424
87.4,-3.529,-2.773,-0.0,0.0,-0.706,-0.708,-2.775,-4.967,0.0,0.0,-0.112,0.401
87.9,-3.528,-2.373,-0.0,0.0,-0.706,-0.708,-2.631,-4.715,0.0,0.0,-0.113,0.376
88.15,-3.528,-2.173,-0.0,0.0,-0.706,-0.708,-2.519,-4.484,0.0,0.0,-0.112,0.354
88.4,-3.527,-1.973,-0.0,0.0,-0.706,-0.708,-2.421,-4.257,0.0,0.0,-0.111,0.334
88.65,-3.526,-1.773,-0.0,0.0,-0.706,-0.708,-2.355,-4.02,0.0,0.0,-0.106,0.316
88.9,-3.526,-1.573,-0.0,0.0,-0.706,-0.708,-2.305,-3.726,-0.0,0.0,-0.095,0.302
89.4,-3.524,-1.173,-0.0,0.0,-0.706,-0.708,-2.264,-3.086,-0.0,0.0,-0.06,0.256
89.65,-3.524,-0.973,-0.0,0.0,-0.706,-0.708,-2.679,-0.603,-0.0,0.0,-0.028,0.144
90.15,-3.533,-0.572,-0.0,0.0,-0.735,-0.678,-3.114,-0.062,-0.0,0.0,-0.061,0.239
90.4,-3.559,-0.375,-0.0,0.0,-0.769,-0.639,-3.222,0.193,-0.0,0.0,-0.083,0.269
90.65,-3.601,-0.198,0.0,-0.0,-0.802,-0.598,-3.261,0.356,-0.0,0.0,-0.097,0.288
90.9,-3.659,-0.04,-0.0,0.0,-0.839,-0.544,-3.299,0.48,-0.0,0.0,-0.107,0.302
91.4,-3.887,0.284,-0.0,0.0,-0.929,-0.37,-3.42,0.602,-0.0,0.0,-0.117,0.32
91.9,-4.218,0.503,-0.0,-0.0,-0.983,-0.186,-3.649,0.698,-0.0,0.0,-0.123,0.345
92.15,-4.411,0.555,-0.0,-0.0,-0.997,-0.073,-3.904,0.778,-0.0,0.0,-0.128,0.372
92.9,-4.993,0.452,-0.0,-0.0,-0.972,0.236,-4.294,0.8,-0.0,0.0,-0.126,0.401
93.4,-5.321,0.224,-0.0,-0.0,-0.934,0.357,-4.701,0.775,-0.0,0.0,-0.119,0.428
93.65,-5.466,0.086,-0.0,-0.0,-0.924,0.382,-5.009,0.717,-0.0,0.0,-0.111,0.447
93.9,-5.597,-0.048,-0.0,-0.0,-0.918,0.396,-5.227,0.632,-0.0,0.0,-0.101,0.458
94.15,-5.723,-0.182,-0.0,-0.0,-0.918,0.397,-5.404,0.528,-0.0,0.0,-0.089,0.463
94.4,-5.86,-0.328,-0.0,-0.0,-0.92,0.392,-5.571,0.411,-0.0,0.0,-0.077,0.466
94.65,-6.003,-0.467,-0.0,-0.0,-0.933,0.361,-5.739,0.281,-0.0,0.0,-0.064,0.466
94.9,-6.155,-0.597,-0.0,-0.0,-0.944,0.329,-5.907,0.142,-0.0,0.0,-0.05,0.465
95.15,-6.316,-0.716,-0.0,-0.0,-0.955,0.297,-6.074,-0.007,-0.0,0.0,-0.035,0.463
95.4,-6.485,-0.824,-0.0,-0.0,-0.964,0.267,-6.235,-0.147,-0.0,0.0,-0.021,0.462
95.65,-6.659,-0.921,-0.0,-0.0,-0.972,0.236,-6.388,-0.279,-0.0,0.0,-0.007,0.459
95.9,-6.838,-1.009,-0.0,-0.0,-0.975,0.223,-6.537,-0.406,-0.0,0.0,0.005,0.457
96.15,-7.018,-1.097,-0.0,-0.0,-0.974,0.225,-6.684,-0.53,-0.0,0.0,0.018,0.453
96.4,-7.197,-1.185,-0.0,-0.0,-0.974,0.228,-6.823,-0.648,0.0,0.0,0.03,0.448
96.9,-7.555,-1.364,-0.0,-0.0,-0.973,0.233,-6.994,-0.776,0.0,0.0,0.044,0.442
97.15,-7.735,-1.451,-0.0,-0.0,-0.979,0.204,-7.141,-0.882,0.0,0.0,0.055,0.437
97.4,-7.923,-1.519,-0.0,0.0,-0.991,0.136,-7.258,-0.972,0.0,0.0,0.065,0.433
97.65,-8.118,-1.558,-0.0,0.0,-0.998,0.065,-7.357,-1.042,0.0,0.0,0.073,0.429
97.9,-8.304,-1.572,-0.0,0.0,-1.0,-0.003,-7.444,-1.092,0.0,0.0,0.079,0.428
99.4,-9.167,-0.905,-0.0,0.0,-0.806,-0.593,-7.611,-1.027,0.0,0.0,0.075,0.45
99.9,-9.206,-0.525,-0.0,0.0,-0.667,-0.745,-7.816,-0.857,0.0,0.0,0.062,0.493
100.4,-9.137,-0.255,0.0,-0.0,-0.567,-0.824,-7.992,-0.62,0.0,0.0,0.043,0.548
100.65,-9.098,-0.168,0.0,-0.0,-0.515,-0.857,-8.102,-0.41,0.0,0.0,0.026,0.59
100.9,-9.066,-0.115,0.0,-0.0,-0.471,-0.882,-8.135,-0.275,0.0,0.0,0.014,0.615
101.4,-9.044,-0.082,-0.0,0.0,-0.439,-0.898,-8.111,-0.18,0.0,0.0,0.005,0.627
101.65,-9.044,-0.082,-0.0,0.0,-0.344,-0.939,-8.07,-0.108,0.0,0.0,-0.002,0.632
101.9,-9.044,-0.082,-0.0,0.0,-0.243,-0.97,-8.028,-0.042,0.0,0.0,-0.009,0.634
102.15,-9.045,-0.082,-0.0,0.0,-0.17,-0.985,-7.994,-0.004,0.0,0.0,-0.013,0.633
102.4,-9.045,-0.082,-0.0,0.0,-0.123,-0.992,-7.968,0.008,0.0,0.0,-0.014,0.629
128.05,-8.554,0.012,-0.0,-0.0,-0.164,-0.986,-7.842,-0.008,0.0,0.0,-0.014,0.618
128.3,-8.366,0.084,-0.0,-0.0,-0.198,-0.98,-7.66,-0.04,0.0,0.0,-0.013,0.602
128.8,-8.006,0.258,-0.0,-0.0,-0.243,-0.97,-7.432,-0.042,0.0,0.0,-0.015,0.586
129.3,-7.653,0.445,0.0,0.0,-0.231,-0.973,-7.172,0.011,0.0,0.0,-0.023,0.573
129.8,-7.286,0.603,0.0,0.0,-0.151,-0.988,-6.888,0.105,0.0,0.0,-0.034,0.562
130.05,-7.093,0.653,0.0,0.0,-0.099,-0.995,-6.638,0.202,0.0,0.0,-0.046,0.552
130.3,-6.895,0.683,0.0,0.0,-0.053,-0.999,-6.425,0.294,-0.0,0.0,-0.056,0.541
130.55,-6.696,0.698,0.0,0.0,-0.02,-1.0,-6.23,0.38,-0.0,0.0,-0.066,0.53
130.8,-6.498,0.701,0.0,0.0,0.004,-1.0,-6.045,0.446,-0.0,0.0,-0.075,0.517
131.05,-6.296,0.698,-0.0,0.0,0.008,-1.0,-5.864,0.485,-0.0,0.0,-0.08,0.504
131.3,-6.1,0.695,-0.0,0.0,0.009,-1.0,-5.687,0.504,-0.0,0.0,-0.084,0.49
131.8,-5.696,0.687,-0.0,0.0,0.009,-1.0,-5.445,0.504,-0.0,0.0,-0.087,0.472
132.05,-5.497,0.684,-0.0,0.0,0.009,-1.0,-5.198,0.495,-0.0,0.0,-0.088,0.453
133.3,-4.498,0.652,0.0,0.0,0.052,-0.999,-4.684,0.479,-0.0,0.0,-0.092,0.422
133.55,-4.3,0.627,0.0,0.0,0.076,-0.997,-4.187,0.468,-0.0,0.0,-0.096,0.387
133.8,-4.103,0.591,0.0,0.0,0.103,-0.995,-3.796,0.465,-0.0,0.0,-0.1,0.359
134.05,-3.909,0.55,-0.0,0.0,0.098,-0.995,-3.487,0.466,-0.0,0.0,-0.103,0.34
134.3,-3.711,0.516,-0.0,0.0,0.07,-0.998,-3.224,0.479,-0.0,0.0,-0.107,0.322
134.55,-3.511,0.491,-0.0,0.0,0.054,-0.999,-2.982,0.49,-0.0,0.0,-0.11,0.308
135.3,-2.912,0.455,-0.0,0.0,0.005,-1.0,-2.57,0.474,-0.0,0.0,-0.114,0.299
135.55,-2.712,0.456,-0.0,0.0,-0.006,-1.0,-2.181,0.449,-0.0,0.0,-0.116,0.294
136.05,-2.313,0.461,-0.0,0.0,-0.006,-1.0,-1.809,0.432,-0.0,0.0,-0.118,0.294
136.3,-2.113,0.463,-0.0,0.0,-0.006,-1.0,-1.516,0.422,-0.0,0.0,-0.12,0.299
136.55,-1.913,0.466,-0.0,0.0,-0.007,-1.0,-1.308,0.419,-0.0,-0.0,-0.121,0.3
136.8,-1.713,0.469,-0.0,0.0,-0.007,-1.0,-1.125,0.43,-0.0,-0.0,-0.123,0.302
137.8,-0.914,0.48,-0.0,0.0,-0.007,-1.0,-0.57,0.429,-0.0,-0.0,-0.127,0.342
138.05,-0.713,0.483,-0.0,0.0,-0.007,-1.0,-0.209,0.393,-0.0,-0.0,-0.127,0.356
138.3,-0.514,0.485,-0.0,0.0,-0.007,-1.0,-0.016,0.368,-0.0,-0.0,-0.125,0.354
139.05,0.087,0.495,-0.0,0.0,-0.007,-1.0,0.299,0.384,-0.0,-0.0,-0.118,0.35
139.55,0.487,0.492,0.0,0.0,0.006,-1.0,0.636,0.449,-0.0,-0.0,-0.106,0.331
140.8,1.486,0.48,-0.0,0.0,0.007,-1.0,1.333,0.53,-0.0,-0.0,-0.102,0.241
141.05,1.687,0.477,-0.0,0.0,0.007,-1.0,1.721,0.46,-0.0,-0.0,-0.101,0.193
141.3,1.887,0.474,-0.0,0.0,0.007,-1.0,1.946,0.38,-0.0,0.0,-0.105,0.145
141.55,2.087,0.472,-0.0,0.0,0.007,-1.0,2.135,0.331,-0.0,0.0,-0.107,0.113
141.8,2.286,0.469,-0.0,0.0,0.007,-1.0,2.309,0.306,-0.0,0.0,-0.11,0.093
142.05,2.487,0.466,0.0,0.0,0.007,-1.0,2.48,0.29,-0.0,0.0,-0.112,0.078
142.55,2.886,0.461,0.0,0.0,0.007,-1.0,2.699,0.276,-0.0,0.0,-0.114,0.068
142.8,3.086,0.459,-0.0,0.0,-0.002,-1.0,2.897,0.262,-0.0,0.0,-0.115,0.062
143.05,3.286,0.461,-0.0,0.0,-0.006,-1.0,3.079,0.262,-0.0,0.0,-0.116,0.06
144.3,4.286,0.474,-0.0,0.0,-0.007,-1.0,3.48,0.297,-0.0,0.0,-0.114,0.079
144.8,4.685,0.479,-0.0,0.0,-0.007,-1.0,3.861,0.313,-0.0,0.0,-0.113,0.104
145.05,4.887,0.482,-0.0,0.0,-0.007,-1.0,4.179,0.341,-0.0,0.0,-0.111,0.13
145.3,5.084,0.485,-0.0,-0.0,-0.01,-1.0,4.467,0.385,-0.0,0.0,-0.108,0.158
145.55,5.287,0.493,-0.0,-0.0,-0.033,-0.999,4.744,0.446,-0.0,0.0,-0.104,0.192
145.8,5.486,0.512,-0.0,-0.0,-0.067,-0.998,5.018,0.528,-0.0,0.0,-0.099,0.23
146.3,5.877,0.607,-0.0,-0.0,-0.188,-0.982,5.346,0.669,-0.0,0.0,-0.09,0.27
146.55,6.055,0.699,-0.0,0.0,-0.281,-0.96,5.639,0.831,-0.0,0.0,-0.081,0.284
147.55,6.508,1.336,-0.0,0.0,-0.611,-0.792,5.984,1.262,-0.0,0.0,-0.06,0.296
148.05,6.557,1.732,-0.0,0.0,-0.704,-0.71,6.2,1.784,-0.0,0.0,-0.033,0.294
148.3,6.553,1.932,-0.0,0.0,-0.718,-0.696,6.283,2.271,-0.0,0.0,-0.014,0.289
148.55,6.547,2.132,-0.0,0.0,-0.719,-0.695,6.31,2.716,-0.0,0.0,-0.001,0.291
149.05,6.533,2.532,-0.0,0.0,-0.72,-0.694,6.29,3.239,-0.0,0.0,0.009,0.299
149.3,6.526,2.732,-0.0,0.0,-0.722,-0.692,6.254,3.683,-0.0,0.0,0.016,0.311
150.55,6.367,3.717,-0.0,0.0,-0.789,-0.614,6.186,4.39,-0.0,0.0,0.028,0.338
150.8,6.318,3.911,-0.0,0.0,-0.786,-0.619,6.162,4.794,-0.0,0.0,0.039,0.344
151.05,6.276,4.106,-0.0,0.0,-0.769,-0.639,6.125,5.059,-0.0,0.0,0.046,0.355
151.8,6.216,4.699,-0.0,0.0,-0.72,-0.694,6.068,5.428,-0.0,0.0,0.057,0.372
152.05,6.212,4.902,-0.0,0.0,-0.709,-0.705,6.034,5.754,-0.0,0.0,0.056,0.368
152.3,6.211,5.102,-0.0,0.0,-0.708,-0.706,6.015,6.017,-0.0,0.0,0.048,0.354
152.8,6.209,5.501,-0.0,0.0,-0.708,-0.706,6.001,6.32,-0.0,0.0,0.04,0.339
153.3,6.208,5.903,-0.0,0.0,-0.708,-0.706,5.959,6.71,-0.0,0.0,0.026,0.311
153.8,6.205,6.302,-0.0,0.0,-0.716,-0.699,5.885,7.142,-0.0,0.0,0.008,0.271
154.05,6.195,6.501,-0.0,0.0,-0.736,-0.677,5.782,7.508,-0.0,0.0,-0.01,0.223
154.3,6.171,6.701,-0.0,0.0,-0.76,-0.65,5.641,7.845,-0.0,0.0,-0.028,0.171
154.55,6.134,6.897,-0.0,0.0,-0.783,-0.623,5.475,8.152,-0.0,0.0,-0.046,0.118
155.3,5.93,7.458,-0.0,0.0,-0.841,-0.541,5.297,8.479,-0.0,0.0,-0.065,0.062
155.55,5.843,7.64,-0.0,0.0,-0.848,-0.53,5.157,8.723,-0.0,0.0,-0.079,0.019
156.05,5.668,7.999,-0.0,0.0,-0.856,-0.518,5.011,8.907,-0.0,0.0,-0.092,-0.02
156.8,5.355,8.512,-0.0,0.0,-0.89,-0.455,4.831,9.054,-0.0,0.0,-0.105,-0.061
157.05,5.231,8.668,-0.0,0.0,-0.912,-0.41,4.652,9.155,-0.0,0.0,-0.118,-0.097
157.55,4.93,8.928,-0.0,0.0,-0.961,-0.276,4.463,9.228,-0.0,0.0,-0.127,-0.136
157.8,4.75,9.018,-0.0,0.0,-0.984,-0.179,4.267,9.29,-0.0,0.0,-0.135,-0.175
158.05,4.557,9.072,-0.0,-0.0,-0.996,-0.092,4.073,9.335,-0.0,0.0,-0.142,-0.212
158.55,4.159,9.08,-0.0,-0.0,-0.997,0.077,3.842,9.372,-0.0,0.0,-0.15,-0.254
158.8,3.964,9.034,-0.0,-0.0,-0.989,0.149,3.647,9.393,-0.0,0.0,-0.157,-0.289
159.05,3.776,8.967,-0.0,-0.0,-0.982,0.189,3.467,9.403,-0.0,0.0,-0.163,-0.319
159.3,3.593,8.886,-0.0,-0.0,-0.975,0.222,3.279,9.398,-0.0,0.0,-0.168,-0.348
159.55,3.415,8.796,-0.0,-0.0,-0.971,0.241,3.086,9.374,-0.0,0.0,-0.174,-0.377
160.05,3.064,8.603,-0.0,-0.0,-0.968,0.253,2.863,9.327,-0.0,0.0,-0.181,-0.407
160.3,2.888,8.507,-0.0,-0.0,-0.971,0.239,2.658,9.238,-0.0,0.0,-0.186,-0.431
160.55,2.71,8.416,-0.0,-0.0,-0.973,0.232,2.478,9.078,-0.0,0.0,-0.19,-0.444
160.8,2.532,8.326,-0.0,-0.0,-0.972,0.234,2.301,8.821,-0.0,0.0,-0.193,-0.448
161.05,2.355,8.235,-0.0,-0.0,-0.972,0.236,2.133,8.525,-0.0,0.0,-0.194,-0.447
161.55,1.999,8.049,-0.0,-0.0,-0.972,0.235,1.938,8.283,-0.0,0.0,-0.197,-0.455
162.05,1.641,7.869,-0.0,-0.0,-0.973,0.231,1.695,8.069,-0.0,0.0,-0.204,-0.473
162.55,1.282,7.696,-0.0,-0.0,-0.975,0.223,1.379,7.878,-0.0,0.0,-0.211,-0.505
162.8,1.102,7.608,-0.0,-0.0,-0.974,0.225,1.031,7.712,-0.0,0.0,-0.217,-0.538
163.05,0.922,7.52,-0.0,-0.0,-0.974,0.227,0.601,7.568,-0.0,0.0,-0.225,-0.583
163.55,0.564,7.341,-0.0,-0.0,-0.973,0.232,0.235,7.445,-0.0,0.0,-0.238,-0.609
163.8,0.387,7.251,-0.0,-0.0,-0.972,0.234,0.049,7.332,-0.0,0.0,-0.252,-0.608
164.55,-0.146,6.974,-0.0,-0.0,-0.969,0.246,-0.088,7.258,-0.0,0.0,-0.266,-0.605
164.8,-0.31,6.88,-0.0,-0.0,-0.962,0.273,-0.178,7.211,-0.0,0.0,-0.276,-0.6
165.3,-0.623,6.637,-0.0,-0.0,-0.926,0.378,-0.266,7.136,-0.0,0.0,-0.286,-0.592
165.55,-0.754,6.487,-0.0,-0.0,-0.893,0.451,-0.345,7.026,-0.0,0.0,-0.294,-0.581
166.3,-0.966,5.947,-0.0,-0.0,-0.729,0.684,-0.433,6.83,-0.0,0.0,-0.299,-0.559
167.05,-0.805,5.411,-0.0,-0.0,-0.453,0.892,-0.51,6.471,-0.0,0.0,-0.297,-0.517
167.3,-0.672,5.263,-0.0,-0.0,-0.36,0.933,-0.582,5.979,-0.0,0.0,-0.288,-0.461
167.8,-0.381,5.071,0.0,-0.0,-0.208,0.978,-0.642,5.377,-0.0,0.0,-0.273,-0.392
168.05,-0.287,5.035,0.0,-0.0,-0.158,0.987,-0.702,4.787,-0.0,0.0,-0.256,-0.318
168.3,-0.22,5.014,-0.0,-0.0,-0.153,0.988,-0.768,4.259,-0.0,0.0,-0.238,-0.242
168.55,-0.173,4.999,-0.0,-0.0,-0.162,0.987,-0.797,3.859,-0.0,0.0,-0.221,-0.19
169.05,-0.144,4.99,-0.0,-0.0,-0.104,0.995,-0.838,3.527,-0.0,0.0,-0.207,-0.145
169.3,-0.144,4.99,-0.0,-0.0,-0.09,0.996,-0.89,3.285,-0.0,0.0,-0.198,-0.108
169.55,-0.143,4.99,-0.0,-0.0,-0.076,0.997,-0.944,3.127,-0.0,0.0,-0.193,-0.078
169.8,-0.143,4.99,-0.0,-0.0,-0.062,0.998,-0.922,3.117,-0.0,0.0,-0.192,-0.081
170.05,-0.143,4.99,-0.0,-0.0,-0.047,0.999,-0.876,3.159,-0.0,0.0,-0.193,-0.095
170.3,-0.143,4.99,-0.0,-0.0,-0.048,0.999,-0.829,3.209,-0.0,0.0,-0.194,-0.111
170.55,-0.143,4.99,-0.0,-0.0,-0.049,0.999,-0.807,3.237,-0.0,-0.0,-0.195,-0.119
170.8,-0.143,4.99,-0.0,-0.0,-0.05,0.999,-0.792,3.256,-0.0,-0.0,-0.196,-0.125
171.3,-0.143,4.99,-0.0,-0.0,-0.052,0.999,-0.782,3.269,-0.0,-0.0,-0.196,-0.128
172.3,-0.143,4.99,-0.0,-0.0,-0.056,0.998,-0.776,3.279,-0.0,-0.0,-0.197,-0.131
172.55,-0.144,4.99,-0.0,-0.0,-0.057,0.998,-0.774,3.282,-0.0,-0.0,-0.197,-0.132
172.8,-0.144,4.99,-0.0,-0.0,-0.058,0.998,-0.773,3.284,-0.0,-0.0,-0.197,-0.132
173.05,-0.144,4.99,-0.0,-0.0,-0.059,0.998,-0.772,3.285,-0.0,-0.0,-0.197,-0.132
173.3,-0.144,4.99,-0.0,-0.0,-0.06,0.998,-0.772,3.285,-0.0,-0.0,-0.197,-0.132
173.55,-0.144,4.99,-0.0,-0.0,-0.061,0.998,-0.773,3.284,-0.0,-0.0,-0.197,-0.132
173.8,-0.144,4.99,-0.0,-0.0,-0.062,0.998,-0.773,3.282,-0.0,-0.0,-0.197,-0.132
174.05,-0.144,4.99,-0.0,-0.0,-0.063,0.998,-0.774,3.281,-0.0,-0.0,-0.197,-0.132
174.3,-0.144,4.99,-0.0,-0.0,-0.064,0.998,-0.774,3.28,-0.0,-0.0,-0.197,-0.131
174.55,-0.144,4.99,-0.0,-0.0,-0.065,0.998,-0.775,3.279,-0.0,-0.0,-0.197,-0.131
174.8,-0.144,4.99,-0.0,-0.0,-0.066,0.998,-0.775,3.278,-0.0,-0.0,-0.197,-0.131
175.05,-0.144,4.99,-0.0,-0.0,-0.067,0.998,-0.775,3.277,-0.0,-0.0,-0.197,-0.131
175.3,-0.144,4.99,-0.0,-0.0,-0.069,0.998,-0.776,3.276,-0.0,-0.0,-0.197,-0.131
175.8,-0.144,4.99,-0.0,-0.0,-0.071,0.997,-0.776,3.274,-0.0,-0.0,-0.196,-0.13
176.05,-0.145,4.99,-0.0,-0.0,-0.072,0.997,-0.776,3.273,-0.0,-0.0,-0.196,-0.13
176.55,-0.145,4.99,-0.0,-0.0,-0.074,0.997,-0.777,3.272,-0.0,-0.0,-0.196,-0.13
176.8,-0.145,4.99,-0.0,-0.0,-0.075,0.997,-0.777,3.271,-0.0,-0.0,-0.196,-0.13
177.05,-0.145,4.99,-0.0,-0.0,-0.076,0.997,-0.778,3.27,-0.0,-0.0,-0.196,-0.13
177.3,-0.145,4.99,-0.0,-0.0,-0.077,0.997,-0.778,3.268,-0.0,-0.0,-0.196,-0.129
178.55,-0.145,4.99,-0.0,-0.0,-0.083,0.997,-0.778,3.267,-0.0,-0.0,-0.196,-0.129
179.3,-0.146,4.99,-0.0,-0.0,-0.086,0.996,-0.779,3.265,-0.0,-0.0,-0.196,-0.129
179.55,-0.146,4.99,-0.0,-0.0,-0.088,0.996,-0.78,3.263,-0.0,-0.0,-0.196,-0.128
179.8,-0.146,4.99,-0.0,-0.0,-0.089,0.996,-0.78,3.261,-0.0,-0.0,-0.196,-0.128
180.05,-0.146,4.99,-0.0,-0.0,-0.09,0.996,-0.781,3.259,-0.0,-0.0,-0.196,-0.128
180.3,-0.146,4.99,-0.0,-0.0,-0.091,0.996,-0.782,3.258,-0.0,-0.0,-0.196,-0.127
180.8,-0.146,4.99,-0.0,-0.0,-0.093,0.996,-0.782,3.256,-0.0,-0.0,-0.196,-0.127
181.3,-0.146,4.99,-0.0,-0.0,-0.095,0.995,-0.783,3.254,-0.0,-0.0,-0.196,-0.127
181.55,-0.146,4.99,-0.0,-0.0,-0.097,0.995,-0.784,3.253,-0.0,-0.0,-0.196,-0.126
181.8,-0.146,4.99,-0.0,-0.0,-0.098,0.995,-0.785,3.251,-0.0,-0.0,-0.196,-0.126
182.55,-0.147,4.99,-0.0,-0.0,-0.101,0.995,-0.785,3.249,-0.0,-0.0,-0.196,-0.126
182.8,-0.147,4.99,-0.0,-0.0,-0.102,0.995,-0.786,3.248,-0.0,-0.0,-0.196,-0.125
183.05,-0.147,4.99,-0.0,-0.0,-0.103,0.995,-0.786,3.247,-0.0,-0.0,-0.196,-0.125
183.55,-0.147,4.99,-0.0,-0.0,-0.105,0.994,-0.787,3.245,-0.0,-0.0,-0.196,-0.125
183.8,-0.147,4.99,-0.0,-0.0,-0.106,0.994,-0.787,3.244,-0.0,-0.0,-0.195,-0.124
184.05,-0.147,4.99,-0.0,-0.0,-0.107,0.994,-0.788,3.243,-0.0,-0.0,-0.195,-0.124
184.3,-0.147,4.99,-0.0,-0.0,-0.108,0.994,-0.789,3.241,-0.0,-0.0,-0.195,-0.124
185.3,-0.148,4.99,-0.0,-0.0,-0.113,0.994,-0.789,3.24,-0.0,-0.0,-0.195,-0.124
185.55,-0.148,4.99,-0.0,-0.0,-0.114,0.994,-0.79,3.238,-0.0,-0.0,-0.195,-0.123
185.8,-0.148,4.99,-0.0,-0.0,-0.115,0.993,-0.79,3.237,-0.0,-0.0,-0.195,-0.123
186.05,-0.148,4.99,-0.0,-0.0,-0.116,0.993,-0.791,3.236,-0.0,-0.0,-0.195,-0.123
186.3,-0.148,4.99,-0.0,-0.0,-0.117,0.993,-0.792,3.235,-0.0,-0.0,-0.195,-0.122
186.55,-0.148,4.99,-0.0,-0.0,-0.118,0.993,-0.792,3.233,-0.0,-0.0,-0.195,-0.122
187.55,-0.148,4.99,0.0,-0.0,-0.122,0.993,-0.793,3.232,-0.0,-0.0,-0.195,-0.122
188.05,-0.148,4.99,0.0,-0.0,-0.123,0.992,-0.793,3.231,-0.0,-0.0,-0.195,-0.122
188.3,-0.148,4.99,0.0,-0.0,-0.124,0.992,-0.794,3.229,-0.0,-0.0,-0.195,-0.121
189.05,-0.148,4.99,0.0,-0.0,-0.127,0.992,-0.794,3.228,-0.0,-0.0,-0.195,-0.121
189.3,-0.148,4.99,0.0,-0.0,-0.127,0.992,-0.795,3.227,-0.0,-0.0,-0.195,-0.121
189.55,-0.148,4.99,0.0,-0.0,-0.128,0.992,-0.795,3.225,-0.0,-0.0,-0.195,-0.121
189.8,-0.148,4.99,0.0,-0.0,-0.129,0.992,-0.796,3.224,-0.0,-0.0,-0.195,-0.12
190.3,-0.148,4.99,0.0,-0.0,-0.131,0.991,-0.796,3.223,-0.0,-0.0,-0.195,-0.12
190.8,-0.148,4.99,0.0,-0.0,-0.132,0.991,-0.797,3.222,-0.0,-0.0,-0.195,-0.12
191.05,-0.148,4.99,0.0,-0.0,-0.133,0.991,-0.797,3.221,-0.0,-0.0,-0.195,-0.12
191.55,-0.148,4.99,0.0,-0.0,-0.134,0.991,-0.798,3.22,-0.0,-0.0,-0.195,-0.119
191.8,-0.148,4.99,0.0,-0.0,-0.135,0.991,-0.798,3.219,-0.0,-0.0,-0.195,-0.119
192.05,-0.148,4.99,0.0,-0.0,-0.135,0.991,-0.798,3.218,-0.0,-0.0,-0.195,-0.119
192.55,-0.148,4.99,0.0,-0.0,-0.136,0.991,-0.799,3.218,-0.0,-0.0,-0.195,-0.119
192.8,-0.148,4.99,-0.0,-0.0,-0.137,0.991,-0.799,3.217,-0.0,-0.0,-0.195,-0.119
193.05,-0.148,4.99,-0.0,-0.0,-0.138,0.99,-0.799,3.216,-0.0,-0.0,-0.195,-0.119
193.3,-0.148,4.99,-0.0,-0.0,-0.138,0.99,-0.799,3.216,-0.0,-0.0,-0.195,-0.119
193.55,-0.148,4.99,-0.0,-0.0,-0.139,0.99,-0.8,3.215,-0.0,-0.0,-0.195,-0.118
193.8,-0.148,4.99,-0.0,-0.0,-0.139,0.99,-0.8,3.215,-0.0,-0.0,-0.195,-0.118
194.05,-0.148,4.99,-0.0,-0.0,-0.14,0.99,-0.8,3.214,-0.0,-0.0,-0.194,-0.118
194.55,-0.148,4.99,-0.0,-0.0,-0.141,0.99,-0.801,3.214,-0.0,-0.0,-0.194,-0.118
194.8,-0.148,4.991,-0.0,-0.0,-0.141,0.99,-0.801,3.213,-0.0,-0.0,-0.194,-0.118
195.3,-0.149,4.991,-0.0,-0.0,-0.142,0.99,-0.801,3.213,-0.0,-0.0,-0.194,-0.118
195.55,-0.149,4.991,-0.0,-0.0,-0.143,0.99,-0.801,3.212,-0.0,-0.0,-0.194,-0.118
195.8,-0.149,4.991,-0.0,-0.0,-0.143,0.99,-0.802,3.212,-0.0,-0.0,-0.194,-0.118
196.05,-0.149,4.991,-0.0,-0.0,-0.144,0.99,-0.802,3.211,-0.0,-0.0,-0.194,-0.117
196.3,-0.149,4.991,-0.0,-0.0,-0.144,0.99,-0.802,3.211,-0.0,-0.0,-0.194,-0.117
196.55,-0.149,4.991,-0.0,-0.0,-0.144,0.99,-0.802,3.21,-0.0,-0.0,-0.194,-0.117
197.05,-0.149,4.991,-0.0,-0.0,-0.145,0.989,-0.803,3.21,-0.0,-0.0,-0.194,-0.117
197.55,-0.149,4.991,-0.0,-0.0,-0.146,0.989,-0.803,3.21,-0.0,-0.0,-0.194,-0.117
197.8,-0.149,4.991,-0.0,-0.0,-0.146,0.989,-0.803,3.209,-0.0,-0.0,-0.194,-0.117
198.05,-0.149,4.991,-0.0,-0.0,-0.147,0.989,-0.804,3.209,-0.0,-0.0,-0.194,-0.117
198.3,-0.149,4.991,-0.0,-0.0,-0.147,0.989,-0.804,3.208,-0.0,-0.0,-0.194,-0.117
198.55,-0.149,4.991,-0.0,-0.0,-0.148,0.989,-0.804,3.208,-0.0,-0.0,-0.194,-0.117
198.8,-0.149,4.991,-0.0,-0.0,-0.148,0.989,-0.804,3.208,-0.0,-0.0,-0.194,-0.117
199.05,-0.149,4.991,-0.0,-0.0,-0.148,0.989,-0.804,3.207,-0.0,-0.0,-0.194,-0.117
199.3,-0.15,4.991,-0.0,-0.0,-0.149,0.989,-0.805,3.207,-0.0,-0.0,-0.194,-0.116
199.8,-0.15,4.991,-0.0,-0.0,-0.149,0.989,-0.805,3.207,-0.0,-0.0,-0.194,-0.116
200.8,-0.15,4.991,-0.0,-0.0,-0.151,0.989,-0.805,3.206,-0.0,-0.0,-0.194,-0.116
201.05,-0.15,4.991,-0.0,-0.0,-0.151,0.989,-0.805,3.206,-0.0,-0.0,-0.194,-0.116
201.8,-0.15,4.991,-0.0,-0.0,-0.152,0.988,-0.806,3.206,-0.0,-0.0,-0.194,-0.116
202.3,-0.15,4.991,-0.0,-0.0,-0.153,0.988,-0.806,3.205,-0.0,-0.0,-0.194,-0.116
202.8,-0.15,4.991,-0.0,-0.0,-0.153,0.988,-0.806,3.205,-0.0,-0.0,-0.194,-0.116
203.05,-0.15,4.991,-0.0,-0.0,-0.153,0.988,-0.806,3.204,-0.0,-0.0,-0.194,-0.116
203.3,-0.15,4.991,-0.0,-0.0,-0.154,0.988,-0.807,3.204,-0.0,-0.0,-0.194,-0.116
203.55,-0.15,4.991,-0.0,-0.0,-0.154,0.988,-0.807,3.203,-0.0,-0.0,-0.194,-0.115
203.8,-0.15,4.991,-0.0,-0.0,-0.154,0.988,-0.807,3.203,-0.0,-0.0,-0.194,-0.115
204.55,-0.151,4.991,-0.0,-0.0,-0.155,0.988,-0.808,3.203,-0.0,-0.0,-0.194,-0.115
256.1,0.424,-3.266,-0.0,-0.0,-0.925,0.38,0.416,0.017,-0.0,-0.0,-0.113,0.346
256.6,0.14,-3.545,-0.0,-0.0,-0.926,0.378,0.342,-1.682,-0.0,0.0,-0.17,0.214
257.35,-0.279,-3.955,-0.0,-0.0,-0.923,0.386,-0.256,-2.583,-0.0,0.0,-0.173,0.237
257.85,-0.553,-4.233,-0.0,-0.0,-0.923,0.384,-0.929,-3.414,0.0,0.0,-0.171,0.26
258.1,-0.691,-4.371,-0.0,-0.0,-0.924,0.383,-1.157,-4.049,0.0,0.0,-0.179,0.284
258.35,-0.832,-4.512,-0.0,-0.0,-0.924,0.381,-1.058,-4.437,0.0,0.0,-0.194,0.294
258.6,-0.974,-4.653,-0.0,-0.0,-0.925,0.38,-0.959,-4.661,0.0,0.0,-0.205,0.294
258.85,-1.116,-4.793,-0.0,-0.0,-0.925,0.379,-0.99,-4.816,0.0,0.0,-0.208,0.297
258.85,-1.117,-4.794,-0.0,-0.0,-0.925,0.379,-0.879,-4.871,0.0,0.0,-0.215,0.292
259.6,-1.546,-5.213,-0.0,-0.0,-0.925,0.379,-1.495,-5.135,0.0,0.0,-0.198,0.324
259.85,-1.686,-5.354,-0.0,-0.0,-0.922,0.386,-1.798,-5.293,0.0,0.0,-0.19,0.347
260.1,-1.828,-5.497,-0.0,-0.0,-0.923,0.385,-1.951,-5.412,0.0,0.0,-0.186,0.363
260.6,-2.09,-5.761,-0.0,-0.0,-0.924,0.382,-2.306,-5.586,0.0,0.0,-0.176,0.385
260.85,-2.231,-5.902,-0.0,-0.0,-0.925,0.381,-2.511,-5.714,0.0,0.0,-0.166,0.403
261.1,-2.374,-6.043,-0.0,-0.0,-0.925,0.38,-2.689,-5.829,0.0,0.0,-0.157,0.42
261.85,-2.796,-6.468,-0.0,-0.0,-0.921,0.388,-3.287,-6.098,0.0,0.0,-0.119,0.467
262.1,-2.926,-6.602,-0.0,-0.0,-0.922,0.387,-3.537,-6.233,0.0,0.0,-0.102,0.504
262.35,-3.054,-6.732,-0.0,-0.0,-0.923,0.386,-3.689,-6.336,0.0,0.0,-0.092,0.531
262.6,-3.182,-6.861,-0.0,-0.0,-0.923,0.384,-3.82,-6.425,0.0,0.0,-0.082,0.554
262.85,-3.318,-6.998,-0.0,-0.0,-0.924,0.383,-3.971,-6.514,0.0,0.0,-0.07,0.578
263.35,-3.595,-7.286,-0.0,-0.0,-0.914,0.407,-4.255,-6.674,0.0,0.0,-0.046,0.602
263.85,-3.83,-7.609,-0.0,-0.0,-0.857,0.515,-4.492,-6.8,0.0,0.0,-0.024,0.619
264.1,-3.908,-7.793,-0.0,-0.0,-0.803,0.596,-4.546,-6.813,0.0,0.0,-0.02,0.63
264.35,-3.946,-7.989,-0.0,-0.0,-0.737,0.676,-4.505,-6.785,0.0,0.0,-0.024,0.636
264.85,-3.895,-8.368,-0.0,-0.0,-0.568,0.823,-4.342,-6.722,0.0,0.0,-0.042,0.638
265.35,-3.677,-8.699,-0.0,-0.0,-0.377,0.926,-3.805,-6.546,0.0,0.0,-0.093,0.615
266.1,-3.284,-8.951,-0.0,-0.0,-0.185,0.983,-2.124,-6.201,0.0,0.0,-0.179,0.553
266.6,-3.16,-8.989,-0.0,-0.0,-0.11,0.994,-0.08,-5.869,0.0,0.0,-0.255,0.432
266.85,-3.131,-8.995,-0.0,-0.0,-0.087,0.996,1.08,-5.712,0.0,0.0,-0.303,0.319
267.1,-3.125,-8.996,-0.0,-0.0,-0.073,0.997,1.435,-5.647,0.0,0.0,-0.318,0.268
267.35,-3.125,-8.996,-0.0,-0.0,-0.059,0.998,1.53,-5.609,0.0,0.0,-0.323,0.248
267.6,-3.125,-8.996,-0.0,-0.0,-0.049,0.999,1.562,-5.586,0.0,0.0,-0.324,0.241
268.1,-3.125,-8.996,-0.0,-0.0,-0.051,0.999,1.583,-5.573,0.0,0.0,-0.325,0.238
268.6,-3.125,-8.996,-0.0,-0.0,-0.053,0.999,1.6,-5.565,0.0,0.0,-0.325,0.236
269.1,-3.126,-8.996,-0.0,-0.0,-0.055,0.999,1.612,-5.562,0.0,0.0,-0.326,0.235
269.35,-3.126,-8.996,-0.0,-0.0,-0.056,0.998,1.619,-5.56,0.0,0.0,-0.326,0.235
269.6,-3.126,-8.996,-0.0,-0.0,-0.057,0.998,1.622,-5.56,0.0,0.0,-0.326,0.235
269.85,-3.126,-8.996,-0.0,-0.0,-0.058,0.998,1.623,-5.56,0.0,0.0,-0.326,0.235
270.35,-3.126,-8.996,-0.0,-0.0,-0.06,0.998,1.623,-5.56,0.0,0.0,-0.326,0.235
270.6,-3.126,-8.996,-0.0,-0.0,-0.061,0.998,1.623,-5.56,0.0,0.0,-0.326,0.235
270.85,-3.126,-8.996,-0.0,-0.0,-0.062,0.998,1.622,-5.561,0.0,0.0,-0.326,0.235
271.1,-3.126,-8.996,-0.0,-0.0,-0.062,0.998,1.621,-5.561,0.0,0.0,-0.326,0.235
271.35,-3.126,-8.996,-0.0,-0.0,-0.063,0.998,1.62,-5.562,0.0,0.0,-0.326,0.235
271.6,-3.126,-8.996,-0.0,-0.0,-0.064,0.998,1.619,-5.562,0.0,0.0,-0.326,0.235
272.1,-3.126,-8.996,-0.0,-0.0,-0.066,0.998,1.619,-5.562,0.0,0.0,-0.326,0.235
272.35,-3.127,-8.996,-0.0,-0.0,-0.067,0.998,1.618,-5.563,0.0,0.0,-0.326,0.235
272.6,-3.127,-8.996,-0.0,-0.0,-0.069,0.998,1.617,-5.563,0.0,0.0,-0.326,0.235
272.85,-3.127,-8.996,-0.0,-0.0,-0.07,0.998,1.616,-5.564,0.0,0.0,-0.326,0.235
273.1,-3.127,-8.996,-0.0,-0.0,-0.071,0.998,1.615,-5.564,0.0,0.0,-0.326,0.235
273.35,-3.127,-8.996,-0.0,-0.0,-0.072,0.997,1.614,-5.565,0.0,0.0,-0.326,0.236
273.85,-3.127,-8.996,-0.0,-0.0,-0.074,0.997,1.614,-5.565,0.0,0.0,-0.326,0.236
274.35,-3.127,-8.996,-0.0,-0.0,-0.076,0.997,1.613,-5.566,0.0,0.0,-0.326,0.236
274.6,-3.127,-8.996,-0.0,-0.0,-0.077,0.997,1.612,-5.566,0.0,0.0,-0.326,0.236
274.85,-3.127,-8.996,-0.0,-0.0,-0.077,0.997,1.611,-5.567,0.0,0.0,-0.326,0.236
275.85,-3.128,-8.996,-0.0,-0.0,-0.081,0.997,1.61,-5.567,0.0,0.0,-0.326,0.236
276.1,-3.128,-8.996,-0.0,-0.0,-0.082,0.997,1.609,-5.568,0.0,0.0,-0.326,0.236
276.35,-3.128,-8.996,-0.0,-0.0,-0.083,0.997,1.607,-5.569,0.0,0.0,-0.326,0.236
276.6,-3.128,-8.996,-0.0,-0.0,-0.084,0.996,1.606,-5.569,0.0,0.0,-0.326,0.236
276.85,-3.128,-8.996,-0.0,-0.0,-0.085,0.996,1.604,-5.57,0.0,0.0,-0.326,0.236
277.1,-3.128,-8.995,-0.0,-0.0,-0.086,0.996,1.603,-5.57,0.0,0.0,-0.326,0.236
277.6,-3.128,-8.995,-0.0,-0.0,-0.088,0.996,1.603,-5.571,0.0,0.0,-0.326,0.237
278.1,-3.128,-8.995,-0.0,-0.0,-0.09,0.996,1.602,-5.571,0.0,0.0,-0.326,0.237
278.6,-3.129,-8.995,-0.0,-0.0,-0.091,0.996,1.601,-5.572,0.0,0.0,-0.326,0.237
278.85,-3.129,-8.995,-0.0,-0.0,-0.092,0.996,1.599,-5.573,0.0,0.0,-0.326,0.237
279.6,-3.129,-8.995,-0.0,-0.0,-0.095,0.995,1.598,-5.573,0.0,0.0,-0.326,0.237
280.1,-3.129,-8.995,-0.0,-0.0,-0.097,0.995,1.597,-5.574,0.0,0.0,-0.326,0.237
280.35,-3.129,-8.995,-0.0,-0.0,-0.097,0.995,1.596,-5.574,0.0,0.0,-0.325,0.237
280.6,-3.129,-8.995,-0.0,-0.0,-0.098,0.995,1.594,-5.575,0.0,0.0,-0.325,0.237
281.1,-3.129,-8.995,-0.0,-0.0,-0.1,0.995,1.593,-5.576,0.0,0.0,-0.325,0.237
281.35,-3.129,-8.995,-0.0,-0.0,-0.101,0.995,1.592,-5.576,0.0,0.0,-0.325,0.237
281.85,-3.129,-8.995,-0.0,-0.0,-0.102,0.995,1.591,-5.577,0.0,0.0,-0.325,0.237
282.6,-3.13,-8.995,-0.0,-0.0,-0.105,0.995,1.59,-5.577,0.0,0.0,-0.325,0.238
282.85,-3.13,-8.995,-0.0,-0.0,-0.105,0.994,1.589,-5.578,0.0,0.0,-0.325,0.238
283.1,-3.13,-8.995,-0.0,-0.0,-0.106,0.994,1.587,-5.578,0.0,0.0,-0.325,0.238
283.6,-3.13,-8.995,-0.0,-0.0,-0.108,0.994,1.586,-5.579,0.0,0.0,-0.325,0.238
284.1,-3.13,-8.995,0.0,-0.0,-0.109,0.994,1.585,-5.579,0.0,0.0,-0.325,0.238
284.35,-3.13,-8.995,0.0,-0.0,-0.11,0.994,1.584,-5.58,0.0,0.0,-0.325,0.238
284.6,-3.13,-8.995,-0.0,-0.0,-0.111,0.994,1.583,-5.58,0.0,0.0,-0.325,0.238
284.85,-3.13,-8.995,-0.0,-0.0,-0.111,0.994,1.582,-5.581,0.0,0.0,-0.325,0.238
285.35,-3.13,-8.995,0.0,-0.0,-0.113,0.994,1.581,-5.581,0.0,0.0,-0.325,0.238
285.6,-3.13,-8.995,0.0,-0.0,-0.114,0.994,1.58,-5.581,0.0,0.0,-0.325,0.238
285.85,-3.13,-8.995,0.0,-0.0,-0.114,0.993,1.579,-5.582,0.0,0.0,-0.325,0.238
286.1,-3.13,-8.995,0.0,-0.0,-0.115,0.993,1.579,-5.582,0.0,0.0,-0.325,0.238
286.6,-3.13,-8.995,0.0,-0.0,-0.116,0.993,1.578,-5.582,0.0,0.0,-0.325,0.238
287.1,-3.13,-8.995,0.0,-0.0,-0.117,0.993,1.578,-5.583,0.0,0.0,-0.325,0.238
287.85,-3.104,-9.001,0.0,-0.0,-0.105,0.995,1.62,-5.575,0.0,0.0,-0.326,0.237
288.85,-2.416,-8.97,0.0,-0.0,0.179,0.984,2.583,-5.395,0.0,0.0,-0.355,0.192
289.1,-2.234,-8.885,0.0,-0.0,0.253,0.967,2.869,-5.407,0.0,0.0,-0.365,0.183
289.35,-2.079,-8.784,0.0,-0.0,0.317,0.948,3.025,-5.4,0.0,0.0,-0.37,0.179
289.85,-1.781,-8.517,0.0,-0.0,0.383,0.924,3.227,-5.371,0.0,0.0,-0.375,0.174
290.35,-1.5,-8.231,0.0,-0.0,0.386,0.922,3.4,-5.352,0.0,0.0,-0.379,0.17
290.85,-1.22,-7.949,0.0,-0.0,0.384,0.924,3.546,-5.337,0.0,0.0,-0.383,0.168
291.6,-0.794,-7.524,0.0,-0.0,0.379,0.925,3.73,-5.304,0.0,0.0,-0.388,0.165
292.1,-0.515,-7.243,0.0,-0.0,0.389,0.921,3.789,-5.313,0.0,0.0,-0.39,0.166
292.6,-0.243,-6.965,0.0,-0.0,0.387,0.922,3.812,-5.303,0.0,0.0,-0.39,0.165
293.35,0.179,-6.54,0.0,-0.0,0.382,0.924,3.876,-5.256,0.0,0.0,-0.391,0.162
293.6,0.321,-6.398,0.0,-0.0,0.381,0.925,3.771,-5.256,0.0,0.0,-0.387,0.165
294.35,0.739,-5.985,0.0,-0.0,0.377,0.926,3.718,-5.167,0.0,0.0,-0.383,0.162
295.35,1.3,-5.418,0.0,-0.0,0.397,0.918,3.68,-5.04,0.0,0.0,-0.378,0.156
295.85,1.574,-5.127,0.0,-0.0,0.394,0.919,3.523,-4.935,0.0,0.0,-0.37,0.155
296.35,1.851,-4.839,0.0,-0.0,0.391,0.92,3.407,-4.787,0.0,0.0,-0.362,0.149
297.1,2.267,-4.427,0.0,-0.0,0.365,0.931,3.403,-4.607,-0.0,0.0,-0.357,0.137
297.35,2.417,-4.296,0.0,-0.0,0.335,0.942,3.344,-4.486,-0.0,0.0,-0.352,0.132
297.6,2.577,-4.174,0.0,-0.0,0.304,0.953,3.321,-4.369,-0.0,0.0,-0.348,0.125
298.1,2.916,-3.964,0.0,-0.0,0.242,0.97,3.413,-4.245,-0.0,0.0,-0.347,0.115
298.6,3.273,-3.784,0.0,-0.0,0.23,0.973,3.547,-4.137,-0.0,0.0,-0.346,0.105
298.85,3.452,-3.694,0.0,-0.0,0.232,0.973,3.613,-4.075,-0.0,0.0,-0.346,0.098
299.1,3.63,-3.604,0.0,-0.0,0.234,0.972,3.689,-4.018,-0.0,0.0,-0.346,0.09
299.35,3.808,-3.512,0.0,-0.0,0.235,0.972,3.777,-3.97,-0.0,0.0,-0.347,0.083
299.85,4.168,-3.338,0.0,-0.0,0.215,0.977,3.938,-3.89,-0.0,0.0,-0.349,0.076
300.35,4.53,-3.166,0.0,-0.0,0.232,0.973,4.125,-3.8,-0.0,0.0,-0.351,0.072
300.6,4.708,-3.076,0.0,-0.0,0.235,0.972,4.263,-3.743,-0.0,0.0,-0.354,0.071
300.85,4.885,-2.985,0.0,-0.0,0.229,0.973,4.428,-3.657,-0.0,0.0,-0.356,0.073
301.1,5.065,-2.898,0.0,-0.0,0.215,0.977,4.618,-3.55,-0.0,0.0,-0.357,0.073
301.6,5.429,-2.729,0.0,-0.0,0.222,0.975,4.958,-3.318,-0.0,0.0,-0.353,0.065
302.1,5.786,-2.549,0.0,-0.0,0.235,0.972,5.383,-3.007,-0.0,0.0,-0.345,0.055
302.6,6.143,-2.368,0.0,-0.0,0.226,0.974,5.887,-2.602,-0.0,0.0,-0.328,0.07
303.1,6.478,-2.21,0.0,-0.0,0.206,0.979,6.394,-2.186,-0.0,0.0,-0.307,0.087
303.85,6.803,-2.078,-0.0,0.0,0.184,0.983,6.874,-1.832,-0.0,0.0,-0.289,0.134
304.1,6.843,-2.063,0.0,-0.0,0.164,0.986,7.2,-1.67,-0.0,0.0,-0.283,0.195
304.35,6.877,-2.052,-0.0,0.0,0.148,0.989,7.441,-1.584,-0.0,0.0,-0.281,0.243
304.6,6.877,-2.052,0.0,-0.0,0.12,0.993,7.626,-1.532,-0.0,0.0,-0.28,0.278
305.35,6.878,-2.052,0.0,-0.0,0.072,0.997,7.764,-1.508,-0.0,0.0,-0.28,0.301
305.6,6.879,-2.052,0.0,-0.0,0.057,0.998,7.864,-1.499,-0.0,0.0,-0.28,0.318
305.85,6.879,-2.052,0.0,-0.0,0.042,0.999,7.933,-1.504,-0.0,0.0,-0.281,0.327
306.35,6.879,-2.052,0.0,-0.0,0.039,0.999,7.977,-1.515,-0.0,0.0,-0.283,0.331
307.1,6.879,-2.052,0.0,-0.0,0.042,0.999,8.002,-1.529,-0.0,0.0,-0.284,0.332
307.35,6.879,-2.052,0.0,-0.0,0.042,0.999,8.013,-1.542,-0.0,0.0,-0.285,0.331
307.6,6.879,-2.052,0.0,-0.0,0.043,0.999,8.017,-1.554,-0.0,0.0,-0.286,0.33
307.85,6.879,-2.052,0.0,-0.0,0.044,0.999,8.018,-1.561,-0.0,0.0,-0.287,0.329
308.35,6.879,-2.052,0.0,-0.0,0.045,0.999,8.019,-1.566,-0.0,0.0,-0.287,0.328
308.85,6.879,-2.052,0.0,-0.0,0.047,0.999,8.018,-1.568,-0.0,0.0,-0.287,0.327
309.1,6.879,-2.052,0.0,-0.0,0.048,0.999,8.018,-1.568,-0.0,0.0,-0.287,0.327
309.35,6.879,-2.052,0.0,-0.0,0.048,0.999,8.018,-1.567,-0.0,0.0,-0.287,0.328
309.6,6.879,-2.052,0.0,-0.0,0.049,0.999,8.018,-1.566,-0.0,0.0,-0.287,0.328
310.1,6.878,-2.052,0.0,-0.0,0.051,0.999,8.018,-1.565,-0.0,0.0,-0.287,0.328
310.35,6.878,-2.052,0.0,-0.0,0.052,0.999,8.017,-1.563,-0.0,0.0,-0.287,0.328
311.35,6.878,-2.052,0.0,-0.0,0.055,0.998,8.017,-1.562,-0.0,0.0,-0.287,0.328
311.85,6.878,-2.052,0.0,-0.0,0.056,0.998,8.017,-1.56,-0.0,0.0,-0.286,0.329
312.6,6.878,-2.052,0.0,-0.0,0.059,0.998,8.017,-1.558,-0.0,0.0,-0.286,0.329
313.35,6.878,-2.052,0.0,-0.0,0.061,0.998,8.016,-1.555,-0.0,0.0,-0.286,0.33
314.35,6.878,-2.052,0.0,-0.0,0.064,0.998,8.016,-1.553,-0.0,0.0,-0.286,0.33
315.35,6.877,-2.052,0.0,-0.0,0.067,0.998,8.015,-1.55,-0.0,0.0,-0.286,0.33
315.6,6.877,-2.052,0.0,-0.0,0.068,0.998,8.015,-1.547,-0.0,0.0,-0.286,0.331
315.85,6.877,-2.052,0.0,-0.0,0.069,0.998,8.014,-1.545,-0.0,0.0,-0.285,0.331
316.35,6.877,-2.052,0.0,-0.0,0.07,0.998,8.014,-1.542,-0.0,0.0,-0.285,0.332
316.85,6.877,-2.052,0.0,-0.0,0.072,0.997,8.014,-1.54,-0.0,0.0,-0.285,0.332
317.1,6.877,-2.052,0.0,-0.0,0.072,0.997,8.013,-1.538,-0.0,0.0,-0.285,0.332
317.35,6.877,-2.052,0.0,-0.0,0.073,0.997,8.013,-1.537,-0.0,0.0,-0.285,0.333
317.6,6.877,-2.052,0.0,-0.0,0.074,0.997,8.013,-1.535,-0.0,0.0,-0.285,0.333
317.85,6.877,-2.052,0.0,-0.0,0.075,0.997,8.012,-1.534,-0.0,0.0,-0.284,0.333
318.35,6.876,-2.052,0.0,-0.0,0.076,0.997,8.012,-1.533,-0.0,0.0,-0.284,0.333
318.6,6.876,-2.052,0.0,0.0,0.077,0.997,8.012,-1.531,-0.0,0.0,-0.284,0.333
318.85,6.876,-2.052,0.0,0.0,0.077,0.997,8.012,-1.53,-0.0,0.0,-0.284,0.334
319.35,6.876,-2.052,0.0,0.0,0.079,0.997,8.011,-1.529,-0.0,0.0,-0.284,0.334
319.6,6.876,-2.052,0.0,0.0,0.08,0.997,8.011,-1.528,-0.0,0.0,-0.284,0.334
319.6,6.876,-2.052,0.0,0.0,0.08,0.997,8.011,-1.527,-0.0,0.0,-0.284,0.334
319.85,6.876,-2.052,0.0,0.0,0.08,0.997,8.01,-1.526,-0.0,0.0,-0.284,0.334
320.1,6.875,-2.052,0.0,0.0,0.081,0.997,8.01,-1.525,-0.0,0.0,-0.284,0.334
320.6,6.875,-2.052,0.0,0.0,0.082,0.997,8.01,-1.524,-0.0,0.0,-0.284,0.334
320.85,6.875,-2.052,0.0,0.0,0.083,0.997,8.01,-1.523,-0.0,0.0,-0.284,0.335
321.1,6.875,-2.052,0.0,0.0,0.084,0.996,8.009,-1.523,-0.0,0.0,-0.284,0.335
321.35,6.875,-2.052,0.0,0.0,0.084,0.996,8.009,-1.522,-0.0,0.0,-0.284,0.335
322.1,6.874,-2.053,0.0,0.0,0.086,0.996,8.009,-1.521,-0.0,0.0,-0.283,0.335
322.35,6.874,-2.053,0.0,-0.0,0.087,0.996,8.008,-1.519,-0.0,0.0,-0.283,0.335
322.85,6.874,-2.053,0.0,-0.0,0.088,0.996,8.008,-1.518,-0.0,0.0,-0.283,0.335
323.1,6.874,-2.053,0.0,-0.0,0.089,0.996,8.007,-1.517,-0.0,0.0,-0.283,0.335
323.35,6.873,-2.053,-0.0,-0.0,0.09,0.996,8.007,-1.516,-0.0,0.0,-0.283,0.336
324.1,6.873,-2.053,-0.0,-0.0,0.091,0.996,8.007,-1.515,-0.0,0.0,-0.283,0.336
324.85,6.873,-2.053,-0.0,-0.0,0.093,0.996,8.006,-1.513,-0.0,0.0,-0.283,0.336
325.1,6.873,-2.053,-0.0,-0.0,0.094,0.996,8.006,-1.512,-0.0,0.0,-0.283,0.336
325.85,7.115,-2.043,-0.0,0.0,-0.062,0.998,8.056,-1.499,-0.0,0.0,-0.282,0.346
326.1,7.292,-2.088,-0.0,-0.0,-0.18,0.984,8.113,-1.531,-0.0,0.0,-0.285,0.348
326.35,7.457,-2.173,-0.0,-0.0,-0.295,0.955,8.166,-1.605,-0.0,0.0,-0.291,0.341
326.6,7.608,-2.303,-0.0,-0.0,-0.402,0.916,8.199,-1.727,-0.0,0.0,-0.3,0.323
327.1,7.815,-2.64,-0.0,-0.0,-0.566,0.825,8.184,-1.936,-0.0,0.0,-0.313,0.284
327.85,7.909,-3.23,-0.0,-0.0,-0.701,0.713,8.016,-2.388,-0.0,0.0,-0.34,0.232
328.35,7.904,-3.63,-0.0,-0.0,-0.716,0.698,7.751,-2.982,-0.0,0.0,-0.376,0.238
328.6,7.899,-3.83,-0.0,-0.0,-0.717,0.697,7.446,-3.531,-0.0,0.0,-0.407,0.247
329.1,7.887,-4.228,-0.0,-0.0,-0.717,0.697,7.026,-4.144,-0.0,0.0,-0.433,0.254
329.35,7.881,-4.429,-0.0,-0.0,-0.718,0.696,6.695,-4.585,-0.0,0.0,-0.45,0.251
329.6,7.875,-4.628,-0.0,-0.0,-0.718,0.696,6.427,-4.93,0.0,0.0,-0.457,0.239
330.1,7.863,-5.028,-0.0,-0.0,-0.713,0.701,6.172,-5.236,0.0,0.0,-0.459,0.222
330.6,7.861,-5.429,-0.0,-0.0,-0.709,0.705,5.97,-5.46,0.0,0.0,-0.459,0.214
330.85,7.86,-5.629,-0.0,-0.0,-0.709,0.705,5.83,-5.609,0.0,0.0,-0.459,0.209
331.6,7.856,-6.229,-0.0,-0.0,-0.709,0.705,5.667,-5.789,0.0,0.0,-0.46,0.206
332.1,7.854,-6.629,-0.0,-0.0,-0.709,0.705,5.57,-5.891,0.0,0.0,-0.461,0.206
332.35,7.855,-6.829,-0.0,-0.0,-0.701,0.713,5.497,-5.972,0.0,0.0,-0.462,0.206
332.6,7.859,-7.029,-0.0,-0.0,-0.699,0.715,5.432,-6.041,0.0,0.0,-0.462,0.206
332.85,7.863,-7.228,-0.0,-0.0,-0.699,0.715,5.385,-6.089,0.0,0.0,-0.463,0.207
333.1,7.868,-7.428,-0.0,-0.0,-0.699,0.715,5.346,-6.128,0.0,0.0,-0.463,0.208
333.35,7.875,-7.626,-0.0,-0.0,-0.69,0.724,5.317,-6.157,0.0,0.0,-0.463,0.208
334.6,8.215,-8.548,-0.0,-0.0,-0.421,0.907,5.335,-6.145,0.0,0.0,-0.463,0.208
334.85,8.352,-8.694,-0.0,-0.0,-0.373,0.928,5.396,-6.108,0.0,0.0,-0.464,0.208
335.35,8.643,-8.913,0.0,-0.0,-0.245,0.97,5.476,-6.06,0.0,0.0,-0.465,0.21
335.6,8.745,-8.961,0.0,-0.0,-0.184,0.983,5.544,-6.024,0.0,0.0,-0.466,0.211
336.1,8.855,-8.994,-0.0,-0.0,-0.1,0.995,5.609,-5.985,0.0,0.0,-0.466,0.213
337.1,8.88,-8.998,-0.0,-0.0,-0.047,0.999,5.651,-5.964,0.0,0.0,-0.467,0.214
337.35,8.88,-8.998,-0.0,-0.0,-0.047,0.999,5.677,-5.952,0.0,0.0,-0.467,0.215
337.6,8.88,-8.998,-0.0,-0.0,-0.048,0.999,5.695,-5.944,0.0,0.0,-0.468,0.216
337.85,8.88,-8.998,-0.0,-0.0,-0.049,0.999,5.707,-5.94,0.0,0.0,-0.468,0.217
338.1,8.88,-8.998,-0.0,-0.0,-0.05,0.999,5.716,-5.936,0.0,0.0,-0.468,0.217
338.35,8.88,-8.998,-0.0,-0.0,-0.051,0.999,5.721,-5.933,0.0,0.0,-0.468,0.218
338.6,8.88,-8.998,-0.0,-0.0,-0.052,0.999,5.724,-5.932,0.0,0.0,-0.468,0.218
338.85,8.88,-8.998,-0.0,-0.0,-0.053,0.999,5.725,-5.931,0.0,0.0,-0.468,0.218
339.35,8.88,-8.998,-0.0,-0.0,-0.055,0.998,5.726,-5.93,0.0,0.0,-0.468,0.218
339.6,8.879,-8.998,-0.0,-0.0,-0.056,0.998,5.726,-5.931,0.0,0.0,-0.468,0.218
339.85,8.879,-8.998,-0.0,-0.0,-0.057,0.998,5.726,-5.931,0.0,0.0,-0.468,0.218
340.6,8.879,-8.998,-0.0,-0.0,-0.06,0.998,5.726,-5.931,0.0,0.0,-0.468,0.218
340.85,8.879,-8.998,-0.0,-0.0,-0.061,0.998,5.725,-5.931,0.0,0.0,-0.468,0.218
341.1,8.879,-8.998,-0.0,-0.0,-0.062,0.998,5.725,-5.932,0.0,0.0,-0.468,0.218
341.35,8.879,-8.998,-0.0,-0.0,-0.063,0.998,5.725,-5.932,0.0,0.0,-0.468,0.218
341.6,8.879,-8.998,-0.0,-0.0,-0.064,0.998,5.725,-5.932,0.0,0.0,-0.468,0.218
341.85,8.879,-8.998,-0.0,-0.0,-0.064,0.998,5.725,-5.933,0.0,0.0,-0.468,0.218
342.1,8.879,-8.998,-0.0,-0.0,-0.065,0.998,5.725,-5.933,0.0,0.0,-0.468,0.218
342.6,8.879,-8.998,-0.0,-0.0,-0.067,0.998,5.725,-5.933,0.0,0.0,-0.468,0.218
343.1,8.878,-8.998,-0.0,-0.0,-0.069,0.998,5.725,-5.933,0.0,0.0,-0.468,0.218
343.6,8.878,-8.998,-0.0,-0.0,-0.071,0.997,5.724,-5.934,0.0,0.0,-0.468,0.218
343.85,8.878,-8.998,-0.0,-0.0,-0.072,0.997,5.724,-5.934,0.0,0.0,-0.468,0.218
344.1,8.878,-8.998,-0.0,-0.0,-0.073,0.997,5.724,-5.934,0.0,0.0,-0.468,0.218
344.6,8.878,-8.998,-0.0,-0.0,-0.075,0.997,5.724,-5.935,0.0,0.0,-0.468,0.218
345.1,8.878,-8.998,-0.0,-0.0,-0.077,0.997,5.724,-5.935,0.0,0.0,-0.468,0.218
345.85,8.877,-8.998,-0.0,-0.0,-0.08,0.997,5.724,-5.936,0.0,0.0,-0.468,0.218
346.1,8.877,-8.998,-0.0,-0.0,-0.081,0.997,5.724,-5.936,0.0,0.0,-0.468,0.218
347.35,8.877,-8.998,-0.0,-0.0,-0.086,0.996,5.723,-5.937,0.0,0.0,-0.468,0.218
347.6,8.877,-8.998,-0.0,-0.0,-0.086,0.996,5.723,-5.937,0.0,0.0,-0.468,0.218
348.1,8.877,-8.998,-0.0,-0.0,-0.088,0.996,5.723,-5.937,0.0,0.0,-0.468,0.218
349.1,8.876,-8.998,-0.0,-0.0,-0.092,0.996,5.723,-5.938,0.0,0.0,-0.468,0.218
349.35,8.876,-8.998,-0.0,-0.0,-0.093,0.996,5.722,-5.938,0.0,0.0,-0.468,0.218
350.35,8.876,-8.998,-0.0,-0.0,-0.096,0.995,5.722,-5.939,0.0,0.0,-0.468,0.218
350.6,8.876,-8.998,-0.0,-0.0,-0.097,0.995,5.722,-5.939,0.0,0.0,-0.468,0.218
351.35,8.876,-8.998,-0.0,-0.0,-0.099,0.995,5.722,-5.94,0.0,0.0,-0.468,0.218
351.85,8.876,-8.998,-0.0,-0.0,-0.101,0.995,5.722,-5.94,0.0,0.0,-0.468,0.218
352.6,8.876,-8.998,-0.0,-0.0,-0.091,0.996,5.722,-5.94,0.0,0.0,-0.468,0.218
352.85,8.877,-8.998,-0.0,-0.0,-0.021,1.0,5.726,-5.934,0.0,0.0,-0.468,0.218
353.35,8.89,-8.993,0.0,-0.0,0.211,0.978,5.738,-5.915,0.0,0.0,-0.468,0.217
353.6,8.988,-8.932,0.0,-0.0,0.326,0.946,5.762,-5.88,0.0,0.0,-0.467,0.216
354.1,9.149,-8.725,0.0,-0.0,0.531,0.847,5.813,-5.814,0.0,0.0,-0.467,0.215
354.35,9.207,-8.56,0.0,-0.0,0.62,0.784,5.843,-5.766,0.0,0.0,-0.466,0.215
354.6,9.234,-8.362,0.0,-0.0,0.696,0.718,5.876,-5.707,0.0,0.0,-0.465,0.215
354.85,9.225,-8.176,0.0,-0.0,0.749,0.662,5.901,-5.653,0.0,0.0,-0.464,0.215
355.1,9.203,-8.04,-0.0,0.0,0.775,0.632,5.922,-5.599,0.0,0.0,-0.463,0.214
355.35,9.179,-7.941,0.0,-0.0,0.797,0.604,5.941,-5.546,0.0,0.0,-0.462,0.214
355.85,9.045,-7.579,0.0,-0.0,0.841,0.542,5.97,-5.476,0.0,0.0,-0.461,0.214
356.1,8.959,-7.397,0.0,-0.0,0.849,0.529,5.984,-5.416,0.0,0.0,-0.459,0.214
356.35,8.868,-7.219,0.0,-0.0,0.856,0.517,5.997,-5.354,0.0,0.0,-0.458,0.213
356.6,8.777,-7.042,0.0,-0.0,0.854,0.521,6.008,-5.293,0.0,0.0,-0.456,0.212
356.85,8.685,-6.865,0.0,-0.0,0.856,0.518,6.017,-5.234,0.0,0.0,-0.455,0.211
357.6,8.405,-6.334,0.0,-0.0,0.85,0.526,6.042,-5.14,0.0,0.0,-0.452,0.209
357.85,8.316,-6.155,0.0,-0.0,0.849,0.528,6.052,-5.061,0.0,0.0,-0.45,0.208
358.1,8.227,-5.976,0.0,-0.0,0.851,0.525,6.067,-4.972,0.0,0.0,-0.448,0.206
358.35,8.137,-5.797,0.0,-0.0,0.851,0.525,6.081,-4.88,0.0,0.0,-0.446,0.204
358.6,8.049,-5.618,0.0,-0.0,0.848,0.53,6.098,-4.783,0.0,0.0,-0.443,0.202
358.85,7.96,-5.438,0.0,-0.0,0.85,0.527,6.116,-4.685,0.0,0.0,-0.441,0.201
359.1,7.871,-5.259,0.0,-0.0,0.852,0.524,6.135,-4.579,-0.0,0.0,-0.437,0.199
359.6,7.688,-4.904,0.0,-0.0,0.856,0.517,6.169,-4.432,-0.0,0.0,-0.432,0.196
359.85,7.594,-4.727,0.0,-0.0,0.858,0.514,6.188,-4.295,-0.0,0.0,-0.427,0.192
360.1,7.502,-4.551,0.0,-0.0,0.853,0.522,6.22,-4.136,-0.0,0.0,-0.419,0.186
360.35,7.411,-4.372,0.0,-0.0,0.852,0.524,6.257,-3.968,-0.0,0.0,-0.411,0.18
360.6,7.322,-4.192,0.0,-0.0,0.849,0.529,6.295,-3.791,-0.0,0.0,-0.402,0.173
361.1,7.143,-3.834,0.0,-0.0,0.852,0.523,6.357,-3.549,-0.0,0.0,-0.39,0.162
361.6,6.961,-3.479,0.0,-0.0,0.852,0.524,6.42,-3.255,-0.0,0.0,-0.375,0.148
362.35,6.703,-2.937,0.0,-0.0,0.828,0.561,6.494,-2.849,-0.0,0.0,-0.352,0.13
363.1,6.549,-2.359,0.0,-0.0,0.756,0.655,6.6,-2.304,-0.0,0.0,-0.317,0.11
363.35,6.527,-2.16,0.0,-0.0,0.734,0.679,6.636,-1.856,-0.0,0.0,-0.288,0.103
364.35,6.516,-1.361,0.0,-0.0,0.704,0.71,6.709,-1.349,-0.0,0.0,-0.258,0.18
364.85,6.52,-0.961,0.0,-0.0,0.704,0.71,6.688,-0.911,-0.0,0.0,-0.225,0.259
366.35,6.532,0.239,0.0,-0.0,0.703,0.711,6.65,-0.124,-0.0,0.0,-0.153,0.376
366.6,6.534,0.437,0.0,-0.0,0.703,0.711,6.501,0.439,-0.0,0.0,-0.105,0.397
367.35,6.541,1.038,0.0,-0.0,0.703,0.711,6.352,1.142,-0.0,0.0,-0.062,0.359
367.85,6.546,1.439,0.0,-0.0,0.703,0.711,6.236,1.839,-0.0,0.0,-0.029,0.321
368.1,6.548,1.639,0.0,-0.0,0.703,0.712,6.158,2.392,-0.0,0.0,-0.01,0.303
368.85,6.546,2.238,0.0,-0.0,0.712,0.702,6.102,2.969,-0.0,0.0,0.005,0.301
369.35,6.528,2.638,0.0,-0.0,0.735,0.679,6.039,3.491,-0.0,0.0,0.01,0.312
369.85,6.483,3.036,0.0,-0.0,0.758,0.652,5.981,3.9,-0.0,0.0,0.016,0.323
370.1,6.451,3.233,0.0,-0.0,0.761,0.648,5.932,4.182,-0.0,0.0,0.021,0.329
370.35,6.419,3.431,0.0,-0.0,0.762,0.647,5.902,4.343,-0.0,0.0,0.025,0.332
370.85,6.351,3.826,0.0,-0.0,0.772,0.636,5.872,4.516,-0.0,0.0,0.029,0.326
371.1,6.312,4.021,0.0,-0.0,0.773,0.634,5.839,4.661,-0.0,0.0,0.034,0.332
371.35,6.276,4.217,0.0,-0.0,0.761,0.648,5.804,4.793,-0.0,0.0,0.038,0.336
372.1,6.217,4.814,0.0,-0.0,0.724,0.69,5.755,5.029,-0.0,0.0,0.045,0.346
372.6,6.21,5.214,0.0,-0.0,0.706,0.708,5.714,5.303,-0.0,0.0,0.05,0.354
372.85,6.211,5.414,0.0,-0.0,0.706,0.709,5.7,5.526,-0.0,0.0,0.044,0.343
372.85,6.211,5.415,0.0,-0.0,0.706,0.709,5.678,5.673,-0.0,0.0,0.039,0.334
373.35,6.213,5.813,0.0,-0.0,0.705,0.709,5.663,5.845,-0.0,0.0,0.034,0.324
374.35,6.217,6.613,0.0,-0.0,0.705,0.709,5.648,6.154,-0.0,0.0,0.024,0.304
374.6,6.218,6.814,0.0,-0.0,0.705,0.709,5.602,6.493,-0.0,0.0,0.01,0.276
375.35,6.215,7.414,0.0,0.0,0.731,0.683,5.512,6.887,-0.0,0.0,-0.007,0.235
375.6,6.191,7.613,0.0,0.0,0.771,0.637,5.406,7.22,-0.0,0.0,-0.024,0.19
376.1,6.078,7.981,0.0,0.0,0.838,0.546,5.268,7.526,-0.0,0.0,-0.04,0.141
376.6,5.88,8.311,0.0,-0.0,0.897,0.443,5.065,7.834,-0.0,0.0,-0.06,0.082
376.85,5.752,8.464,0.0,-0.0,0.914,0.405,4.886,8.097,-0.0,0.0,-0.076,0.031
377.35,5.468,8.747,0.0,-0.0,0.936,0.352,4.727,8.322,-0.0,0.0,-0.091,-0.012
377.6,5.313,8.873,0.0,-0.0,0.95,0.313,4.598,8.504,-0.0,0.0,-0.102,-0.047
377.85,5.147,8.984,0.0,-0.0,0.964,0.266,4.491,8.63,-0.0,0.0,-0.111,-0.074
378.35,4.776,9.132,0.0,0.0,0.996,0.089,4.354,8.715,-0.0,0.0,-0.121,-0.103
378.6,4.587,9.145,0.0,0.0,1.0,-0.026,4.234,8.767,-0.0,0.0,-0.127,-0.127
378.85,4.419,9.119,0.0,0.0,0.992,-0.123,4.103,8.794,-0.0,0.0,-0.132,-0.152
379.1,4.235,9.053,0.0,0.0,0.975,-0.221,3.973,8.798,-0.0,0.0,-0.136,-0.174
379.6,3.917,8.814,0.0,0.0,0.915,-0.404,3.83,8.768,-0.0,0.0,-0.14,-0.195
380.35,3.581,8.317,0.0,0.0,0.869,-0.495,3.676,8.662,-0.0,0.0,-0.143,-0.211
380.85,3.368,7.979,0.0,0.0,0.885,-0.465,3.525,8.465,-0.0,0.0,-0.145,-0.217
381.35,3.133,7.665,0.0,0.0,0.903,-0.429,3.376,8.186,-0.0,0.0,-0.144,-0.216
381.6,3.008,7.518,0.0,0.0,0.912,-0.411,3.244,7.899,-0.0,0.0,-0.144,-0.211
381.85,2.873,7.371,0.0,0.0,0.919,-0.394,3.107,7.658,-0.0,0.0,-0.144,-0.211
382.35,2.595,7.084,0.0,0.0,0.922,-0.388,2.934,7.446,-0.0,0.0,-0.146,-0.219
382.6,2.455,6.941,0.0,0.0,0.922,-0.387,2.724,7.269,-0.0,0.0,-0.15,-0.235
382.85,2.315,6.799,0.0,0.0,0.923,-0.385,2.439,7.113,-0.0,0.0,-0.156,-0.265
383.6,1.891,6.375,0.0,0.0,0.925,-0.381,1.991,6.923,-0.0,0.0,-0.167,-0.317
383.85,1.758,6.242,0.0,0.0,0.925,-0.38,1.504,6.727,-0.0,0.0,-0.18,-0.374
384.1,1.618,6.101,0.0,0.0,0.921,-0.39,1.077,6.54,-0.0,0.0,-0.191,-0.424
384.35,1.479,5.958,0.0,0.0,0.921,-0.39,0.746,6.369,-0.0,0.0,-0.196,-0.455
384.6,1.34,5.814,0.0,0.0,0.921,-0.388,0.448,6.208,-0.0,0.0,-0.201,-0.481
384.85,1.2,5.672,0.0,0.0,0.922,-0.387,0.235,6.05,-0.0,0.0,-0.207,-0.491
385.1,1.059,5.529,0.0,0.0,0.923,-0.385,0.109,5.904,-0.0,0.0,-0.212,-0.487
385.35,0.925,5.393,0.0,0.0,0.923,-0.384,0.043,5.763,-0.0,0.0,-0.216,-0.478
385.6,0.789,5.257,0.0,0.0,0.924,-0.383,-0.003,5.606,-0.0,0.0,-0.217,-0.467
386.1,0.505,4.974,0.0,0.0,0.925,-0.38,-0.048,5.41,-0.0,0.0,-0.217,-0.452
386.6,0.22,4.694,0.0,0.0,0.926,-0.378,-0.085,5.192,-0.0,0.0,-0.216,-0.435
386.85,0.077,4.554,0.0,0.0,0.926,-0.377,-0.122,4.954,-0.0,0.0,-0.215,-0.416
387.1,-0.065,4.413,0.0,0.0,0.922,-0.387,-0.156,4.707,-0.0,0.0,-0.213,-0.396
387.35,-0.205,4.27,0.0,0.0,0.922,-0.387,-0.194,4.453,-0.0,-0.0,-0.211,-0.375
388.1,-0.615,3.856,0.0,0.0,0.924,-0.383,-0.288,4.157,-0.0,-0.0,-0.213,-0.339
388.35,-0.749,3.723,0.0,0.0,0.924,-0.381,-0.417,3.865,-0.0,-0.0,-0.213,-0.288
388.6,-0.89,3.582,0.0,0.0,0.925,-0.38,-0.583,3.585,-0.0,-0.0,-0.209,-0.219
388.85,-1.033,3.441,0.0,0.0,0.925,-0.379,-0.801,3.304,-0.0,-0.0,-0.201,-0.136
389.1,-1.176,3.301,0.0,0.0,0.926,-0.378,-1.079,3.008,-0.0,0.0,-0.192,-0.045
389.35,-1.319,3.163,0.0,0.0,0.928,-0.372,-1.303,2.773,-0.0,0.0,-0.186,0.025
389.6,-1.465,3.026,0.0,0.0,0.932,-0.363,-1.509,2.584,-0.0,0.0,-0.181,0.087
389.85,-1.614,2.892,0.0,0.0,0.94,-0.34,-1.688,2.446,-0.0,0.0,-0.179,0.137
390.1,-1.775,2.774,0.0,0.0,0.961,-0.277,-1.84,2.363,-0.0,0.0,-0.179,0.173
390.6,-2.141,2.618,0.0,-0.0,0.992,-0.127,-2.062,2.32,-0.0,0.0,-0.181,0.218
390.85,-2.337,2.578,0.0,-0.0,0.997,-0.074,-2.289,2.31,-0.0,0.0,-0.183,0.259
391.1,-2.536,2.558,0.0,-0.0,1.0,-0.027,-2.496,2.334,-0.0,0.0,-0.182,0.29
391.35,-2.736,2.554,0.0,-0.0,1.0,0.001,-2.693,2.367,-0.0,0.0,-0.182,0.317
391.6,-2.936,2.557,0.0,0.0,1.0,0.01,-2.864,2.415,-0.0,0.0,-0.183,0.336
391.85,-3.136,2.563,0.0,-0.0,1.0,0.03,-3.027,2.472,-0.0,0.0,-0.185,0.353
392.1,-3.333,2.582,0.0,-0.0,0.998,0.066,-3.183,2.545,-0.0,0.0,-0.187,0.37
392.35,-3.531,2.618,0.0,-0.0,0.993,0.118,-3.334,2.642,-0.0,0.0,-0.19,0.386
392.6,-3.722,2.676,0.0,-0.0,0.984,0.179,-3.481,2.766,-0.0,0.0,-0.194,0.403
392.85,-3.903,2.758,0.0,-0.0,0.969,0.246,-3.619,2.923,-0.0,0.0,-0.199,0.42
393.1,-4.073,2.862,0.0,-0.0,0.955,0.296,-3.743,3.109,-0.0,0.0,-0.204,0.436
393.35,-4.234,2.981,0.0,-0.0,0.943,0.333,-3.859,3.312,-0.0,0.0,-0.211,0.451
393.6,-4.384,3.114,0.0,-0.0,0.93,0.368,-3.965,3.532,-0.0,0.0,-0.217,0.464
394.1,-4.668,3.394,0.0,-0.0,0.923,0.384,-4.113,3.808,-0.0,0.0,-0.226,0.478
394.6,-4.952,3.677,0.0,-0.0,0.925,0.381,-4.315,4.144,-0.0,0.0,-0.236,0.496
394.85,-5.079,3.804,0.0,-0.0,0.921,0.389,-4.518,4.454,-0.0,0.0,-0.247,0.513
395.1,-5.223,3.953,0.0,-0.0,0.921,0.39,-4.692,4.716,-0.0,0.0,-0.258,0.527
395.35,-5.362,4.096,0.0,-0.0,0.921,0.388,-4.836,4.937,-0.0,0.0,-0.266,0.538
396.1,-5.784,4.524,0.0,-0.0,0.923,0.384,-5.021,5.184,0.0,0.0,-0.275,0.553
396.6,-6.059,4.799,0.0,-0.0,0.924,0.381,-5.217,5.428,0.0,0.0,-0.284,0.571
397.35,-6.478,5.212,0.0,-0.0,0.924,0.382,-5.413,5.653,0.0,0.0,-0.292,0.588
397.6,-6.613,5.35,0.0,-0.0,0.921,0.389,-5.557,5.816,0.0,0.0,-0.298,0.601
397.85,-6.752,5.493,0.0,-0.0,0.922,0.387,-5.646,5.918,0.0,0.0,-0.302,0.609
398.1,-6.893,5.636,0.0,-0.0,0.923,0.386,-5.703,5.981,0.0,0.0,-0.305,0.614
398.6,-7.168,5.913,0.0,-0.0,0.924,0.383,-5.76,6.035,0.0,0.0,-0.306,0.619
399.1,-7.448,6.192,0.0,-0.0,0.925,0.381,-5.822,6.089,0.0,0.0,-0.308,0.626
399.35,-7.59,6.333,0.0,-0.0,0.925,0.379,-5.871,6.129,0.0,0.0,-0.309,0.631
399.85,-7.875,6.612,0.0,-0.0,0.926,0.377,-5.918,6.166,0.0,0.0,-0.311,0.636
400.6,-8.3,7.037,0.0,-0.0,0.923,0.386,-5.977,6.211,0.0,0.0,-0.312,0.643
401.35,-8.717,7.468,0.0,-0.0,0.917,0.399,-6.043,6.257,0.0,0.0,-0.313,0.65
401.85,-8.972,7.775,0.0,-0.0,0.885,0.465,-6.096,6.291,0.0,0.0,-0.314,0.657
402.35,-9.15,8.131,0.0,-0.0,0.797,0.603,-6.132,6.312,0.0,0.0,-0.315,0.661
403.6,-9.08,8.849,-0.0,0.0,0.503,0.864,-6.142,6.318,0.0,0.0,-0.315,0.662
403.85,-9.052,8.89,-0.0,0.0,0.419,0.908,-6.132,6.31,0.0,0.0,-0.315,0.66
404.1,-9.038,8.903,-0.0,0.0,0.332,0.943,-6.12,6.302,0.0,0.0,-0.315,0.658
404.35,-9.037,8.905,-0.0,0.0,0.241,0.97,-6.114,6.298,0.0,0.0,-0.315,0.658
404.6,-9.037,8.905,0.0,-0.0,0.169,0.986,-6.111,6.298,0.0,0.0,-0.315,0.657
405.35,-9.038,8.904,0.0,-0.0,0.06,0.998,-6.111,6.302,0.0,0.0,-0.315,0.657
405.6,-9.038,8.904,0.0,-0.0,0.044,0.999,-6.114,6.309,0.0,0.0,-0.315,0.657
406.1,-9.038,8.904,0.0,-0.0,0.012,1.0,-6.119,6.32,0.0,0.0,-0.316,0.657
406.35,-9.038,8.904,0.0,-0.0,0.002,1.0,-6.124,6.333,0.0,0.0,-0.316,0.657
406.6,-9.038,8.904,0.0,-0.0,0.002,1.0,-6.129,6.347,0.0,0.0,-0.317,0.657
406.85,-9.038,8.904,0.0,-0.0,0.002,1.0,-6.135,6.355,0.0,0.0,-0.317,0.658
407.1,-9.038,8.904,0.0,-0.0,0.002,1.0,-6.141,6.362,0.0,0.0,-0.317,0.658
407.35,-9.039,8.904,0.0,-0.0,0.002,1.0,-6.145,6.368,0.0,0.0,-0.318,0.659
407.85,-9.039,8.904,0.0,-0.0,0.003,1.0,-6.148,6.372,0.0,0.0,-0.318,0.659
408.35,-9.039,8.904,0.0,-0.0,0.003,1.0,-6.149,6.374,0.0,0.0,-0.318,0.659
408.6,-9.039,8.904,0.0,-0.0,0.003,1.0,-6.15,6.375,0.0,0.0,-0.318,0.659
408.85,-9.039,8.904,0.0,-0.0,0.003,1.0,-6.15,6.376,0.0,0.0,-0.318,0.659
409.1,-9.039,8.904,0.0,-0.0,0.003,1.0,-6.15,6.376,0.0,0.0,-0.318,0.659
409.35,-9.039,8.904,0.0,-0.0,0.003,1.0,-6.15,6.376,0.0,0.0,-0.318,0.659
409.6,-9.039,8.904,0.0,-0.0,0.003,1.0,-6.15,6.376,0.0,0.0,-0.318,0.659
512.45,0.759,-9.039,0.0,-0.0,0.01,1.0,1.089,-0.221,-0.0,0.0,-0.134,0.646
513.2,1.358,-9.026,-0.0,-0.0,0.011,1.0,3.303,-4.231,-0.0,0.0,-0.343,0.219
513.45,1.558,-9.022,-0.0,-0.0,0.011,1.0,3.703,-5.029,0.0,0.0,-0.378,0.187
513.7,1.758,-9.018,-0.0,-0.0,0.011,1.0,3.821,-5.512,0.0,0.0,-0.396,0.196
514.2,2.158,-9.01,-0.0,-0.0,-0.0,1.0,3.901,-5.684,0.0,0.0,-0.404,0.197
514.45,2.358,-9.011,-0.0,-0.0,-0.002,1.0,3.962,-5.765,0.0,0.0,-0.408,0.196
514.95,2.662,-9.012,-0.0,-0.0,-0.002,1.0,4.043,-5.81,0.0,0.0,-0.412,0.195
515.7,2.854,-9.013,-0.0,-0.0,-0.008,1.0,4.101,-5.87,0.0,0.0,-0.416,0.196
516.2,2.871,-9.014,-0.0,-0.0,-0.037,0.999,4.126,-5.942,0.0,0.0,-0.419,0.198
516.45,2.871,-9.014,-0.0,-0.0,-0.037,0.999,4.135,-5.989,0.0,0.0,-0.42,0.2
517.2,2.871,-9.014,-0.0,-0.0,-0.038,0.999,4.125,-5.992,0.0,0.0,-0.42,0.201
518.2,2.871,-9.014,-0.0,-0.0,-0.038,0.999,4.121,-5.994,0.0,0.0,-0.42,0.201
518.95,2.871,-9.014,-0.0,-0.0,-0.038,0.999,4.117,-5.995,0.0,0.0,-0.42,0.201
519.2,2.871,-9.014,-0.0,-0.0,-0.038,0.999,4.113,-5.994,0.0,0.0,-0.42,0.201
519.45,2.871,-9.014,-0.0,-0.0,-0.039,0.999,4.111,-5.994,0.0,0.0,-0.42,0.201
519.7,2.871,-9.014,-0.0,-0.0,-0.039,0.999,4.109,-5.993,0.0,0.0,-0.42,0.201
519.95,2.871,-9.014,-0.0,-0.0,-0.039,0.999,4.108,-5.993,0.0,0.0,-0.42,0.201
520.7,2.871,-9.014,-0.0,-0.0,-0.039,0.999,4.108,-5.993,0.0,0.0,-0.42,0.201
520.95,2.871,-9.014,-0.0,-0.0,-0.039,0.999,4.108,-5.993,0.0,0.0,-0.42,0.201
521.2,2.871,-9.014,-0.0,-0.0,-0.039,0.999,4.108,-5.993,0.0,0.0,-0.42,0.201
521.95,2.871,-9.014,-0.0,-0.0,-0.04,0.999,4.108,-5.993,0.0,0.0,-0.42,0.201
522.2,2.871,-9.014,-0.0,-0.0,-0.04,0.999,4.108,-5.993,0.0,0.0,-0.42,0.201
522.45,2.871,-9.014,-0.0,-0.0,-0.04,0.999,4.108,-5.993,0.0,0.0,-0.42,0.201
522.7,2.871,-9.014,-0.0,-0.0,-0.04,0.999,4.108,-5.993,0.0,0.0,-0.42,0.201
523.2,2.871,-9.014,-0.0,-0.0,-0.04,0.999,4.108,-5.993,0.0,0.0,-0.42,0.201
523.7,2.871,-9.014,-0.0,-0.0,-0.04,0.999,4.108,-5.993,0.0,0.0,-0.42,0.201
524.7,2.871,-9.014,-0.0,-0.0,-0.04,0.999,4.108,-5.993,0.0,0.0,-0.42,0.201
524.95,2.871,-9.014,-0.0,-0.0,-0.04,0.999,4.108,-5.993,0.0,0.0,-0.42,0.201
525.2,2.871,-9.014,-0.0,-0.0,-0.041,0.999,4.108,-5.993,0.0,0.0,-0.42,0.201
525.95,2.871,-9.014,-0.0,-0.0,-0.041,0.999,4.108,-5.993,0.0,0.0,-0.42,0.201
526.95,2.871,-9.014,-0.0,-0.0,-0.041,0.999,4.108,-5.993,0.0,0.0,-0.42,0.201
527.2,2.871,-9.014,-0.0,-0.0,-0.041,0.999,4.108,-5.993,0.0,0.0,-0.42,0.201
527.45,2.871,-9.014,-0.0,-0.0,-0.041,0.999,4.108,-5.993,0.0,0.0,-0.42,0.201
527.95,2.871,-9.014,-0.0,-0.0,-0.041,0.999,4.108,-5.993,0.0,0.0,-0.42,0.201
528.2,2.871,-9.014,-0.0,-0.0,-0.041,0.999,4.108,-5.993,0.0,0.0,-0.42,0.201
528.45,2.871,-9.014,-0.0,-0.0,-0.042,0.999,4.108,-5.993,0.0,0.0,-0.42,0.201
528.7,2.871,-9.014,-0.0,-0.0,-0.042,0.999,4.108,-5.993,0.0,0.0,-0.42,0.201
529.2,2.871,-9.014,-0.0,-0.0,-0.042,0.999,4.108,-5.993,0.0,0.0,-0.42,0.201
529.7,2.871,-9.014,-0.0,-0.0,-0.042,0.999,4.108,-5.993,0.0,0.0,-0.42,0.201
530.2,2.871,-9.014,-0.0,-0.0,-0.042,0.999,4.108,-5.993,0.0,0.0,-0.42,0.201
530.95,2.871,-9.014,-0.0,-0.0,-0.042,0.999,4.108,-5.994,0.0,0.0,-0.42,0.201
531.2,2.871,-9.014,-0.0,-0.0,-0.042,0.999,4.108,-5.994,0.0,0.0,-0.42,0.201
532.2,3.243,-8.961,0.0,0.0,0.188,0.982,4.183,-5.965,0.0,0.0,-0.421,0.198
532.7,3.575,-8.742,0.0,-0.0,0.378,0.926,4.24,-5.946,0.0,0.0,-0.422,0.197
532.95,3.708,-8.592,0.0,-0.0,0.441,0.897,4.246,-5.931,0.0,0.0,-0.422,0.196
533.2,3.823,-8.429,0.0,-0.0,0.48,0.877,4.254,-5.899,0.0,0.0,-0.421,0.194
533.45,3.926,-8.257,0.0,-0.0,0.506,0.863,4.259,-5.866,0.0,0.0,-0.42,0.192
534.2,4.194,-7.72,0.0,-0.0,0.539,0.842,4.298,-5.806,0.0,0.0,-0.42,0.188
534.7,4.365,-7.359,0.0,-0.0,0.531,0.847,4.312,-5.767,0.0,0.0,-0.419,0.185
534.95,4.451,-7.178,0.0,-0.0,0.537,0.843,4.314,-5.727,0.0,0.0,-0.418,0.182
535.2,4.536,-6.997,0.0,-0.0,0.537,0.844,4.323,-5.683,0.0,0.0,-0.417,0.179
535.7,4.702,-6.634,0.0,-0.0,0.537,0.843,4.359,-5.62,0.0,0.0,-0.416,0.175
535.95,4.79,-6.454,0.0,-0.0,0.522,0.853,4.376,-5.58,0.0,0.0,-0.416,0.171
536.7,5.058,-5.918,0.0,-0.0,0.532,0.847,4.465,-5.476,0.0,0.0,-0.416,0.165
537.2,5.235,-5.558,0.0,-0.0,0.523,0.852,4.532,-5.395,0.0,0.0,-0.416,0.16
538.45,5.674,-4.66,0.0,-0.0,0.537,0.843,4.745,-5.148,0.0,0.0,-0.412,0.144
538.7,5.761,-4.479,0.0,-0.0,0.525,0.851,4.821,-5.03,0.0,0.0,-0.41,0.138
539.2,5.945,-4.127,0.0,-0.0,0.517,0.856,4.977,-4.796,0.0,0.0,-0.407,0.135
539.45,6.037,-3.948,0.0,-0.0,0.521,0.854,5.105,-4.604,-0.0,0.0,-0.406,0.134
540.2,6.299,-3.408,0.0,-0.0,0.549,0.836,5.385,-4.208,-0.0,0.0,-0.403,0.135
540.45,6.373,-3.222,0.0,-0.0,0.578,0.816,5.597,-3.874,-0.0,0.0,-0.393,0.127
540.7,6.431,-3.03,0.0,-0.0,0.615,0.788,5.868,-3.437,-0.0,0.0,-0.376,0.118
540.95,6.47,-2.836,0.0,-0.0,0.651,0.759,6.141,-2.965,-0.0,0.0,-0.354,0.111
541.45,6.499,-2.435,0.0,-0.0,0.703,0.711,6.399,-2.411,-0.0,0.0,-0.322,0.103
541.7,6.499,-2.235,0.0,-0.0,0.708,0.706,6.55,-1.934,-0.0,0.0,-0.293,0.09
541.95,6.498,-2.035,0.0,-0.0,0.708,0.706,6.634,-1.585,-0.0,0.0,-0.271,0.131
542.95,6.495,-1.236,0.0,-0.0,0.708,0.706,6.717,-1.149,-0.0,0.0,-0.244,0.217
543.7,6.493,-0.635,0.0,-0.0,0.708,0.706,6.705,-0.644,-0.0,0.0,-0.202,0.307
543.95,6.492,-0.435,0.0,-0.0,0.709,0.706,6.619,-0.149,-0.0,0.0,-0.156,0.36
544.7,6.49,0.164,0.0,-0.0,0.709,0.706,6.513,0.326,-0.0,0.0,-0.115,0.398
545.2,6.488,0.564,0.0,-0.0,0.709,0.705,6.38,0.837,-0.0,0.0,-0.078,0.37
545.7,6.486,0.964,0.0,-0.0,0.709,0.705,6.269,1.44,-0.0,0.0,-0.049,0.336
545.95,6.485,1.164,0.0,-0.0,0.709,0.705,6.183,1.906,-0.0,0.0,-0.026,0.309
546.2,6.484,1.364,0.0,-0.0,0.709,0.705,6.135,2.29,-0.0,0.0,-0.013,0.297
546.45,6.483,1.564,0.0,-0.0,0.709,0.705,6.107,2.602,-0.0,0.0,-0.005,0.293
546.7,6.482,1.764,0.0,-0.0,0.709,0.705,6.082,2.862,-0.0,0.0,0.002,0.291
546.95,6.481,1.965,0.0,-0.0,0.709,0.705,6.053,3.103,-0.0,0.0,0.005,0.295
547.2,6.48,2.164,0.0,-0.0,0.709,0.705,6.023,3.333,-0.0,0.0,0.007,0.3
547.45,6.479,2.364,0.0,-0.0,0.709,0.705,5.997,3.538,-0.0,0.0,0.009,0.305
547.7,6.478,2.558,0.0,-0.0,0.709,0.705,5.976,3.722,-0.0,0.0,0.012,0.311
547.95,6.476,2.764,0.0,-0.0,0.71,0.705,5.953,3.907,-0.0,0.0,0.015,0.317
548.2,6.472,2.965,0.0,-0.0,0.723,0.691,5.931,4.081,-0.0,0.0,0.018,0.322
548.45,6.457,3.164,0.0,-0.0,0.74,0.673,5.911,4.233,-0.0,0.0,0.022,0.327
548.7,6.436,3.363,0.0,-0.0,0.753,0.658,5.894,4.354,-0.0,0.0,0.025,0.329
548.95,6.401,3.559,0.0,-0.0,0.778,0.629,5.871,4.465,-0.0,0.0,0.028,0.325
549.45,6.298,3.932,0.0,-0.0,0.805,0.594,5.834,4.602,-0.0,0.0,0.032,0.328
549.95,6.201,4.321,0.0,-0.0,0.768,0.64,5.796,4.773,-0.0,0.0,0.037,0.335
550.2,6.174,4.518,0.0,-0.0,0.74,0.673,5.744,4.951,-0.0,0.0,0.043,0.342
550.45,6.161,4.717,0.0,-0.0,0.717,0.697,5.694,5.121,-0.0,0.0,0.048,0.348
550.95,6.166,5.117,0.0,-0.0,0.698,0.716,5.671,5.321,-0.0,0.0,0.048,0.348
551.2,6.171,5.316,0.0,-0.0,0.698,0.717,5.661,5.506,-0.0,0.0,0.043,0.339
551.45,6.176,5.517,0.0,-0.0,0.697,0.717,5.651,5.675,-0.0,0.0,0.037,0.331
551.7,6.182,5.717,0.0,-0.0,0.697,0.717,5.635,5.838,-0.0,0.0,0.033,0.321
551.95,6.188,5.916,0.0,-0.0,0.697,0.717,5.61,6.004,-0.0,0.0,0.027,0.309
552.2,6.191,6.117,0.0,-0.0,0.706,0.708,5.572,6.185,-0.0,0.0,0.019,0.291
552.7,6.185,6.517,0.0,-0.0,0.723,0.691,5.534,6.409,-0.0,0.0,0.009,0.271
552.95,6.171,6.717,0.0,-0.0,0.744,0.668,5.47,6.641,-0.0,0.0,-0.002,0.247
553.2,6.142,6.914,0.0,-0.0,0.769,0.639,5.385,6.859,-0.0,0.0,-0.014,0.217
553.45,6.096,7.109,0.0,-0.0,0.798,0.603,5.29,7.046,-0.0,0.0,-0.025,0.187
554.7,5.711,8.03,0.0,-0.0,0.853,0.522,5.144,7.323,-0.0,0.0,-0.041,0.14
554.95,5.616,8.207,0.0,-0.0,0.863,0.505,4.956,7.643,-0.0,0.0,-0.06,0.082
555.2,5.516,8.383,0.0,-0.0,0.867,0.498,4.785,7.927,-0.0,0.0,-0.077,0.03
555.45,5.413,8.552,0.0,-0.0,0.881,0.473,4.653,8.158,-0.0,0.0,-0.09,-0.01
555.7,5.293,8.712,0.0,-0.0,0.909,0.416,4.536,8.347,-0.0,0.0,-0.101,-0.044
555.95,5.151,8.852,0.0,-0.0,0.94,0.34,4.43,8.497,-0.0,0.0,-0.111,-0.073
556.7,4.631,9.137,0.0,-0.0,0.991,0.136,4.268,8.629,-0.0,0.0,-0.123,-0.109
556.95,4.432,9.177,0.0,0.0,0.998,0.067,4.125,8.74,-0.0,0.0,-0.13,-0.143
557.2,4.232,9.195,0.0,0.0,1.0,0.021,3.985,8.817,-0.0,0.0,-0.136,-0.174
557.95,3.633,9.188,0.0,0.0,1.0,-0.013,3.772,8.87,-0.0,0.0,-0.144,-0.214
558.45,3.233,9.177,0.0,0.0,1.0,-0.014,3.552,8.912,-0.0,0.0,-0.152,-0.255
558.7,3.033,9.171,0.0,0.0,1.0,-0.014,3.359,8.943,-0.0,0.0,-0.159,-0.289
559.45,2.44,9.157,0.0,0.0,1.0,-0.002,3.108,8.971,-0.0,0.0,-0.168,-0.333
560.2,1.834,9.156,0.0,0.0,1.0,-0.001,2.803,9.006,-0.0,0.0,-0.178,-0.385
560.45,1.632,9.155,0.0,0.0,1.0,-0.001,2.506,9.034,-0.0,0.0,-0.188,-0.435
560.95,1.233,9.152,0.0,0.0,1.0,-0.016,2.136,9.035,-0.0,0.0,-0.204,-0.491
561.2,1.034,9.14,0.0,0.0,0.999,-0.049,1.615,8.998,-0.0,0.0,-0.224,-0.568
561.7,0.639,9.073,0.0,0.0,0.993,-0.118,0.818,8.906,-0.0,0.0,-0.243,-0.674
561.95,0.446,9.02,0.0,0.0,0.988,-0.154,0.16,8.756,-0.0,0.0,-0.272,-0.724
562.2,0.258,8.953,0.0,0.0,0.983,-0.185,0.02,8.726,-0.0,0.0,-0.287,-0.723
562.7,-0.106,8.788,0.0,0.0,0.972,-0.236,-0.051,8.727,-0.0,0.0,-0.296,-0.723
562.95,-0.283,8.695,0.0,0.0,0.97,-0.242,-0.1,8.725,-0.0,0.0,-0.302,-0.723
563.2,-0.46,8.6,0.0,0.0,0.97,-0.245,-0.136,8.72,-0.0,0.0,-0.306,-0.722
563.45,-0.635,8.506,0.0,0.0,0.971,-0.24,-0.165,8.713,-0.0,0.0,-0.31,-0.721
563.7,-0.813,8.413,0.0,0.0,0.972,-0.237,-0.199,8.704,-0.0,0.0,-0.314,-0.72
563.95,-0.991,8.321,0.0,0.0,0.971,-0.238,-0.235,8.694,-0.0,0.0,-0.318,-0.719
564.2,-1.168,8.231,0.0,0.0,0.974,-0.225,-0.285,8.68,-0.0,0.0,-0.324,-0.718
564.45,-1.35,8.145,0.0,0.0,0.976,-0.217,-0.343,8.662,-0.0,0.0,-0.331,-0.716
564.7,-1.531,8.061,0.0,0.0,0.976,-0.219,-0.415,8.636,-0.0,0.0,-0.339,-0.711
565.2,-1.888,7.882,0.0,0.0,0.972,-0.236,-0.497,8.607,-0.0,0.0,-0.349,-0.705
565.95,-2.421,7.605,0.0,0.0,0.973,-0.229,-0.617,8.577,-0.0,0.0,-0.359,-0.686
566.2,-2.601,7.518,0.0,0.0,0.976,-0.218,-0.768,8.533,-0.0,0.0,-0.368,-0.66
566.45,-2.782,7.433,0.0,0.0,0.976,-0.22,-0.936,8.467,-0.0,0.0,-0.376,-0.624
566.7,-2.963,7.347,0.0,0.0,0.975,-0.222,-1.135,8.366,-0.0,0.0,-0.383,-0.571
566.95,-3.143,7.26,0.0,0.0,0.975,-0.224,-1.382,8.221,-0.0,0.0,-0.385,-0.493
567.2,-3.322,7.173,0.0,0.0,0.974,-0.226,-1.679,8.032,-0.0,0.0,-0.38,-0.406
568.2,-4.038,6.814,0.0,0.0,0.972,-0.234,-2.091,7.829,-0.0,0.0,-0.372,-0.289
568.95,-4.571,6.54,0.0,0.0,0.974,-0.227,-2.567,7.622,-0.0,0.0,-0.364,-0.164
569.45,-4.93,6.362,0.0,0.0,0.973,-0.229,-3.149,7.394,-0.0,0.0,-0.356,-0.014
569.95,-5.287,6.182,0.0,0.0,0.972,-0.233,-3.9,7.149,0.0,0.0,-0.351,0.171
570.2,-5.465,6.091,0.0,0.0,0.973,-0.232,-4.549,6.878,0.0,0.0,-0.349,0.328
571.2,-6.183,5.738,0.0,0.0,0.973,-0.229,-5.033,6.558,0.0,0.0,-0.342,0.442
571.45,-6.36,5.649,0.0,0.0,0.973,-0.231,-5.275,6.355,0.0,0.0,-0.33,0.502
571.95,-6.721,5.473,0.0,0.0,0.975,-0.221,-5.422,6.266,0.0,0.0,-0.323,0.538
572.2,-6.901,5.386,0.0,0.0,0.974,-0.226,-5.545,6.201,0.0,0.0,-0.318,0.567
572.45,-7.079,5.295,0.0,0.0,0.971,-0.238,-5.649,6.146,0.0,0.0,-0.313,0.59
572.7,-7.256,5.202,0.0,0.0,0.971,-0.24,-5.71,6.123,0.0,0.0,-0.311,0.603
573.45,-7.79,4.928,0.0,0.0,0.973,-0.231,-5.789,6.128,0.0,0.0,-0.31,0.617
574.45,-8.489,4.542,0.0,0.0,0.961,-0.275,-5.895,6.156,0.0,0.0,-0.31,0.634
574.7,-8.659,4.434,0.0,0.0,0.957,-0.292,-5.982,6.169,0.0,0.0,-0.309,0.648
574.95,-8.819,4.314,0.0,0.0,0.937,-0.351,-6.039,6.163,0.0,0.0,-0.307,0.657
575.2,-8.96,4.173,0.0,0.0,0.909,-0.416,-6.072,6.152,0.0,0.0,-0.306,0.663
575.45,-9.078,4.011,0.0,0.0,0.869,-0.495,-6.094,6.134,0.0,0.0,-0.305,0.668
575.95,-9.206,3.636,0.0,0.0,0.747,-0.664,-6.108,6.107,0.0,0.0,-0.303,0.672
576.2,-9.21,3.453,0.0,0.0,0.677,-0.736,-6.115,6.073,0.0,0.0,-0.301,0.675
576.7,-9.138,3.172,0.0,0.0,0.529,-0.849,-6.107,6.022,0.0,0.0,-0.299,0.677
576.95,-9.091,3.093,0.0,0.0,0.45,-0.893,-6.097,5.969,0.0,0.0,-0.296,0.679
577.2,-9.055,3.05,0.0,0.0,0.409,-0.913,-6.091,5.926,0.0,0.0,-0.294,0.681
577.45,-9.04,3.033,0.0,0.0,0.414,-0.91,-6.092,5.898,0.0,0.0,-0.292,0.683
577.7,-9.04,3.033,0.0,0.0,0.365,-0.931,-6.097,5.876,0.0,0.0,-0.291,0.685
578.2,-9.04,3.033,0.0,0.0,0.18,-0.984,-6.098,5.859,0.0,0.0,-0.29,0.687
578.7,-9.039,3.033,0.0,0.0,0.087,-0.996,-6.098,5.849,0.0,0.0,-0.289,0.687
579.95,-9.039,3.033,0.0,0.0,0.008,-1.0,-6.099,5.846,0.0,0.0,-0.289,0.688
580.45,-9.039,3.033,0.0,0.0,0.008,-1.0,-6.102,5.852,0.0,0.0,-0.289,0.688
580.95,-9.039,3.033,0.0,0.0,0.008,-1.0,-6.105,5.863,0.0,0.0,-0.29,0.688
581.45,-9.039,3.033,0.0,0.0,0.009,-1.0,-6.109,5.875,0.0,0.0,-0.29,0.688
581.7,-9.039,3.033,0.0,0.0,0.009,-1.0,-6.111,5.887,0.0,0.0,-0.291,0.687
582.45,-9.039,3.033,0.0,0.0,0.01,-1.0,-6.112,5.898,0.0,0.0,-0.291,0.687
583.2,-9.039,3.033,0.0,0.0,0.011,-1.0,-6.113,5.907,0.0,0.0,-0.292,0.686
583.7,-9.039,3.033,0.0,0.0,0.011,-1.0,-6.113,5.913,0.0,0.0,-0.292,0.686
583.95,-9.039,3.033,0.0,0.0,0.011,-1.0,-6.112,5.916,0.0,0.0,-0.292,0.685
584.45,-9.039,3.033,0.0,0.0,0.012,-1.0,-6.112,5.917,0.0,0.0,-0.292,0.685
584.95,-9.039,3.033,0.0,0.0,0.012,-1.0,-6.112,5.917,0.0,0.0,-0.292,0.685
585.45,-9.039,3.033,0.0,0.0,0.013,-1.0,-6.112,5.917,0.0,0.0,-0.292,0.685
586.2,-9.04,3.033,0.0,0.0,0.014,-1.0,-6.112,5.917,0.0,0.0,-0.292,0.685
586.95,-9.04,3.033,0.0,0.0,0.015,-1.0,-6.112,5.916,0.0,0.0,-0.292,0.685
587.45,-9.04,3.033,0.0,0.0,0.015,-1.0,-6.112,5.916,0.0,0.0,-0.292,0.685
587.95,-9.04,3.033,0.0,0.0,0.016,-1.0,-6.112,5.916,0.0,0.0,-0.292,0.685
588.45,-9.04,3.033,0.0,0.0,0.017,-1.0,-6.112,5.916,0.0,0.0,-0.292,0.685
589.45,-9.04,3.033,0.0,0.0,0.018,-1.0,-6.112,5.916,0.0,0.0,-0.292,0.685
589.7,-9.04,3.033,0.0,0.0,0.019,-1.0,-6.112,5.916,0.0,0.0,-0.292,0.685
589.95,-9.04,3.033,0.0,0.0,0.019,-1.0,-6.112,5.916,0.0,0.0,-0.292,0.685
590.2,-9.04,3.033,0.0,0.0,0.019,-1.0,-6.112,5.915,0.0,0.0,-0.292,0.685
590.45,-9.04,3.033,0.0,0.0,0.02,-1.0,-6.112,5.915,0.0,0.0,-0.292,0.685
590.7,-9.04,3.033,0.0,0.0,0.02,-1.0,-6.112,5.915,0.0,0.0,-0.292,0.685
590.95,-9.04,3.033,0.0,0.0,0.02,-1.0,-6.112,5.915,0.0,0.0,-0.292,0.685
591.2,-9.04,3.033,0.0,0.0,0.021,-1.0,-6.112,5.915,0.0,0.0,-0.292,0.685
591.7,-9.04,3.033,0.0,0.0,0.021,-1.0,-6.112,5.915,0.0,0.0,-0.292,0.685
591.95,-9.04,3.033,0.0,0.0,0.022,-1.0,-6.112,5.915,0.0,0.0,-0.292,0.685
592.45,-9.04,3.033,0.0,0.0,0.023,-1.0,-6.112,5.915,0.0,0.0,-0.292,0.686
592.7,-9.04,3.033,0.0,0.0,0.023,-1.0,-6.112,5.914,0.0,0.0,-0.292,0.686
592.95,-9.04,3.033,0.0,0.0,0.023,-1.0,-6.112,5.914,0.0,0.0,-0.292,0.686
593.2,-9.04,3.033,0.0,0.0,0.024,-1.0,-6.112,5.914,0.0,0.0,-0.292,0.686
593.45,-9.04,3.033,0.0,0.0,0.024,-1.0,-6.112,5.914,0.0,0.0,-0.292,0.686
593.95,-9.041,3.033,0.0,0.0,0.025,-1.0,-6.112,5.914,0.0,0.0,-0.292,0.686
594.45,-9.041,3.033,0.0,0.0,0.026,-1.0,-6.112,5.914,0.0,0.0,-0.292,0.686
594.7,-9.041,3.033,0.0,0.0,0.026,-1.0,-6.112,5.914,0.0,0.0,-0.292,0.686
594.95,-9.041,3.033,0.0,0.0,0.027,-1.0,-6.112,5.914,0.0,0.0,-0.292,0.686
595.2,-9.041,3.033,0.0,0.0,0.027,-1.0,-6.112,5.914,0.0,0.0,-0.292,0.686
595.7,-9.041,3.033,0.0,0.0,0.028,-1.0,-6.112,5.913,0.0,0.0,-0.292,0.686
595.95,-9.041,3.033,0.0,0.0,0.028,-1.0,-6.112,5.913,0.0,0.0,-0.292,0.686
596.2,-9.041,3.033,0.0,0.0,0.029,-1.0,-6.112,5.913,0.0,0.0,-0.292,0.686
596.7,-9.041,3.033,-0.0,0.0,0.029,-1.0,-6.112,5.913,0.0,0.0,-0.292,0.686
597.2,-9.041,3.033,0.0,0.0,0.03,-1.0,-6.112,5.913,0.0,0.0,-0.292,0.686
598.95,-8.426,3.225,-0.0,0.0,-0.296,-0.955,-6.058,5.884,0.0,0.0,-0.292,0.678
599.2,-8.269,3.348,-0.0,0.0,-0.353,-0.936,-5.996,5.855,0.0,0.0,-0.292,0.67
599.45,-8.122,3.484,-0.0,0.0,-0.375,-0.927,-5.953,5.844,0.0,0.0,-0.292,0.664
600.2,-7.703,3.913,-0.0,0.0,-0.388,-0.921,-5.909,5.849,0.0,0.0,-0.293,0.656
600.45,-7.562,4.055,-0.0,0.0,-0.379,-0.925,-5.878,5.868,0.0,0.0,-0.295,0.65
600.7,-7.419,4.193,-0.0,0.0,-0.373,-0.928,-5.858,5.896,0.0,0.0,-0.297,0.645
601.2,-7.115,4.454,-0.0,0.0,-0.316,-0.949,-5.829,5.92,0.0,0.0,-0.299,0.638
601.45,-6.952,4.569,-0.0,0.0,-0.285,-0.959,-5.798,5.942,0.0,0.0,-0.3,0.632
601.95,-6.603,4.766,-0.0,0.0,-0.226,-0.974,-5.75,5.951,0.0,0.0,-0.302,0.624
602.2,-6.424,4.854,-0.0,0.0,-0.226,-0.974,-5.7,5.953,0.0,0.0,-0.303,0.615
603.45,-5.53,5.3,-0.0,0.0,-0.224,-0.975,-5.588,5.911,0.0,0.0,-0.303,0.598
603.7,-5.35,5.388,-0.0,0.0,-0.226,-0.974,-5.478,5.87,0.0,0.0,-0.303,0.581
603.95,-5.171,5.477,-0.0,0.0,-0.229,-0.973,-5.38,5.842,0.0,0.0,-0.303,0.565
604.7,-4.635,5.746,-0.0,0.0,-0.225,-0.974,-5.244,5.807,0.0,0.0,-0.304,0.543
604.95,-4.455,5.834,-0.0,0.0,-0.225,-0.974,-5.097,5.787,0.0,0.0,-0.306,0.516
605.7,-3.918,6.1,-0.0,0.0,-0.232,-0.973,-4.903,5.768,0.0,0.0,-0.31,0.48
606.2,-3.56,6.279,-0.0,0.0,-0.223,-0.975,-4.7,5.759,0.0,0.0,-0.314,0.442
606.45,-3.38,6.367,-0.0,0.0,-0.225,-0.974,-4.515,5.789,-0.0,0.0,-0.319,0.402
606.7,-3.2,6.455,-0.0,0.0,-0.227,-0.974,-4.34,5.849,-0.0,0.0,-0.324,0.361
606.95,-3.021,6.544,-0.0,0.0,-0.229,-0.973,-4.144,5.926,-0.0,0.0,-0.328,0.314
607.2,-2.843,6.633,-0.0,0.0,-0.232,-0.973,-3.944,6.004,-0.0,0.0,-0.332,0.266
607.95,-2.304,6.897,-0.0,0.0,-0.226,-0.974,-3.355,6.343,-0.0,0.0,-0.338,0.116
608.2,-2.126,6.988,-0.0,0.0,-0.24,-0.971,-2.159,7.314,-0.0,0.0,-0.36,-0.227
608.45,-1.949,7.082,-0.0,0.0,-0.242,-0.97,-1.483,7.749,-0.0,0.0,-0.374,-0.426
609.2,-1.417,7.36,-0.0,0.0,-0.234,-0.972,-1.068,8.03,-0.0,0.0,-0.375,-0.557
609.45,-1.239,7.451,-0.0,0.0,-0.229,-0.973,-0.88,8.188,-0.0,0.0,-0.37,-0.611
610.2,-0.701,7.716,-0.0,0.0,-0.23,-0.973,-0.713,8.299,-0.0,0.0,-0.364,-0.648
610.45,-0.523,7.806,-0.0,0.0,-0.232,-0.973,-0.578,8.397,-0.0,0.0,-0.355,-0.676
610.7,-0.344,7.897,-0.0,0.0,-0.234,-0.972,-0.474,8.48,-0.0,0.0,-0.345,-0.692
610.95,-0.166,7.988,-0.0,0.0,-0.236,-0.972,-0.375,8.555,-0.0,0.0,-0.334,-0.702
611.2,0.011,8.08,-0.0,0.0,-0.238,-0.971,-0.275,8.62,-0.0,0.0,-0.322,-0.71
611.45,0.189,8.172,-0.0,0.0,-0.232,-0.973,-0.213,8.665,-0.0,0.0,-0.315,-0.714
611.7,0.369,8.26,-0.0,0.0,-0.218,-0.976,-0.168,8.702,-0.0,0.0,-0.311,-0.718
611.95,0.55,8.344,-0.0,0.0,-0.217,-0.976,-0.135,8.73,-0.0,0.0,-0.307,-0.72
612.2,0.73,8.429,-0.0,0.0,-0.224,-0.975,-0.108,8.75,-0.0,0.0,-0.305,-0.722
613.95,1.784,8.918,0.0,-0.0,-0.142,-0.99,-0.049,8.748,-0.0,0.0,-0.297,-0.721
614.2,1.833,8.931,-0.0,0.0,-0.112,-0.994,-0.015,8.758,-0.0,0.0,-0.293,-0.723
614.7,1.883,8.941,0.0,0.0,-0.076,-0.997,0.012,8.774,-0.0,0.0,-0.29,-0.724
615.45,1.884,8.941,-0.0,0.0,-0.043,-0.999,0.035,8.79,-0.0,0.0,-0.287,-0.726
615.7,1.884,8.941,-0.0,0.0,-0.044,-0.999,0.059,8.805,-0.0,0.0,-0.285,-0.728
616.2,1.884,8.941,-0.0,0.0,-0.045,-0.999,0.087,8.82,-0.0,0.0,-0.281,-0.729
616.45,1.884,8.941,-0.0,0.0,-0.046,-0.999,0.13,8.843,-0.0,0.0,-0.277,-0.731
616.7,1.884,8.941,-0.0,0.0,-0.047,-0.999,0.362,8.947,-0.0,0.0,-0.261,-0.728
617.45,1.884,8.941,-0.0,0.0,-0.049,-0.999,1.662,9.204,-0.0,0.0,-0.226,-0.582
618.2,1.884,8.941,-0.0,0.0,-0.051,-0.999,2.083,9.267,-0.0,0.0,-0.209,-0.523
618.7,1.884,8.941,-0.0,0.0,-0.052,-0.999,2.102,9.268,-0.0,0.0,-0.208,-0.52
618.95,1.884,8.941,-0.0,0.0,-0.053,-0.999,2.11,9.269,-0.0,0.0,-0.208,-0.519
619.7,1.884,8.941,-0.0,0.0,-0.055,-0.999,2.108,9.268,-0.0,0.0,-0.208,-0.519
620.95,1.883,8.941,-0.0,0.0,-0.058,-0.998,2.108,9.269,-0.0,0.0,-0.208,-0.519
621.2,1.883,8.941,-0.0,0.0,-0.058,-0.998,2.108,9.269,-0.0,0.0,-0.208,-0.519
621.95,1.883,8.941,-0.0,0.0,-0.06,-0.998,2.107,9.27,-0.0,0.0,-0.208,-0.519
622.2,1.883,8.941,-0.0,0.0,-0.061,-0.998,2.107,9.27,-0.0,0.0,-0.208,-0.519
622.45,1.883,8.941,-0.0,0.0,-0.061,-0.998,2.107,9.271,-0.0,0.0,-0.208,-0.52
622.95,1.883,8.941,-0.0,0.0,-0.062,-0.998,2.107,9.271,-0.0,0.0,-0.208,-0.52
623.45,1.883,8.941,-0.0,0.0,-0.064,-0.998,2.106,9.271,-0.0,0.0,-0.208,-0.52
623.95,1.883,8.941,0.0,0.0,-0.065,-0.998,2.106,9.272,-0.0,0.0,-0.208,-0.52
624.2,1.883,8.941,0.0,0.0,-0.065,-0.998,2.106,9.272,-0.0,0.0,-0.208,-0.52
624.45,1.883,8.941,-0.0,0.0,-0.066,-0.998,2.106,9.272,-0.0,0.0,-0.208,-0.52
625.2,1.882,8.941,0.0,0.0,-0.068,-0.998,2.106,9.272,-0.0,0.0,-0.208,-0.52
625.7,1.882,8.941,-0.0,0.0,-0.069,-0.998,2.105,9.273,-0.0,0.0,-0.208,-0.52
626.2,1.882,8.941,-0.0,-0.0,-0.07,-0.998,2.105,9.273,-0.0,0.0,-0.208,-0.52
626.7,1.882,8.941,-0.0,-0.0,-0.071,-0.997,2.105,9.273,-0.0,0.0,-0.208,-0.52
627.2,1.882,8.941,-0.0,-0.0,-0.072,-0.997,2.105,9.274,-0.0,0.0,-0.208,-0.52
627.7,1.881,8.94,-0.0,-0.0,-0.073,-0.997,2.104,9.274,-0.0,0.0,-0.208,-0.52
628.7,1.881,8.94,-0.0,-0.0,-0.075,-0.997,2.104,9.274,-0.0,0.0,-0.208,-0.52
628.95,1.881,8.94,-0.0,0.0,-0.075,-0.997,2.103,9.274,-0.0,0.0,-0.208,-0.52
629.2,1.881,8.94,-0.0,0.0,-0.076,-0.997,2.103,9.275,-0.0,0.0,-0.208,-0.521
630.2,1.88,8.94,-0.0,0.0,-0.078,-0.997,2.102,9.275,-0.0,0.0,-0.208,-0.521
630.45,1.88,8.94,-0.0,0.0,-0.078,-0.997,2.102,9.275,-0.0,0.0,-0.208,-0.521
630.7,1.88,8.94,0.0,0.0,-0.079,-0.997,2.101,9.275,-0.0,0.0,-0.208,-0.521
630.95,1.88,8.94,0.0,0.0,-0.079,-0.997,2.101,9.276,-0.0,0.0,-0.208,-0.521
631.2,1.88,8.94,0.0,0.0,-0.079,-0.997,2.1,9.276,-0.0,0.0,-0.208,-0.521
631.45,1.88,8.94,0.0,0.0,-0.08,-0.997,2.1,9.276,-0.0,0.0,-0.208,-0.521
631.7,1.88,8.94,0.0,0.0,-0.08,-0.997,2.1,9.276,-0.0,0.0,-0.208,-0.521
632.2,1.88,8.94,0.0,0.0,-0.081,-0.997,2.099,9.276,-0.0,0.0,-0.208,-0.521
632.45,1.88,8.94,0.0,0.0,-0.081,-0.997,2.099,9.276,-0.0,0.0,-0.208,-0.521
632.7,1.88,8.94,0.0,0.0,-0.081,-0.997,2.099,9.276,-0.0,0.0,-0.208,-0.521
632.95,1.88,8.94,0.0,0.0,-0.082,-0.997,2.099,9.277,-0.0,0.0,-0.208,-0.521
633.2,1.88,8.94,0.0,0.0,-0.082,-0.997,2.099,9.277,-0.0,0.0,-0.208,-0.521
633.45,1.879,8.94,0.0,0.0,-0.082,-0.997,2.098,9.277,-0.0,0.0,-0.208,-0.521
633.95,1.879,8.94,0.0,0.0,-0.083,-0.997,2.098,9.277,-0.0,0.0,-0.208,-0.522
634.2,1.879,8.94,0.0,0.0,-0.083,-0.997,2.098,9.277,-0.0,0.0,-0.208,-0.522
634.45,1.879,8.94,0.0,0.0,-0.084,-0.996,2.098,9.277,-0.0,0.0,-0.208,-0.522
634.7,1.879,8.94,0.0,0.0,-0.084,-0.996,2.098,9.277,-0.0,0.0,-0.208,-0.522
634.95,1.879,8.94,0.0,0.0,-0.084,-0.996,2.098,9.277,-0.0,0.0,-0.208,-0.522
635.45,1.879,8.94,0.0,0.0,-0.085,-0.996,2.097,9.277,-0.0,0.0,-0.208,-0.522
635.95,1.879,8.94,0.0,0.0,-0.085,-0.996,2.097,9.277,-0.0,0.0,-0.208,-0.522
636.2,1.879,8.94,0.0,0.0,-0.086,-0.996,2.097,9.277,-0.0,0.0,-0.208,-0.522
636.7,1.879,8.94,0.0,0.0,-0.086,-0.996,2.097,9.278,-0.0,0.0,-0.208,-0.522
637.2,1.879,8.94,0.0,0.0,-0.087,-0.996,2.097,9.278,-0.0,0.0,-0.208,-0.522
637.7,1.879,8.94,0.0,0.0,-0.087,-0.996,2.096,9.278,-0.0,0.0,-0.208,-0.522
638.2,1.879,8.94,0.0,0.0,-0.088,-0.996,2.096,9.278,-0.0,0.0,-0.208,-0.522
638.45,1.878,8.94,0.0,0.0,-0.088,-0.996,2.096,9.278,-0.0,0.0,-0.208,-0.522
638.95,1.878,8.94,0.0,0.0,-0.089,-0.996,2.096,9.278,-0.0,0.0,-0.208,-0.522
639.2,1.878,8.94,0.0,0.0,-0.089,-0.996,2.095,9.278,-0.0,0.0,-0.209,-0.522
639.45,1.878,8.94,0.0,0.0,-0.089,-0.996,2.095,9.278,-0.0,0.0,-0.209,-0.522
639.7,1.878,8.94,0.0,0.0,-0.09,-0.996,2.095,9.278,-0.0,0.0,-0.209,-0.522
639.95,1.878,8.94,0.0,0.0,-0.09,-0.996,2.095,9.278,-0.0,0.0,-0.209,-0.522
640.2,1.878,8.94,0.0,0.0,-0.09,-0.996,2.095,9.279,-0.0,0.0,-0.209,-0.522
640.7,1.878,8.94,0.0,0.0,-0.09,-0.996,2.095,9.279,-0.0,0.0,-0.209,-0.522
641.2,1.878,8.94,0.0,0.0,-0.091,-0.996,2.094,9.279,-0.0,0.0,-0.209,-0.522
641.45,1.878,8.94,0.0,0.0,-0.091,-0.996,2.094,9.279,-0.0,0.0,-0.209,-0.522
641.7,1.878,8.94,0.0,0.0,-0.091,-0.996,2.094,9.279,-0.0,0.0,-0.209,-0.522
641.95,1.878,8.94,0.0,0.0,-0.092,-0.996,2.094,9.279,-0.0,0.0,-0.209,-0.522
642.2,1.878,8.94,0.0,0.0,-0.092,-0.996,2.094,9.279,-0.0,0.0,-0.209,-0.522
642.45,1.878,8.94,0.0,0.0,-0.092,-0.996,2.094,9.279,-0.0,0.0,-0.209,-0.522
642.45,1.878,8.94,0.0,0.0,-0.092,-0.996,2.094,9.279,-0.0,0.0,-0.209,-0.522
642.95,1.878,8.94,0.0,0.0,-0.093,-0.996,2.093,9.279,-0.0,0.0,-0.209,-0.523
643.45,1.878,8.94,0.0,0.0,-0.093,-0.996,2.093,9.279,-0.0,0.0,-0.209,-0.523
643.7,1.878,8.94,0.0,0.0,-0.093,-0.996,2.093,9.279,-0.0,0.0,-0.209,-0.523
644.45,1.878,8.94,0.0,0.0,-0.094,-0.996,2.093,9.279,-0.0,0.0,-0.209,-0.523
644.95,1.878,8.94,0.0,0.0,-0.094,-0.996,2.093,9.279,-0.0,0.0,-0.209,-0.523
645.2,1.878,8.94,0.0,0.0,-0.094,-0.996,2.093,9.279,-0.0,0.0,-0.209,-0.523
645.7,1.877,8.94,0.0,0.0,-0.095,-0.996,2.093,9.28,-0.0,0.0,-0.209,-0.523
645.95,1.877,8.94,0.0,0.0,-0.095,-0.995,2.092,9.28,-0.0,0.0,-0.209,-0.523
646.2,1.877,8.94,0.0,0.0,-0.095,-0.995,2.092,9.28,-0.0,0.0,-0.209,-0.523
646.95,1.877,8.94,0.0,0.0,-0.096,-0.995,2.092,9.28,-0.0,0.0,-0.209,-0.523
647.95,1.877,8.94,0.0,0.0,-0.096,-0.995,2.092,9.28,-0.0,0.0,-0.209,-0.523
648.2,1.877,8.94,0.0,0.0,-0.097,-0.995,2.092,9.28,-0.0,0.0,-0.209,-0.523
648.45,1.877,8.94,0.0,0.0,-0.097,-0.995,2.092,9.28,-0.0,0.0,-0.209,-0.523
648.7,1.877,8.94,0.0,0.0,-0.097,-0.995,2.091,9.28,-0.0,0.0,-0.209,-0.523
648.95,1.877,8.94,0.0,0.0,-0.097,-0.995,2.091,9.28,-0.0,0.0,-0.209,-0.523
649.2,1.877,8.94,0.0,0.0,-0.097,-0.995,2.091,9.28,-0.0,0.0,-0.209,-0.523
